Luts/Fujifilm/FLog2C_to_PRO-Neg.Std_VLog.cube
TITLE "Generated by Resolve"
LUT_3D_SIZE 9
0 0 0
0.0178836 0.00422675 0.00370794
0.25771 0.0313726 0.0727855
0.839109 0.0724956 0.286061
0.966094 0.257221 0.484733
0.966094 0.257221 0.484733
0.966232 0.261021 0.482063
0.971374 0.374289 0.397711
0.973831 0.53315 0.243366
0.00196841 0.013962 0.000442512
0.0104219 0.00271611 0.00131228
0.175418 0.0247196 0.0504158
0.648157 0.0514382 0.182727
0.954223 0.149554 0.45069
0.966094 0.257221 0.484733
0.967269 0.283787 0.465751
0.971527 0.386191 0.387762
0.973968 0.537957 0.237385
0.0205844 0.162722 0.00062562
0.01561 0.105699 0.000518807
0.105577 0.0883192 0.00280766
0.439017 0.0996719 0.0814832
0.943801 0.133486 0.353872
0.967773 0.278264 0.470542
0.968688 0.313054 0.446357
0.972122 0.399969 0.376013
0.974136 0.543648 0.230304
0.0149996 0.476799 9.15541e-05
0.0223545 0.344671 0.00077821
0.0643931 0.30164 0.000335698
0.345434 0.288029 0.000885023
0.824094 0.317891 0.0867628
0.971939 0.384253 0.382193
0.971176 0.384573 0.389563
0.973037 0.438361 0.342214
0.974655 0.559991 0.209979
0.007187 0.753689 0
0.00888075 0.718486 0.000579843
0.00946059 0.690486 0.000228885
0.268467 0.65214 0.000427253
0.710399 0.622812 4.57771e-05
0.967956 0.599405 0.0485695
0.97406 0.539925 0.235172
0.97406 0.538033 0.236255
0.972137 0.6103 0.142046
1.5259e-05 0.99649 0.000335698
1.5259e-05 0.992767 0.000228885
0.00129702 0.985626 0
0.148135 0.969696 0.000610361
0.594614 0.930037 0
0.95761 0.877928 0
0.963928 0.785199 0.000411994
0.966369 0.736553 0.000122072
0.965881 0.734859 0.000808728
0.0213931 0.999741 0.000747692
0.0560464 0.999802 0.000885023
0.0970016 0.999863 0.00102235
0.210224 0.999847 0.00111391
0.469963 0.999374 1.5259e-05
0.822614 0.999969 6.10361e-05
0.954955 0.960021 1.5259e-05
0.957214 0.911757 0
0.957321 0.88072 0.000198367
0.34258 0.999573 0.000183108
0.3505 0.999557 0.000167849
0.359365 0.999557 0.00015259
0.386465 0.999542 0.000106813
0.469368 0.999512 9.15541e-05
0.668971 0.999344 0.000228885
0.930434 0.999756 0.000198367
0.9505 0.999695 0.000671397
0.952514 1 0
0.70782 0.999664 1.5259e-05
0.709178 0.999664 1.5259e-05
0.710811 0.99968 1.5259e-05
0.715724 0.999695 1.5259e-05
0.731548 0.999756 0
0.776303 0.999725 0.000106813
0.881849 0.999863 0.000122072
0.9505 0.999695 0.000671397
0.9505 0.999695 0.000671397
0 0 0
0.00949111 0.00265507 0.00102235
0.234684 0.0290074 0.0656748
0.810346 0.0685435 0.266728
0.966094 0.257221 0.484733
0.966094 0.257221 0.484733
0.965621 0.261524 0.481971
0.971374 0.37438 0.397635
0.973831 0.533272 0.243214
0.00381476 0.016846 0.017731
0.000457771 0.000396735 9.15541e-05
0.157122 0.0205539 0.0457618
0.603265 0.0505226 0.168292
0.95108 0.134524 0.445609
0.966094 0.257221 0.484733
0.967437 0.284871 0.465507
0.971527 0.386297 0.387686
0.973968 0.537957 0.237385
0.0233005 0.18175 0.0126497
0.0156558 0.11397 1.5259e-05
0.0940566 0.0936446 0.00155642
0.410971 0.104005 0.0683757
0.9346 0.139605 0.326711
0.967163 0.28484 0.464729
0.968551 0.313451 0.446021
0.972122 0.399969 0.376013
0.974136 0.543648 0.230304
0.0140841 0.51635 1.5259e-05
0.0205844 0.366217 4.57771e-05
0.043534 0.311025 0.000167849
0.319432 0.297169 0
0.799527 0.32694 0.0604868
0.970169 0.388067 0.366339
0.971511 0.38587 0.388556
0.973037 0.438361 0.342214
0.974655 0.559991 0.209979
0.00715648 0.77261 6.10361e-05
0.00939956 0.735103 0.000213626
0.0109865 0.704921 0.000350958
0.232761 0.665934 0.000122072
0.684764 0.636011 7.62951e-05
0.966781 0.615671 0.0216983
0.973541 0.541878 0.234363
0.97406 0.538033 0.236255
0.972137 0.6103 0.142046
0 0.997864 0.000289921
0 0.997131 0.000289921
0.000350958 0.995911 0.00030518
0.0726482 0.981445 0.000427253
0.550057 0.940719 0.000122072
0.949905 0.887251 1.5259e-05
0.962524 0.789151 0.000213626
0.966354 0.73669 0.000122072
0.965881 0.734859 0.000808728
0.00309758 1 0.000289921
0.0157626 0.999985 0.000335698
0.030808 0.999954 0.000381476
0.0938582 0.999878 0.000518807
0.375692 0.99968 3.0518e-05
0.77734 0.999924 1.5259e-05
0.954376 0.97084 1.5259e-05
0.957214 0.911757 0
0.957321 0.88072 0.000198367
0.282567 0.999527 4.57771e-05
0.290288 0.999512 4.57771e-05
0.298955 0.999496 6.10361e-05
0.325307 0.999466 9.15541e-05
0.403647 0.999557 0.000137331
0.601907 0.999588 0.000274662
0.893492 0.999817 0.000366217
0.9505 0.999695 0.000671397
0.952514 1 0
0.697856 0.999619 0.000289921
0.69929 0.999634 0.000289921
0.700984 0.999634 0.00030518
0.706096 0.999649 0.000320439
0.72256 0.999695 0.000427253
0.767666 0.999847 0.000457771
0.873014 0.999557 9.15541e-05
0.9505 0.999695 0.000671397
0.9505 0.999695 0.000671397
0.00453193 0.00111391 0.0700999
0.00280766 0.000991836 0.0495918
0.206546 0.0248417 0.069337
0.766003 0.0625925 0.238758
0.965713 0.25449 0.484092
0.966094 0.257221 0.484733
0.966796 0.270436 0.475395
0.971344 0.38497 0.390509
0.973831 0.533272 0.243214
0.0128176 0.0134737 0.117571
0.00579843 0.00109865 0.0784161
0.144457 0.0137636 0.0866712
0.556313 0.045243 0.169421
0.946883 0.11075 0.437217
0.966094 0.257221 0.484733
0.967712 0.299382 0.455512
0.971389 0.397147 0.380423
0.973968 0.537957 0.237385
0.0327916 0.209049 0.205661
0.0257115 0.131838 0.121614
0.0979629 0.0992599 0.0975967
0.399176 0.10399 0.141909
0.903136 0.143496 0.327657
0.967803 0.295888 0.457801
0.971069 0.328511 0.432837
0.972473 0.411872 0.366445
0.974136 0.543648 0.230304
0.0258335 0.556252 0.179339
0.024506 0.415457 0.0875868
0.030518 0.352178 0.0606699
0.319585 0.317296 0.0740215
0.781628 0.329137 0.173739
0.972534 0.39498 0.387152
0.972168 0.405417 0.371618
0.97203 0.45182 0.329076
0.974655 0.559991 0.209979
0.00807202 0.804318 0.000595102
0.00915541 0.771817 0.00015259
0.011017 0.742275 0.000549325
0.197452 0.697078 0.000350958
0.659861 0.653254 0.000534066
0.973541 0.627955 0.157809
0.974929 0.566796 0.249302
0.973861 0.554314 0.217548
0.972137 0.6103 0.142046
1.5259e-05 0.999741 0.000289921
1.5259e-05 0.999191 0.000274662
0 0.99826 0.000274662
0.00910964 0.99646 0.000289921
0.49427 0.957305 1.5259e-05
0.920562 0.900526 0
0.968307 0.80531 0.00726329
0.964935 0.757336 9.15541e-05
0.965881 0.734859 0.000808728
0 1 0.000289921
0 1 0.000289921
0 1 0.000289921
0.0292515 0.999985 0.000274662
0.305455 0.999939 0.000808728
0.737041 0.999817 1.5259e-05
0.953536 0.985275 0
0.95581 0.925139 9.15541e-05
0.957321 0.88072 0.000198367
0.251148 0.999878 0.000701915
0.258579 0.999878 0.000656138
0.267857 0.999893 0.000595102
0.29482 0.999924 0.000427253
0.374121 0.999771 0.000122072
0.567163 0.999695 0.000579843
0.870954 0.999603 0.000289921
0.9505 0.999695 0.000671397
0.952514 1 0
0.687556 0.999435 0.000228885
0.68893 0.999435 0.000228885
0.690608 0.999435 0.000228885
0.695583 0.999435 0.000213626
0.71165 0.999435 0.000183108
0.757427 0.999542 0.000106813
0.864988 0.999756 0.000411994
0.9505 0.999695 0.000671397
0.9505 0.999695 0.000671397
0.0177462 0.0028687 0.201526
0.0132601 0.00267033 0.168719
0.207752 0.0151369 0.167666
0.736614 0.042771 0.309285
0.964721 0.247684 0.493584
0.9682 0.260227 0.511543
0.970733 0.291615 0.520775
0.97496 0.412573 0.436408
0.974014 0.565179 0.204105
0.0326696 0.00416571 0.295003
0.0248417 0.0037232 0.230121
0.150423 0.00973526 0.205646
0.53994 0.0161135 0.304051
0.950057 0.0737316 0.547143
0.971084 0.271412 0.5608
0.973861 0.321141 0.519539
0.97528 0.425132 0.431968
0.973754 0.570489 0.197406
0.0440986 0.233539 0.514183
0.0383001 0.149203 0.360678
0.108385 0.104875 0.280217
0.412909 0.0973068 0.31339
0.889632 0.121706 0.483742
0.976501 0.324681 0.56762
0.975708 0.352819 0.516625
0.976303 0.439368 0.426093
0.973434 0.576867 0.189441
0.0369726 0.588647 0.567681
0.0356146 0.452522 0.422492
0.0364385 0.385702 0.356588
0.332616 0.332998 0.33254
0.778256 0.32636 0.396475
0.979706 0.403662 0.539422
0.980072 0.428138 0.501335
0.978347 0.479103 0.409583
0.972488 0.595056 0.166415
0.0207523 0.810987 0.36701
0.0214542 0.780484 0.328008
0.0228733 0.754604 0.301289
0.180026 0.708507 0.270344
0.654292 0.656565 0.278248
0.984283 0.626307 0.40444
0.984039 0.578454 0.450782
0.980835 0.577661 0.360769
0.97113 0.646326 0.0992294
0.000106813 0.999557 0.0275883
0.000137331 0.999084 0.0221866
6.10361e-05 0.998566 0.0154726
0.0015259 0.996628 0.00735485
0.450385 0.979416 0.00683604
0.907088 0.922896 0.105028
0.97937 0.797589 0.30222
0.977279 0.758511 0.219959
0.967407 0.765637 0.00030518
0 1 0.000289921
0 1 0.000289921
0 1 0.000289921
0.0151827 0.999954 0.00030518
0.233707 0.999603 0.00015259
0.681895 0.999649 0.000732433
0.956695 0.997208 0
0.959899 0.948196 0.000183108
0.956878 0.901549 0.000122072
0.223423 0.99968 0
0.230335 0.999695 0
0.238972 0.999725 0
0.264057 0.999817 0
0.339788 0.999954 0.000213626
0.529778 0.99942 0.000122072
0.83772 0.999847 3.0518e-05
0.9505 0.999695 0.000671397
0.950912 0.999603 0.000411994
0.669245 0.999542 0
0.670604 0.999542 0
0.672221 0.999542 0
0.677104 0.999557 0
0.692821 0.999573 0
0.738918 0.999741 4.57771e-05
0.846632 0.999725 0.000198367
0.9505 0.999695 0.000671397
0.9505 0.999695 0.000671397
0.0451057 0.00749218 0.465644
0.0435798 0.00610361 0.43949
0.210025 0.00509651 0.353491
0.722805 0.000350958 0.493599
0.971054 0.232792 0.605585
0.975357 0.273213 0.628443
0.978958 0.315587 0.642756
0.985885 0.442924 0.607569
0.987121 0.585443 0.488029
0.0701305 0.00953689 0.632914
0.0615549 0.00827039 0.562249
0.161578 0.00605783 0.448631
0.543374 0.000732433 0.523369
0.952926 0.0110018 0.727291
0.977722 0.263325 0.673121
0.983215 0.349065 0.648676
0.986618 0.454276 0.606851
0.98706 0.589837 0.486458
0.0522774 0.229068 0.87512
0.0550851 0.160647 0.745083
0.125399 0.0991379 0.599695
0.444572 0.0717784 0.600168
0.883299 0.0894636 0.705577
0.983581 0.321141 0.690898
0.98378 0.385824 0.654856
0.98735 0.46714 0.60531
0.986999 0.595102 0.484642
0.0468452 0.611978 0.909499
0.0486 0.478614 0.793332
0.0472725 0.410636 0.722026
0.352697 0.344579 0.673747
0.785626 0.314244 0.684703
0.98854 0.399817 0.71754
0.988754 0.460914 0.662928
0.988525 0.503578 0.600931
0.98677 0.6103 0.479088
0.0290074 0.816159 0.770367
0.0306401 0.786526 0.738216
0.0315404 0.760021 0.71043
0.16527 0.713512 0.671702
0.653117 0.653712 0.653254
0.995636 0.617166 0.690532
0.993729 0.5935 0.652964
0.991409 0.590982 0.582925
0.987442 0.654292 0.458091
0.0108797 0.98558 0.580957
0.0110628 0.981979 0.574411
0.0113222 0.977935 0.568353
0.0124514 0.96434 0.553735
0.406149 0.943496 0.541146
0.886275 0.892256 0.541833
0.988663 0.789105 0.587015
0.987182 0.751263 0.520897
0.982605 0.75848 0.395453
0.000122072 0.999985 0.257679
0.000122072 0.999969 0.258015
0.000122072 0.999954 0.258412
0.0119936 0.999939 0.259693
0.214069 0.999588 0.269215
0.632151 0.999908 0.248936
0.970092 0.998062 0.309682
0.976699 0.940337 0.323384
0.973892 0.918242 0.202426
0.26302 0.999817 0.106996
0.268345 0.999817 0.104524
0.275013 0.999832 0.101427
0.294301 0.999832 0.0920729
0.353796 0.999802 0.0637369
0.514321 0.99939 0.0190585
0.799619 0.999527 1.5259e-05
0.955703 0.999832 0.0272068
0.951324 0.99971 0.0010071
0.666743 0.99968 0.305196
0.668025 0.99968 0.304692
0.669566 0.99968 0.303792
0.674159 0.999695 0.301976
0.688991 0.999725 0.295216
0.732723 0.999863 0.275349
0.838224 0.999756 0.229191
0.961898 0.999634 0.111299
0.950698 0.999619 0.005066
0.0832227 0.0199435 0.805402
0.0832227 0.0199435 0.805402
0.167285 0.00975052 0.675624
0.703227 1.5259e-05 0.734066
0.970291 0.11516 0.784421
0.979919 0.214893 0.774441
0.984283 0.281102 0.780041
0.992401 0.443168 0.754376
0.996231 0.604913 0.710719
0.129381 0.0514534 0.880858
0.130922 0.0526741 0.883177
0.122332 0.0181888 0.824826
0.540719 3.0518e-05 0.856352
0.949035 0.000320439 0.951339
0.98204 0.221134 0.82179
0.986435 0.315511 0.787823
0.993088 0.456291 0.755337
0.996216 0.608637 0.710399
0.152377 0.184955 1
0.149523 0.17911 0.999176
0.123705 0.0767834 0.91075
0.46125 0.0240787 0.948791
0.873396 0.0339666 0.973327
0.985473 0.251759 0.86215
0.990112 0.350622 0.794949
0.994049 0.471717 0.756527
0.996201 0.613123 0.710002
0.052842 0.546715 0.999756
0.0553597 0.499031 0.999817
0.0566567 0.414313 0.999893
0.357534 0.332937 0.993057
0.788693 0.282872 0.981201
0.996216 0.342306 0.934539
0.993973 0.435813 0.803815
0.995926 0.512108 0.759579
0.996155 0.625879 0.708888
0.0371099 0.774472 0.999939
0.0387579 0.757198 0.998459
0.040177 0.739986 0.986755
0.151354 0.705928 0.965713
0.649287 0.645914 0.962722
0.999084 0.585367 0.951141
0.999481 0.592355 0.814038
0.997604 0.607965 0.766567
0.994598 0.66421 0.703136
0.0201877 0.935378 0.87895
0.0221866 0.930541 0.874922
0.0222629 0.927062 0.870802
0.022034 0.918547 0.859068
0.349401 0.899733 0.859022
0.852827 0.8533 0.853025
0.99617 0.782452 0.812238
0.995865 0.747051 0.756619
0.992996 0.750332 0.682429
0.00770581 0.999802 0.677913
0.00753796 0.999786 0.676814
0.00730907 0.999802 0.675303
0.00686656 0.999802 0.671214
0.0536355 0.999969 0.669642
0.556405 0.999817 0.679103
0.967239 0.976822 0.693446
0.986435 0.911147 0.677104
0.985885 0.889891 0.599954
0.222995 0.999817 0.598306
0.230198 0.999817 0.597772
0.2392 0.999817 0.597101
0.26537 0.999832 0.59498
0.342473 0.999786 0.588937
0.526818 0.999649 0.579339
0.780606 0.999893 0.516411
0.973251 0.999695 0.464576
0.971023 0.99968 0.358297
0.657984 0.999542 0.704936
0.659449 0.999542 0.704952
0.661234 0.999542 0.704952
0.666545 0.999542 0.704952
0.683726 0.999512 0.704875
0.728313 0.999557 0.701595
0.826459 0.99971 0.680751
0.975982 0.999557 0.613016
0.972137 0.999847 0.428489
0.135134 0.0838483 0.927321
0.135256 0.0838636 0.927382
0.135393 0.0838788 0.927428
0.528069 0.000122072 0.999344
0.972869 0.000183108 0.999756
0.979492 0.0907454 0.986297
0.989837 0.220295 0.957656
0.99794 0.392203 0.915358
0.999741 0.579324 0.864317
0.166064 0.0806897 0.943496
0.16643 0.0806592 0.943587
0.167208 0.0805982 0.943801
0.405798 0.0443427 0.999741
0.892271 4.57771e-05 0.999847
0.983215 0.102144 0.999527
0.991897 0.254353 0.962249
0.998322 0.405844 0.91545
0.999725 0.583825 0.864103
0.186618 0.0801099 0.957855
0.186923 0.0800641 0.957916
0.187152 0.0800336 0.957977
0.360891 0.0626535 0.999802
0.838682 0.000183108 0.999496
0.987747 0.123262 0.999542
0.995102 0.289219 0.966613
0.998795 0.421347 0.915724
0.99971 0.589288 0.863844
0.181582 0.329931 0.999619
0.181369 0.330983 0.999634
0.177234 0.317342 0.999725
0.283085 0.263996 0.999908
0.768521 0.218921 0.999954
0.999786 0.235859 0.999725
0.999908 0.372976 0.972915
0.999832 0.462287 0.917342
0.999649 0.605142 0.863066
0.0421149 0.725902 0.999939
0.0479438 0.633249 1
0.0500801 0.616205 0.999985
0.149767 0.596841 0.999725
0.585931 0.57319 0.999359
0.983627 0.510674 0.999283
0.999603 0.532952 0.970291
0.999771 0.560037 0.915618
0.999878 0.649409 0.860731
0.0307012 0.849943 0.986191
0.0317082 0.847288 0.987869
0.0315251 0.844511 0.988342
0.0313268 0.837629 0.98941
0.332433 0.825727 0.99971
0.797223 0.7935 0.999771
0.999557 0.740078 0.979049
0.999756 0.723049 0.904051
0.998154 0.742901 0.859327
0.0137331 0.998718 0.924712
0.0135195 0.998672 0.925155
0.0133516 0.99855 0.925658
0.0134585 0.997848 0.926604
0.0136416 0.992828 0.924681
0.477104 0.975494 0.938247
0.930968 0.932769 0.930846
0.993103 0.887541 0.890379
0.992706 0.867155 0.845899
0.0543679 0.999954 0.882353
0.0628367 0.999954 0.881956
0.0727855 0.999954 0.881498
0.102174 0.999954 0.88011
0.191882 0.999954 0.875303
0.412024 0.999832 0.860655
0.755718 0.999863 0.832486
0.988083 0.999496 0.795346
0.98436 0.999756 0.742885
0.553887 0.999741 0.938384
0.555657 0.999741 0.938262
0.557794 0.999741 0.938125
0.564187 0.999741 0.937667
0.584848 0.999725 0.936141
0.645624 0.999619 0.930114
0.78529 0.999741 0.914336
0.969207 0.999557 0.890272
0.988037 0.999802 0.799832
0.171649 0.0805829 0.947723
0.171801 0.0805676 0.948074
0.171984 0.0805524 0.948486
0.172717 0.0805371 0.949538
0.683742 0.0248264 0.999771
0.984146 1.5259e-05 0.999878
0.991501 0.126558 0.999756
0.999954 0.302174 0.999771
0.999908 0.505852 0.999619
0.185809 0.0803235 0.957717
0.186191 0.080293 0.957824
0.186648 0.0802319 0.957946
0.188022 0.0800793 0.958297
0.62385 0.0348211 0.99968
0.984604 0 1
0.994736 0.153674 0.999466
0.999832 0.314961 0.999664
0.999878 0.510475 0.999588
0.211612 0.153796 0.995727
0.212238 0.15668 0.996933
0.213001 0.16022 0.998413
0.212741 0.16939 0.999527
0.575494 0.0416419 0.999817
0.984482 3.0518e-05 1
0.998032 0.186007 0.999435
0.999573 0.329595 0.999313
0.999847 0.515969 0.999542
0.134783 0.469047 0.999939
0.134401 0.469856 0.999939
0.133639 0.471473 0.999924
0.13135 0.476356 0.999908
0.49807 0.0704509 0.999588
0.978286 0.102663 0.99942
0.999832 0.266163 0.999832
0.999863 0.370062 0.998886
0.999756 0.532021 0.999512
0.0319066 0.820996 0.993408
0.0318608 0.821317 0.993332
0.0318151 0.821622 0.99324
0.0469673 0.648615 0.999863
0.424445 0.401694 0.999985
0.859297 0.408423 0.999313
0.999985 0.426627 0.999527
0.999847 0.470924 0.999313
0.999771 0.577707 0.999237
0.0252384 0.912779 0.964858
0.0268406 0.888747 0.974914
0.0276341 0.867018 0.981582
0.0332952 0.821225 0.993667
0.264179 0.743008 0.999985
0.70277 0.688457 0.999756
0.999878 0.662455 0.999588
0.99968 0.64715 0.999588
0.999786 0.680507 0.999756
0.0144808 0.99733 0.92549
0.014725 0.99588 0.926894
0.0150149 0.994141 0.928603
0.0147402 0.987198 0.932235
0.0236973 0.966308 0.944121
0.458701 0.921508 0.995117
0.872297 0.872267 0.999603
0.998276 0.838331 0.999557
0.998596 0.828153 0.988617
0.0144503 0.999573 0.922988
0.0144503 0.999573 0.922988
0.0144503 0.999573 0.922988
0.0252689 0.999649 0.924239
0.0615396 0.999939 0.928466
0.293797 0.999496 0.943099
0.674144 0.999573 0.965667
0.989548 0.995239 0.993179
0.994583 0.974914 0.959915
0.489036 0.999863 0.955901
0.490776 0.999863 0.955993
0.492866 0.999863 0.956115
0.499153 0.999863 0.956481
0.520088 0.999863 0.957671
0.581216 0.999847 0.961318
0.730343 0.999344 0.969314
0.940597 0.998734 0.988571
0.999344 0.999954 0.998596
0.119341 0.502266 0.999985
0.118608 0.503548 0.999985
0.117723 0.505089 0.999985
0.115236 0.509453 0.999969
0.106706 0.524361 0.999939
0.75285 0.0108034 0.99968
0.985412 0.000915541 0.999207
0.999786 0.143511 0.9991
0.999893 0.369802 0.999481
0.0881971 0.556756 0.999878
0.0874647 0.558038 0.999878
0.0867323 0.559289 0.999878
0.0843977 0.563134 0.999863
0.0769513 0.575418 0.999847
0.74049 0.0135653 0.999695
0.987472 0.0102235 0.999283
0.999863 0.155337 0.999252
0.999863 0.374517 0.999451
0.0545815 0.612222 0.999771
0.0540017 0.613184 0.999771
0.0532692 0.614389 0.999771
0.0512245 0.617761 0.999756
0.049134 0.628031 0.999771
0.728908 0.0160525 0.999588
0.989761 0.0237888 0.99942
0.999939 0.169207 0.999451
0.999817 0.38024 0.99942
0.0411841 0.730861 0.999985
0.0411536 0.731228 0.999985
0.0410773 0.731929 0.999985
0.0409247 0.7337 0.999969
0.0403906 0.739574 0.999939
0.702449 0.0637217 0.99968
0.995453 0.0803845 0.999405
0.999939 0.208103 0.999451
0.99971 0.396674 0.999298
0.0235142 0.902953 0.970031
0.0234989 0.903075 0.969985
0.0234836 0.903334 0.969879
0.0234531 0.90396 0.969619
0.0233005 0.906264 0.968719
0.639078 0.406165 0.999649
0.999817 0.271595 0.999527
0.999954 0.309087 0.999603
0.999832 0.443519 0.999557
0.0134737 0.999268 0.918547
0.0134737 0.999268 0.918547
0.0134737 0.999268 0.918547
0.0134737 0.999268 0.918547
0.0261387 0.904585 0.96791
0.526116 0.728634 0.999725
0.938125 0.624735 0.999359
0.999939 0.521035 0.999283
0.999893 0.556497 0.999542
0.0134737 0.999268 0.918547
0.0134737 0.999268 0.918547
0.0134737 0.999268 0.918547
0.0134737 0.999268 0.918547
0.0141756 0.999481 0.92166
0.18909 0.961471 0.960464
0.807584 0.884932 0.99968
0.999405 0.811048 0.999924
0.999527 0.75346 0.99942
0.0144503 0.99971 0.921874
0.0144503 0.99968 0.922148
0.0144503 0.999634 0.922484
0.0144503 0.999573 0.922988
0.0144503 0.999573 0.922988
0.138796 0.999954 0.933639
0.590295 0.999756 0.961532
0.963699 0.998779 0.992721
0.995331 0.964553 0.999771
0.401495 0.999542 0.949981
0.40351 0.999542 0.950118
0.406073 0.999542 0.950225
0.413016 0.999573 0.950561
0.43566 0.999649 0.951614
0.504128 0.999847 0.955062
0.672419 0.999725 0.965805
0.910277 0.998108 0.986328
1 1 1
