Luts/Fujifilm/FLog2C_to_FLog2C-709_VLog.cube
TITLE "Generated by Resolve"
LUT_3D_SIZE 33
0 0 0
0 0 0
0 0 0
0.0515602 0 0.00030518
0.132403 0 0.000610361
0.191852 0 3.0518e-05
0.234226 0 0
0.27686 0 0
0.320424 0 0
0.364431 0 0
0.40885 0 0
0.453025 0 0
0.497108 0 0
0.540841 0 0
0.585443 0 0
0.629953 0 0
0.674464 0 0
0.719142 0 0
0.759289 0 0
0.797131 0 0
0.833234 0 0
0.869459 0 0
0.905287 0 0
0.941222 0.0289158 0
0.977325 0.102937 0
1 0.165637 0
1 0.21973 0
1 0.267369 0
1 0.31136 0
1 0.352987 0
1 0.392935 0
1 0.431708 0
1 0.469505 0
0 0 0
0 0 0
0 0 0
0.0671244 0 0.000396735
0.143252 0 0.000503548
0.200748 0 0
0.241337 0 0
0.282246 0 0
0.324453 0 0
0.367514 0 0
0.411078 0 0
0.454566 0 0
0.497871 0 0
0.541955 0 0
0.586206 0 0
0.630472 0 0
0.671977 0 0
0.712474 0 0
0.751965 0 0
0.789883 0 0
0.827039 0 0
0.864363 0 0
0.901503 0.00262455 0
0.938445 0.0589914 0
0.975097 0.123766 0
1 0.178134 0
1 0.227939 0
1 0.272923 0
1 0.315175 0
1 0.355657 0
1 0.394873 0
1 0.433066 0
1 0.470497 0
0 0 0
0 0 0
0 0 0
0.0822614 0 0.000488289
0.153994 0 0.000411994
0.209232 0 0
0.248096 0 0
0.286885 0 0
0.327245 0 0
0.368811 0 0
0.410864 0 0
0.452796 0 0
0.495811 0 0
0.538201 0 0
0.580392 0 0
0.622278 0 0
0.663844 0 0
0.704387 0 0
0.743938 0 0
0.783001 0 0
0.821378 0 0
0.860029 0 0
0.897902 0.0338293 0
0.935515 0.0893873 0
0.972915 0.142336 0
1 0.18967 0
1 0.235737 0
1 0.278279 0
1 0.31899 0
1 0.358434 0
1 0.396796 0
1 0.434394 0
1 0.471489 0
0 0.0547341 0
0 0.0561379 0
6.10361e-05 0.056733 0
0.0518349 0.0484932 0
0.131624 0.0398871 0
0.185901 0.0332341 0
0.230625 0.024979 0
0.27155 0.016495 0
0.313146 0.0075227 0
0.355489 0.000823987 0
0.398154 0 0
0.441444 0 0
0.484962 0 0
0.527886 0 0
0.570932 0 0
0.613657 0 0
0.65507 0 0
0.696376 0 0
0.736843 0 0
0.776974 0 0
0.81648 0 0
0.855833 0.026566 0
0.894652 0.067277 0
0.932967 0.114183 0
0.970825 0.158785 0
0.999985 0.200885 0
1 0.243305 0
1 0.283574 0
1 0.322637 0
1 0.361028 0
1 0.398657 0
1 0.435706 0
1 0.47248 0
0 0.11574 0
0 0.116869 0
0 0.11606 0
0.01738 0.109133 0
0.106386 0.101427 0
0.167712 0.0950484 0
0.213886 0.087892 0
0.256886 0.0736095 0
0.299763 0.0650645 0
0.34316 0.0547646 0
0.386297 0.0437476 0
0.43003 0.0343633 0
0.473854 0.0222629 0
0.517632 0.0114137 0
0.560998 0.00596628 0
0.604257 0.00489815 0
0.646769 0.00419623 0
0.688975 0.00462348 0
0.730327 0.00943008 0
0.771466 0.0178378 0
0.811765 0.0362554 0
0.851987 0.0630655 0
0.891524 0.098909 0
0.930434 0.135637 0
0.968719 0.173098 0
0.999557 0.210575 0
1 0.250065 0
1 0.288396 0
1 0.326162 0
1 0.363485 0
1 0.400427 0
1 0.437125 0
1 0.473457 0
0 0.162997 0
0 0.163836 0
0 0.160021 0
0 0.153216 0
0.0745708 0.147662 0
0.143236 0.143206 0
0.192584 0.138491 0
0.238499 0.130953 0
0.283162 0.12398 0
0.328374 0.116274 0
0.372915 0.108232 0
0.417899 0.0969406 0
0.462654 0.0857557 0
0.507362 0.0756085 0
0.551766 0.064622 0
0.595605 0.0560464 0
0.639307 0.0494087 0
0.682231 0.0472419 0
0.724605 0.0502022 0
0.766445 0.0593423 0
0.80766 0.0755169 0
0.848463 0.0970016 0
0.888563 0.12314 0
0.928023 0.15375 0
0.966873 0.186084 0
0.999161 0.219684 0
1 0.256703 0
1 0.293095 0
1 0.32958 0
1 0.366033 0
1 0.402289 0
1 0.438422 0
1 0.474342 0
0 0.196246 0
0 0.197162 0
0 0.194903 0
0 0.189258 0
0.0397955 0.184329 0
0.116213 0.180438 0
0.171038 0.176364 0
0.220127 0.171496 0
0.267643 0.165789 0
0.31368 0.158526 0
0.360403 0.151019 0
0.406912 0.143069 0
0.452705 0.133471 0
0.49836 0.123522 0
0.543313 0.114382 0
0.588251 0.104921 0
0.632486 0.0977035 0
0.676356 0.0934157 0
0.719265 0.0944076 0
0.761837 0.0983139 0
0.803693 0.108766 0
0.845182 0.124315 0
0.885679 0.145571 0
0.925658 0.170169 0
0.964889 0.198398 0
0.998749 0.228992 0
1 0.263218 0
1 0.29781 0
1 0.332998 0
1 0.36849 0
1 0.404028 0
1 0.439734 0
1 0.475334 0
0 0.229435 0
0 0.230137 0
0 0.227176 0
0 0.223072 0
0.00634775 0.219608 0
0.0889296 0.215137 0
0.149065 0.210697 0
0.200397 0.206729 0
0.250904 0.201709 0
0.29897 0.196323 0
0.347158 0.188922 0
0.394598 0.182086 0
0.44152 0.1738 0
0.488121 0.166094 0
0.534356 0.157 0
0.579934 0.149355 0
0.624933 0.142565 0
0.669444 0.137072 0
0.713436 0.134524 0
0.756603 0.135668 0
0.799115 0.141924 0
0.841184 0.152041 0
0.882475 0.167468 0
0.922927 0.18764 0
0.962722 0.211536 0
0.997681 0.239002 0
1 0.270909 0
1 0.30338 0
1 0.337026 0
1 0.37145 0
1 0.40621 0
1 0.44126 0
1 0.476539 0
0 0.263874 0
0 0.264134 0
0 0.260487 0
0 0.256809 0
0.000183108 0.253437 0
0.05243 0.249958 0
0.12343 0.246418 0
0.177722 0.242329 0
0.230762 0.238193 0
0.281987 0.233188 0
0.332265 0.227359 0
0.381064 0.220401 0
0.428901 0.213855 0
0.476371 0.206546 0
0.52343 0.198276 0
0.569986 0.191348 0
0.615885 0.18436 0
0.661387 0.178103 0
0.706218 0.174136 0
0.75021 0.173266 0
0.793545 0.175509 0
0.836271 0.181857 0
0.878294 0.192477 0
0.919478 0.207935 0
0.959792 0.228016 0
0.995727 0.251652 0
1 0.280369 0
1 0.310719 0
1 0.342428 0
1 0.375387 0
1 0.40911 0
1 0.443488 0
1 0.478126 0
0 0.298878 0
0 0.297566 0
0 0.294194 0
0 0.291066 0
0 0.287617 0
0.0174563 0.284215 0
0.0889754 0.281132 0
0.153002 0.278096 0
0.209079 0.274403 0
0.262837 0.270085 0
0.313542 0.265034 0
0.363989 0.259251 0
0.413962 0.252506 0
0.462547 0.245853 0
0.510796 0.238819 0
0.55845 0.231922 0
0.605447 0.225193 0
0.651774 0.218906 0
0.69752 0.213855 0
0.742458 0.211231 0
0.786679 0.211109 0
0.830335 0.213458 0
0.873182 0.22031 0
0.915053 0.231586 0
0.956115 0.247333 0
0.993286 0.26714 0
1 0.292317 0
1 0.319753 0
1 0.349477 0
1 0.380606 0
1 0.412955 0
1 0.446326 0
1 0.480217 0
0 0.334539 0
0 0.331243 0
0 0.328038 0
0 0.32517 0
0 0.322194 0
0.00335698 0.319356 0
0.0493629 0.317021 0
0.120592 0.314199 0
0.183734 0.310857 0
0.239796 0.306676 0
0.293538 0.302464 0
0.345541 0.297093 0
0.396597 0.291722 0
0.446921 0.285374 0
0.496422 0.278859 0
0.545296 0.271778 0
0.593332 0.265187 0
0.640635 0.258946 0
0.687465 0.253239 0
0.733349 0.249165 0
0.778485 0.247211 0
0.823087 0.24741 0
0.86688 0.250629 0
0.909667 0.258106 0
0.951537 0.269917 0
0.990082 0.286229 0
1 0.307057 0
1 0.331182 0
1 0.35816 0
1 0.387304 0
1 0.418036 0
1 0.45008 0
1 0.483009 0
0 0.367819 0
0 0.364981 0
0 0.362325 0
0 0.359503 0
0 0.356817 0
0 0.354589 0
0.0118868 0.352422 0
0.0825055 0.350118 0
0.1514 0.347021 0
0.213657 0.343603 0
0.271 0.33959 0
0.325231 0.33489 0
0.377798 0.329992 0
0.429297 0.324315 0
0.480034 0.318303 0
0.529976 0.311818 0
0.579309 0.305241 0
0.627832 0.298894 0
0.675792 0.292805 0
0.722652 0.288106 0
0.768917 0.284459 0
0.814496 0.282795 0
0.859312 0.283299 0
0.903014 0.287434 0
0.94583 0.295308 0
0.986191 0.307881 0
1 0.324788 0
1 0.345388 0
1 0.369238 0
1 0.395727 0
1 0.424628 0
1 0.455055 0
1 0.486686 0
0 0.401602 0
0 0.399084 0
0 0.396323 0
0 0.39382 0
0 0.391775 0
0 0.3897 0
0.00370794 0.387961 0
0.0432136 0.385901 0
0.119722 0.383307 0
0.184665 0.380209 0
0.245472 0.376699 0
0.301915 0.372534 0
0.356664 0.368032 0
0.409613 0.36286 0
0.461906 0.357259 0
0.513176 0.351171 0
0.563684 0.344976 0
0.613352 0.338628 0
0.662196 0.332815 0
0.710475 0.327108 0
0.757778 0.322621 0
0.804486 0.31928 0
0.850294 0.317968 0
0.895079 0.319234 0
0.938827 0.324041 0
0.981155 0.332677 0
1 0.345678 0
1 0.362554 0
1 0.38294 0
1 0.406638 0
1 0.432853 0
1 0.461387 0
1 0.491554 0
0 0.434897 0
0 0.432334 0
0 0.430259 0
0 0.428183 0
0 0.426383 0
0 0.424659 0
0 0.423194 0
0.0149996 0.421408 0
0.0803998 0.419242 0
0.155261 0.416648 0
0.217807 0.413504 0
0.277195 0.409995 0
0.333394 0.405783 0
0.388525 0.401083 0
0.442023 0.395941 0
0.494499 0.390326 0
0.546334 0.384375 0
0.597101 0.3785 0
0.647166 0.372427 0
0.696498 0.36669 0
0.744976 0.361547 0
0.792874 0.357 0
0.839673 0.354162 0
0.885664 0.353338 0
0.930571 0.355077 0
0.974441 0.360464 0
1 0.369711 0
1 0.382803 0
1 0.39968 0
1 0.419989 0
1 0.443427 0
1 0.469459 0
1 0.497826 0
0 0.46775 0
0 0.465858 0
0 0.464164 0
0 0.462547 0
0 0.461143 0
0 0.459754 0
0.000549325 0.458518 0
0.00505074 0.457115 0
0.0474556 0.455177 0
0.116518 0.452934 0
0.1888 0.450263 0
0.250919 0.447044 0
0.309056 0.443336 0
0.365133 0.439139 0
0.420218 0.434501 0
0.474205 0.429191 0
0.527077 0.423682 0
0.579202 0.417823 0
0.630488 0.412039 0
0.680949 0.405982 0
0.730541 0.400549 0
0.779614 0.395361 0
0.827649 0.391394 0
0.874693 0.388891 0
0.920836 0.388479 0
0.96585 0.390997 0
1 0.396857 0
1 0.406271 0
1 0.419364 0
1 0.43624 0
1 0.456489 0
1 0.47982 0
1 0.505791 0
0 0.500893 0
0 0.499443 0
0 0.498131 0
0 0.496864 0
0 0.495674 0
0 0.494575 0
0 0.493568 0
0.00151064 0.492317 0
0.0205844 0.490776 0
0.0846113 0.488899 0
0.157855 0.48661 0
0.223987 0.483833 0
0.28365 0.480491 0
0.341115 0.476799 0
0.397299 0.472526 0
0.452354 0.467796 0
0.506493 0.462562 0
0.559686 0.457237 0
0.612085 0.451453 0
0.663752 0.445624 0
0.714549 0.439872 0
0.764782 0.434256 0
0.814023 0.429572 0
0.862242 0.425788 0
0.909499 0.423575 0
0.955764 0.42388 0
0.995666 0.426795 0
1 0.432883 0
1 0.442374 0
1 0.45565 0
1 0.47245 0
1 0.492638 0
1 0.515999 0
0 0.534234 0
0 0.533043 0
0 0.532082 0
0 0.531106 0
0 0.530251 0
0 0.529305 0
0 0.528511 0
0.00300603 0.527504 0
0.00825513 0.526223 0
0.0593423 0.524605 0
0.127779 0.522667 0
0.19617 0.520287 0
0.25832 0.517449 0
0.31664 0.514107 0
0.373526 0.510353 0
0.429389 0.505989 0
0.48455 0.501289 0
0.538781 0.496086 0
0.592264 0.490639 0
0.644968 0.484993 0
0.69691 0.479271 0
0.748333 0.473518 0
0.798718 0.468177 0
0.848249 0.4636 0
0.896666 0.460136 0
0.944076 0.45861 0
0.988052 0.459083 0
1 0.462242 0
1 0.468498 0
1 0.478233 0
1 0.491524 0
1 0.508446 0
1 0.528603 0
0 0.567681 0
0 0.566827 0
0 0.566094 0
0 0.565301 0
0 0.56463 0
0 0.563928 0
0 0.563226 0
0 0.562448 0
0.0120394 0.56144 0
0.0325475 0.560143 0
0.102419 0.55845 0
0.171176 0.556435 0
0.233707 0.553979 0
0.292561 0.55111 0
0.349584 0.547723 0
0.405875 0.543908 0
0.461601 0.539574 0
0.516854 0.534783 0
0.57113 0.529671 0
0.624887 0.524239 0
0.677989 0.518563 0
0.730327 0.512825 0
0.781872 0.507301 0
0.832517 0.502113 0
0.882231 0.497902 0
0.930861 0.494881 0
0.978286 0.493416 0
1 0.494194 0
1 0.497551 0
1 0.503899 0
1 0.513756 0
1 0.52723 0
1 0.544182 0
0 0.601297 0
0 0.600732 0
0 0.600107 0
0 0.599512 0
0 0.598978 0
0 0.598428 0
0.00115969 0.597864 0
0.00355535 0.597223 0
0.00665293 0.596429 0
0.0363775 0.595392 0
0.0865339 0.594049 0
0.150393 0.59234 0
0.211383 0.590249 0
0.269596 0.587808 0
0.326635 0.584802 0
0.382589 0.581369 0
0.438392 0.577523 0
0.493797 0.573159 0
0.549096 0.568353 0
0.603464 0.563256 0
0.657603 0.557824 0
0.710918 0.552209 0
0.763622 0.546532 0
0.815366 0.541207 0
0.866194 0.536324 0
0.916136 0.53228 0
0.965042 0.529335 0
1 0.528084 0
1 0.529046 0
1 0.532601 0
1 0.539208 0
1 0.549187 0
1 0.562646 0
0 0.635035 0
0 0.634562 0
0 0.634089 0
0 0.633692 0
0 0.633234 0
0 0.632792 0
0 0.632349 0
0.00511177 0.631907 0
0.016968 0.631235 0
0.0327306 0.63035 0
0.0755474 0.629267 0
0.13901 0.627924 0
0.194949 0.626154 0
0.250263 0.624079 0
0.305562 0.621515 0
0.360632 0.618555 0
0.415518 0.615076 0
0.470848 0.611124 0
0.526116 0.606729 0
0.581277 0.601999 0
0.636133 0.596796 0
0.690303 0.591394 0
0.743877 0.585901 0
0.796765 0.580392 0
0.848646 0.575174 0
0.899809 0.570397 0
0.949905 0.566522 0
0.993286 0.563836 0
1 0.562753 0
1 0.563882 0
1 0.567605 0
1 0.57435 0
1 0.584344 0
0 0.668956 0
0 0.668605 0
0.000106813 0.668238 0
0.0012665 0.667887 0
0.00242618 0.667536 0
0.00354009 0.667201 0
0.00469978 0.66685 0
0.00582895 0.666529 0
0.0162356 0.66598 0
0.0461738 0.665263 0
0.0831006 0.664454 0
0.128954 0.66334 0
0.184344 0.66186 0
0.234348 0.66009 0
0.286442 0.657954 0
0.339651 0.65536 0
0.393912 0.652384 0
0.448112 0.648875 0
0.503044 0.644968 0
0.558236 0.640543 0
0.613626 0.635691 0
0.668513 0.630579 0
0.722942 0.625193 0
0.776699 0.619745 0
0.829694 0.614328 0
0.881926 0.609186 0
0.933227 0.604547 0
0.983459 0.600793 0
1 0.598154 0
1 0.59733 0
1 0.59852 0
1 0.602396 0
1 0.609262 0
0.000259403 0.702876 0
0.000289921 0.702602 0
0.00254826 0.702327 0
0.00817884 0.702052 0
0.013489 0.701793 0
0.0189517 0.701518 0
0.0238956 0.701335 0
0.0303502 0.701015 0
0.0386664 0.700603 0
0.0583047 0.700038 0
0.0927138 0.699397 0
0.137728 0.698482 0
0.180896 0.697353 0
0.228244 0.695918 0
0.274525 0.694102 0
0.3234 0.691951 0
0.374655 0.689311 0
0.427543 0.686244 0
0.48098 0.682704 0
0.535714 0.678691 0
0.590784 0.674235 0
0.646036 0.669444 0
0.700999 0.664347 0
0.755444 0.659007 0
0.809445 0.653513 0
0.862608 0.648249 0
0.915099 0.643107 0
0.966613 0.638575 0
0.999985 0.634928 0
1 0.632517 0
1 0.631739 0
1 0.633158 0
1 0.637171 0
0.00352483 0.736736 0
0.00361639 0.736614 0
0.0132296 0.7364 0
0.022797 0.736202 0
0.0332036 0.735988 0
0.0423743 0.73579 0
0.052369 0.735592 0
0.0640269 0.735348 0
0.0794232 0.735027 0
0.0998245 0.7346 0
0.12372 0.734112 0
0.152621 0.733364 0
0.189441 0.732494 0
0.226749 0.731289 0
0.269154 0.729824 0
0.312764 0.727977 0
0.359594 0.725795 0
0.409277 0.723125 0
0.461036 0.720027 0
0.514 0.716442 0
0.568399 0.712459 0
0.62324 0.707988 0
0.678386 0.703136 0
0.733425 0.698054 0
0.787991 0.692729 0
0.842115 0.687373 0
0.895506 0.682063 0
0.94818 0.677089 0
0.993149 0.672648 0
1 0.669108 0
1 0.666728 0
1 0.666087 0
1 0.667628 0
0.0487831 0.770703 0
0.0556649 0.77055 0
0.0643015 0.770382 0
0.0720378 0.77023 0
0.0802167 0.770062 0
0.087953 0.769924 0
0.0961318 0.769757 0
0.105684 0.769574 0
0.118151 0.769406 0
0.134997 0.76907 0
0.157305 0.768643 0
0.179553 0.768063 0
0.20412 0.767391 0
0.235874 0.76643 0
0.269383 0.765255 0
0.308431 0.763775 0
0.349813 0.761929 0
0.395087 0.759701 0
0.443641 0.756985 0
0.49456 0.753841 0
0.546975 0.75024 0
0.601114 0.746166 0
0.65565 0.741695 0
0.710674 0.736919 0
0.76585 0.731762 0
0.820645 0.726452 0
0.8748 0.721126 0
0.928389 0.715877 0
0.981109 0.710964 0
1 0.706615 0
1 0.703166 0
1 0.700908 0
1 0.700465 0
0.125658 0.804578 0
0.130404 0.804471 0
0.135515 0.804334 0
0.140261 0.804227 0
0.145006 0.804105 0
0.149401 0.804059 0
0.154147 0.803952 0
0.160006 0.8038 0
0.167681 0.803616 0
0.17792 0.803372 0
0.191806 0.803021 0
0.20972 0.802594 0
0.22826 0.801999 0
0.250355 0.801312 0
0.27895 0.800336 0
0.309865 0.799146 0
0.346517 0.79765 0
0.386694 0.795758 0
0.430518 0.7935 0
0.477974 0.790768 0
0.527916 0.787594 0
0.579995 0.783963 0
0.633692 0.779873 0
0.688182 0.775387 0
0.74316 0.770596 0
0.798199 0.76553 0
0.853117 0.76025 0
0.907485 0.754879 0
0.961242 0.749691 0
0.998322 0.744839 0
1 0.740566 0
1 0.737209 0
1 0.735119 0
0.186236 0.838544 0
0.189395 0.838453 0
0.192538 0.838361 0
0.195697 0.83827 0
0.19884 0.838178 0
0.201678 0.838087 0
0.204822 0.837995 0
0.208606 0.837888 0
0.213642 0.837751 0
0.220264 0.837552 0
0.229404 0.837293 0
0.241367 0.836942 0
0.256809 0.8365 0
0.272969 0.835981 0
0.293858 0.835203 0
0.320134 0.834287 0
0.34931 0.833005 0
0.384085 0.831479 0
0.422965 0.829572 0
0.465599 0.827283 0
0.511955 0.824537 0
0.561303 0.821347 0
0.612818 0.817685 0
0.666239 0.813596 0
0.720592 0.809079 0
0.775525 0.804288 0
0.830732 0.799222 0
0.885634 0.793973 0
0.940139 0.788632 0
0.990921 0.783475 0
1 0.778698 0
1 0.774487 0
1 0.771191 0
0.23949 0.872389 0
0.241459 0.872328 0
0.243732 0.872251 0
0.245701 0.87219 0
0.247684 0.872129 0
0.249958 0.872053 0
0.251926 0.871992 0
0.254475 0.8719 0
0.257877 0.871794 0
0.262409 0.871641 0
0.268345 0.871458 0
0.276265 0.871199 0
0.287022 0.870848 0
0.300465 0.870466 0
0.315602 0.869856 0
0.335012 0.869078 0
0.359899 0.868147 0
0.387655 0.86685 0
0.420935 0.865309 0
0.458549 0.863386 0
0.500191 0.861082 0
0.545922 0.858305 0
0.594476 0.855085 0
0.645594 0.851408 0
0.698894 0.847288 0
0.752987 0.842771 0
0.807874 0.83798 0
0.863127 0.832929 0
0.918151 0.827695 0
0.972778 0.822385 0
1 0.817334 0
1 0.812543 0
1 0.808392 0
0.286534 0.905638 0
0.288106 0.905592 0
0.289418 0.905547 0
0.29099 0.905486 0
0.292302 0.90544 0
0.293858 0.905394 0
0.295171 0.905348 0
0.297002 0.905272 0
0.299367 0.905196 0
