Luts/Fujifilm/FLog2C_to_REALA-ACE_VLog.cube
TITLE "Generated by Resolve"
LUT_3D_SIZE 5
0 0 0
0.357107 0.000259403 0.0166476
0.940826 0.327153 0.473701
0.940902 0.330694 0.473457
0.983001 0.577996 0.188617
0.000137331 0.20177 0
0.125322 0.085008 0.000137331
0.911772 0.200977 0.322011
0.950866 0.373053 0.435126
0.98349 0.587121 0.168368
0.40708 0.755642 0.337942
0.320226 0.69012 0.256275
0.759915 0.619821 0.000915541
0.983932 0.585016 0.174716
0.98201 0.64828 0.0464027
0.663767 0.929213 0.593439
0.66482 0.929488 0.593103
0.739864 0.941924 0.590219
0.996323 0.957046 0.18407
0.987823 0.875303 0.00015259
0.857847 0.962554 0.571496
0.859693 0.96289 0.570977
0.872419 0.965255 0.567452
0.969635 0.982971 0.492927
0.996979 0.986648 0.425681
0.000854505 0 0.0682383
0.283009 4.57771e-05 0.0257115
0.940429 0.3252 0.472938
0.943694 0.338277 0.46659
0.983001 0.578103 0.188388
0.000503548 0.197604 0.205097
0.105821 0.10692 0.105516
0.910155 0.195621 0.285161
0.955261 0.389364 0.420401
0.98349 0.587121 0.168368
0.506065 0.826535 0.434119
0.408759 0.757595 0.339513
0.697704 0.659983 0.000549325
0.987076 0.608606 0.186938
0.98201 0.64828 0.0464027
0.663661 0.929183 0.593484
0.663661 0.929183 0.593484
0.686656 0.932845 0.592569
0.997177 0.976669 0.339498
0.987823 0.875303 0.00015259
0.846159 0.960464 0.574426
0.847974 0.960815 0.573938
0.860578 0.963195 0.570565
0.95874 0.980758 0.505089
0.996979 0.986648 0.425681
0.000503548 1.5259e-05 0.613687
0.246189 7.62951e-05 0.453193
0.933242 0.328634 0.60502
0.941451 0.40148 0.645304
0.998413 0.63212 0.488457
0.180957 0.158572 0.759167
0.0557717 0.0132601 0.639338
0.866682 0.287495 0.675715
0.959258 0.457832 0.663005
0.998581 0.641169 0.483711
0.467262 0.815732 0.806256
0.383459 0.763851 0.74844
0.691508 0.69221 0.69163
0.998062 0.639368 0.66743
0.998871 0.697795 0.448493
0.660121 0.929671 0.619013
0.660517 0.929931 0.620218
0.666484 0.931792 0.627237
0.995438 0.988418 0.488014
0.996124 0.946441 0.180926
0.816251 0.956817 0.620325
0.817884 0.957076 0.619486
0.829068 0.958877 0.614206
0.92462 0.975387 0.557534
0.996979 0.986648 0.425681
0.12192 0.0295262 0.693462
0.122179 0.0295872 0.693385
0.841016 0.372839 0.825757
0.85948 0.432212 0.842222
0.949264 0.650889 0.848508
0.159701 0.0452888 0.706371
0.160372 0.0455177 0.706493
0.812985 0.355322 0.822965
0.869535 0.469001 0.856672
0.95172 0.657908 0.850385
0.25156 0.667185 0.855253
0.199832 0.547433 0.840711
0.550393 0.547448 0.893217
0.915648 0.629404 0.901106
0.96733 0.702495 0.859281
0.646311 0.926848 0.921569
0.646174 0.926574 0.922087
0.643992 0.92575 0.922576
0.956939 0.956359 0.956313
0.998474 0.891539 0.861997
0.730358 0.95198 0.934874
0.732143 0.952438 0.935088
0.744472 0.955581 0.936446
0.852186 0.979446 0.938476
0.99501 0.997253 0.802472
0.166583 0.41474 0.826322
0.167361 0.418067 0.826688
0.172671 0.440711 0.82919
0.841016 0.372839 0.825757
0.87689 0.497566 0.865782
0.198917 0.541253 0.840131
0.199603 0.543679 0.840406
0.204227 0.558801 0.842145
0.841016 0.372839 0.825757
0.879011 0.504631 0.867826
0.523476 0.848692 0.884321
0.524102 0.849104 0.88452
0.528801 0.852216 0.88603
0.858488 0.432288 0.845151
0.891875 0.548928 0.881971
0.647959 0.928695 0.91989
0.647959 0.928695 0.91989
0.646799 0.927153 0.921294
0.814466 0.896422 0.986969
0.956588 0.788617 0.954711
0.673732 0.936156 0.928588
0.674937 0.936492 0.928908
0.684092 0.939025 0.931502
0.781918 0.965103 0.956985
0.998047 0.998047 0.998047
