Luts/Fujifilm/FLog2C_to_ETERNA-BB_VLog.cube
TITLE "Generated by Resolve"
LUT_3D_SIZE 9
0 0 0
0.0149233 0.00267033 0.000793469
0.18468 0.0350805 0.0466773
0.580545 0.127047 0.17113
0.753506 0.376837 0.375051
0.753506 0.376837 0.375051
0.756634 0.381567 0.377935
0.817044 0.504479 0.416571
0.884153 0.660166 0.438041
0.0011902 0.0107729 0.00187686
0.00714122 0.00125124 0.000335698
0.126864 0.0251316 0.0322881
0.462257 0.0758679 0.112291
0.694087 0.265629 0.289128
0.753506 0.376837 0.375051
0.76875 0.40621 0.386389
0.822477 0.517281 0.420035
0.885252 0.664378 0.437934
0.0255436 0.122728 0.0303044
0.0173495 0.0887465 0.0226902
0.0907301 0.0821088 0.0330205
0.328573 0.0898756 0.0680858
0.658488 0.215305 0.2336
0.766979 0.399939 0.38497
0.78616 0.438025 0.398169
0.829068 0.531991 0.424445
0.886534 0.669367 0.437781
0.0848249 0.379797 0.0998398
0.0535134 0.26302 0.0630045
0.102693 0.229892 0.0671244
0.261234 0.215839 0.0818036
0.64094 0.321645 0.212818
0.821103 0.513985 0.416388
0.822797 0.515496 0.419577
0.849012 0.570275 0.431754
0.890257 0.683726 0.437385
0.191745 0.643992 0.211368
0.182864 0.613504 0.199283
0.233661 0.59852 0.20795
0.353292 0.58262 0.23386
0.707378 0.648508 0.341512
0.891112 0.715343 0.401434
0.885725 0.666346 0.43772
0.885237 0.664393 0.438285
0.901106 0.724865 0.433234
0.307225 0.818647 0.287694
0.334737 0.821988 0.293782
0.36614 0.825055 0.300069
0.47425 0.845106 0.32372
0.733455 0.889784 0.376761
0.932509 0.90901 0.413092
0.928359 0.844831 0.415137
0.919829 0.81265 0.415106
0.920104 0.810971 0.414832
0.482094 0.889235 0.329
0.497108 0.893019 0.332143
0.514763 0.897475 0.335836
0.566018 0.91014 0.345739
0.703746 0.938293 0.373205
0.885298 0.965042 0.406699
0.941131 0.949767 0.416876
0.940459 0.927596 0.416098
0.938338 0.910567 0.414572
0.6374 0.925536 0.358526
0.641718 0.926421 0.359365
0.646571 0.927413 0.360311
0.661494 0.930373 0.363195
0.70721 0.939147 0.371817
0.813947 0.957198 0.389288
0.929946 0.968444 0.416251
0.938903 0.969436 0.418128
0.940444 0.968566 0.418631
0.835187 0.959976 0.394598
0.835874 0.960037 0.394766
0.836683 0.960128 0.394965
0.839139 0.960357 0.39559
0.847044 0.96112 0.397559
0.867658 0.963195 0.402518
0.912291 0.967666 0.41265
0.938537 0.969635 0.418128
0.938537 0.969635 0.418128
0 0 0
0.00631724 0.00109865 0.00030518
0.168093 0.0325933 0.0415808
0.56466 0.115892 0.15964
0.753506 0.376837 0.375051
0.753506 0.376837 0.375051
0.756649 0.381781 0.378042
0.817075 0.50457 0.416602
0.884184 0.660273 0.438041
0.00306706 0.0129702 0.0139467
0.000289921 0.000198367 0.000106813
0.114778 0.0206149 0.0264744
0.438422 0.0693065 0.102358
0.687968 0.252201 0.278172
0.753506 0.376837 0.375051
0.769818 0.407492 0.386892
0.822522 0.517388 0.420066
0.885252 0.664378 0.437934
0.0308995 0.135897 0.0627604
0.0191653 0.0933547 0.0238804
0.0840467 0.0847181 0.0324254
0.30779 0.092958 0.0635233
0.646571 0.209125 0.224155
0.769726 0.406668 0.387564
0.786389 0.438376 0.398215
0.829068 0.531991 0.424445
0.886534 0.669367 0.437781
0.0974899 0.415839 0.122637
0.0559548 0.279927 0.0673991
0.0978408 0.238163 0.0675059
0.243412 0.225513 0.0873426
0.627451 0.322744 0.21004
0.822263 0.518715 0.412512
0.823651 0.516091 0.419272
0.849012 0.570275 0.431754
0.890257 0.683726 0.437385
0.197833 0.659266 0.216953
0.185489 0.629129 0.206104
0.227741 0.612177 0.211429
0.338155 0.593301 0.233371
0.691524 0.655039 0.340475
0.895415 0.728161 0.405676
0.885954 0.667567 0.438697
0.885237 0.664393 0.438285
0.901106 0.724865 0.433234
0.288075 0.818189 0.28278
0.316533 0.822156 0.289662
0.34435 0.82652 0.295827
0.443153 0.841856 0.316945
0.709041 0.891081 0.371435
0.92488 0.912627 0.41059
0.928084 0.848646 0.414694
0.91986 0.812741 0.415106
0.920104 0.810971 0.414832
0.431968 0.877607 0.318151
0.44654 0.881254 0.321386
0.463981 0.885603 0.325246
0.513909 0.897642 0.335775
0.653284 0.928573 0.361013
0.867674 0.963119 0.403037
0.941253 0.954498 0.417517
0.940459 0.927596 0.416098
0.938338 0.910567 0.414572
0.605264 0.917891 0.353079
0.609369 0.918898 0.35378
0.613977 0.920012 0.354574
0.627955 0.923415 0.357
0.669749 0.93228 0.364965
0.77882 0.952331 0.383413
0.91635 0.967529 0.412757
0.938582 0.969604 0.418128
0.940444 0.968566 0.418631
0.830518 0.959594 0.394308
0.83122 0.95967 0.394476
0.832074 0.959747 0.39469
0.834623 0.959976 0.395315
0.842863 0.960723 0.39736
0.864591 0.963058 0.402243
0.908598 0.967376 0.412024
0.938537 0.969635 0.418128
0.938537 0.969635 0.418128
0.00730907 0.00401312 0.0468605
0.00515755 0.00381476 0.0360876
0.147921 0.027985 0.0460212
0.536446 0.102235 0.144335
0.75198 0.373831 0.372992
0.753506 0.376837 0.375051
0.761471 0.391257 0.38114
0.823713 0.51635 0.421958
0.884184 0.660273 0.438041
0.015198 0.0128939 0.0711223
0.00889601 0.00329595 0.0512703
0.103151 0.0169223 0.0599985
0.410864 0.065919 0.107927
0.674998 0.230457 0.259449
0.753506 0.376837 0.375051
0.778439 0.423301 0.392615
0.829297 0.529122 0.424704
0.885252 0.664378 0.437934
0.0465858 0.157015 0.151476
0.0294041 0.106386 0.0979782
0.090837 0.0917525 0.0910506
0.296895 0.0977798 0.112612
0.632273 0.199893 0.225574
0.776623 0.419028 0.390875
0.794858 0.458091 0.403006
0.834882 0.543877 0.426886
0.886534 0.669367 0.437781
0.147555 0.48426 0.288533
0.0829175 0.331136 0.171847
0.114397 0.277638 0.148821
0.249622 0.248981 0.153033
0.625238 0.332586 0.260624
0.830427 0.530404 0.430045
0.832441 0.53727 0.425193
0.855467 0.582589 0.432975
0.890257 0.683726 0.437385
0.219211 0.697551 0.301076
0.208576 0.669886 0.280949
0.243885 0.653483 0.277562
0.347646 0.629175 0.284153
0.682338 0.672312 0.367514
0.909636 0.748577 0.446571
0.896468 0.692576 0.455711
0.889235 0.679057 0.437308
0.901106 0.724865 0.433234
0.278218 0.821195 0.28069
0.302449 0.823972 0.286198
0.330358 0.828092 0.292882
0.411536 0.842664 0.310887
0.676814 0.890425 0.366247
0.912978 0.916289 0.407279
0.931456 0.860304 0.430076
0.923064 0.824506 0.415412
0.920104 0.810971 0.414832
0.400961 0.868391 0.313268
0.414008 0.872068 0.315755
0.429953 0.87657 0.318807
0.476204 0.888655 0.327642
0.615808 0.920424 0.355184
0.846784 0.961471 0.398444
0.941421 0.960967 0.417639
0.940871 0.933715 0.416617
0.938338 0.910567 0.414572
0.588876 0.914733 0.350011
0.592767 0.915602 0.350805
0.59765 0.916701 0.351827
0.611811 0.91986 0.354772
0.654169 0.928893 0.36321
0.759869 0.949813 0.380667
0.907362 0.967193 0.411597
0.938537 0.969635 0.418128
0.940444 0.968566 0.418631
0.825803 0.958923 0.392569
0.826505 0.958984 0.392737
0.827359 0.959091 0.392935
0.829908 0.959365 0.393545
0.838132 0.960235 0.395499
0.860349 0.962493 0.400427
0.905669 0.967193 0.410544
0.938537 0.969635 0.418128
0.938537 0.969635 0.418128
0.0237888 0.00888075 0.112612
0.0201877 0.00808728 0.0947433
0.140917 0.0211185 0.0981918
0.518608 0.0894942 0.166232
0.74966 0.366842 0.374914
0.759304 0.385595 0.397574
0.782773 0.422721 0.430121
0.844465 0.551202 0.462867
0.892012 0.688533 0.437018
0.0431678 0.0146029 0.170871
0.0312657 0.0104524 0.128023
0.10782 0.018555 0.112871
0.394354 0.0491798 0.155444
0.673472 0.208469 0.301839
0.776516 0.403769 0.441657
0.802136 0.456916 0.452049
0.851759 0.563973 0.467216
0.893309 0.692775 0.436973
0.103212 0.184329 0.35613
0.0679942 0.123354 0.238041
0.102983 0.0988174 0.175891
0.297093 0.107805 0.185519
0.632486 0.196262 0.29308
0.811658 0.469108 0.492744
0.821775 0.493812 0.474861
0.86067 0.578866 0.472374
0.894835 0.697887 0.436912
0.219226 0.556786 0.534356
0.138231 0.395697 0.378012
0.155138 0.327245 0.313375
0.282322 0.282734 0.281865
0.642954 0.353399 0.365972
0.857282 0.556374 0.533913
0.862776 0.574319 0.516716
0.878965 0.618112 0.484627
0.899168 0.712413 0.436591
0.25742 0.740673 0.537545
0.247425 0.715297 0.503838
0.285832 0.700328 0.487221
0.385214 0.677928 0.467536
0.702342 0.705638 0.510246
0.932235 0.760693 0.560555
0.924147 0.715846 0.559747
0.912245 0.709133 0.505501
0.906081 0.75256 0.428061
0.291936 0.841474 0.460624
0.313466 0.84448 0.460456
0.338293 0.847898 0.46067
0.412039 0.856794 0.462898
0.665293 0.898634 0.492195
0.910155 0.918379 0.519509
0.946654 0.869383 0.552758
0.934936 0.841093 0.502251
0.925261 0.83238 0.415244
0.404074 0.871321 0.325963
0.41503 0.873732 0.327718
0.428244 0.876616 0.329686
0.466194 0.885679 0.335424
0.585763 0.914427 0.355322
0.823102 0.959243 0.391699
0.941482 0.962966 0.420005
0.941207 0.937224 0.422766
0.939437 0.922148 0.415579
0.579904 0.912367 0.348089
0.583368 0.913222 0.348516
0.587686 0.914305 0.34905
0.600229 0.917418 0.350607
0.638788 0.926543 0.357366
0.742046 0.94641 0.37879
0.894865 0.965515 0.408194
0.939208 0.969284 0.418128
0.939712 0.969039 0.418128
0.822446 0.958679 0.431128
0.823117 0.958755 0.430869
0.823926 0.958831 0.430426
0.826352 0.959091 0.429358
0.834165 0.959915 0.425772
0.854887 0.961807 0.416052
0.90013 0.966323 0.410193
0.93991 0.968933 0.418128
0.938537 0.969635 0.418128
0.0690166 0.0248875 0.296208
0.0647746 0.0238346 0.275334
0.144778 0.0267185 0.193057
0.509697 0.0639353 0.239658
0.760952 0.371084 0.451453
0.788571 0.418311 0.497139
0.815122 0.467323 0.542962
0.885634 0.598276 0.602838
0.931334 0.723186 0.590051
0.0960403 0.0314336 0.404562
0.0855268 0.0289464 0.359442
0.123583 0.0288853 0.26659
0.389822 0.0350042 0.273487
0.675105 0.182971 0.410773
0.789883 0.411276 0.524437
0.836423 0.506462 0.573343
0.891279 0.609827 0.608942
0.932342 0.726879 0.590967
0.166735 0.190387 0.553231
0.132784 0.141604 0.48835
0.132769 0.101503 0.386343
0.326253 0.106752 0.356313
0.646616 0.199252 0.437186
0.825269 0.481682 0.584131
0.85745 0.545022 0.602533
0.897704 0.622415 0.615442
0.933562 0.731304 0.592126
0.308415 0.606027 0.698329
0.240818 0.458824 0.598779
0.214893 0.380255 0.542397
0.342702 0.32668 0.502281
0.671489 0.379751 0.553933
0.875212 0.570855 0.660899
0.899199 0.620203 0.654398
0.913283 0.656489 0.632074
0.937041 0.74406 0.595224
0.302281 0.77174 0.719265
0.299168 0.749874 0.700526
0.333516 0.737423 0.694026
0.430945 0.719493 0.686809
0.731899 0.732341 0.731762
0.952972 0.760403 0.753277
0.946105 0.738674 0.710842
0.940627 0.732952 0.659617
0.940642 0.779461 0.598093
0.322759 0.864286 0.708537
0.343664 0.867155 0.710307
0.363684 0.869307 0.71252
0.428367 0.877012 0.720333
0.661189 0.907073 0.756115
0.91725 0.921569 0.76704
0.9626 0.876448 0.736019
0.960143 0.850492 0.675608
0.950256 0.849973 0.5944
0.436133 0.899138 0.611444
0.446143 0.901549 0.613565
0.458213 0.904448 0.616129
0.493156 0.912428 0.623285
0.603433 0.933471 0.64593
0.818402 0.964248 0.660502
0.958434 0.969589 0.647807
0.955764 0.943328 0.632029
0.949096 0.927169 0.549004
0.624277 0.933974 0.572808
0.626795 0.934417 0.572
0.629923 0.934951 0.570977
0.638987 0.936492 0.567819
0.667109 0.940764 0.557
0.748119 0.951965 0.528313
0.885206 0.966003 0.493645
0.944167 0.970718 0.468956
0.940291 0.969314 0.418509
0.840772 0.967605 0.701167
0.841352 0.967651 0.700877
0.842039 0.967712 0.700374
0.844129 0.967895 0.699336
0.850813 0.968505 0.695506
0.869932 0.969757 0.684245
0.910674 0.973144 0.650477
0.950774 0.973297 0.552789
0.940749 0.969497 0.422156
0.118776 0.0348974 0.51339
0.118776 0.0348974 0.51339
0.140642 0.0355993 0.421088
0.506981 0.0500343 0.396201
0.734096 0.279423 0.50959
0.778775 0.369894 0.563897
0.817029 0.44686 0.620096
0.895354 0.611215 0.709484
0.95259 0.749538 0.754925
0.160739 0.0365454 0.582635
0.162478 0.0365606 0.584207
0.135409 0.0358587 0.517082
0.401205 0.0537881 0.485679
0.647883 0.0865949 0.521599
0.7906 0.383749 0.604425
0.835508 0.484215 0.649485
0.901442 0.623621 0.7178
0.953368 0.752453 0.756024
0.223453 0.122042 0.621866
0.219486 0.119326 0.620752
0.15375 0.0472267 0.566384
0.351751 0.0580453 0.542641
0.651667 0.177417 0.582666
0.812268 0.419074 0.654795
0.856291 0.523857 0.679179
0.907866 0.638361 0.727474
0.954314 0.755947 0.757351
0.349477 0.527031 0.715511
0.318837 0.467155 0.691218
0.267567 0.380377 0.65182
0.384573 0.323644 0.637247
0.68687 0.363531 0.693767
0.869703 0.524224 0.761212
0.897154 0.606668 0.738537
0.924269 0.674418 0.748867
0.956985 0.765927 0.76112
0.369162 0.758206 0.786603
0.361975 0.742123 0.77818
0.363958 0.729137 0.769863
0.46244 0.718975 0.786404
0.738521 0.727352 0.847959
0.94255 0.738476 0.881041
0.947234 0.746487 0.817746
0.952438 0.755154 0.794553
0.962982 0.795529 0.771389
0.362387 0.863066 0.80145
0.37377 0.864439 0.803204
0.390204 0.864927 0.806104
0.450095 0.871534 0.819471
0.646967 0.896773 0.865766
0.911101 0.911482 0.911131
0.972366 0.880903 0.876875
0.967727 0.85597 0.833387
0.965743 0.855695 0.786496
0.426886 0.912474 0.786999
0.434455 0.913954 0.78883
0.445029 0.916014 0.791379
0.474922 0.921904 0.798627
0.573587 0.939345 0.820829
0.80325 0.969589 0.869169
0.968795 0.974685 0.872724
0.973953 0.947402 0.83978
0.968536 0.933089 0.785397
0.644144 0.94847 0.813291
0.647364 0.948882 0.813703
0.651392 0.949401 0.814221
0.663096 0.950927 0.815641
0.698528 0.955505 0.819821
0.788128 0.966949 0.830823
0.902098 0.979141 0.813855
0.968215 0.983474 0.756786
0.961822 0.980972 0.690211
0.858213 0.977478 0.89247
0.858839 0.977554 0.892576
0.859602 0.977646 0.892714
0.861906 0.97792 0.893126
0.869291 0.97879 0.894408
0.887968 0.980896 0.895476
0.927001 0.985168 0.889189
0.977035 0.988937 0.848157
0.966445 0.982605 0.737057
0.192889 0.037583 0.609842
0.193088 0.037583 0.609796
0.193286 0.037583 0.609751
0.411582 0.0605478 0.585565
0.672755 0.101778 0.608789
0.750988 0.274876 0.631571
0.808377 0.393393 0.690135
0.890486 0.571954 0.781506
0.947005 0.73817 0.840696
0.207721 0.0404669 0.612116
0.208011 0.0404517 0.612146
0.208667 0.0404212 0.612207
0.34258 0.0547646 0.619501
0.639628 0.0965438 0.628946
0.760266 0.286458 0.6692
0.825711 0.429755 0.717479
0.896727 0.584085 0.789715
0.947967 0.741756 0.842344
0.218936 0.0420233 0.61149
0.219074 0.0419776 0.611505
0.219181 0.0419471 0.611521
0.323522 0.052842 0.622461
0.616053 0.0919509 0.637568
0.772534 0.301869 0.702678
0.842924 0.468879 0.741512
0.903639 0.598123 0.798749
0.949126 0.74609 0.844343
0.297704 0.26537 0.64918
0.298054 0.26656 0.649393
0.290562 0.249821 0.645319
0.329793 0.205768 0.645075
0.635233 0.255207 0.706432
0.824323 0.400549 0.786114
0.887587 0.554467 0.797726
0.918517 0.637217 0.818097
0.952499 0.758709 0.850126
0.40824 0.727855 0.787686
0.396017 0.633021 0.75552
0.385748 0.612207 0.747066
0.429419 0.597971 0.754696
0.682826 0.630243 0.837858
0.911086 0.656596 0.909346
0.941695 0.70106 0.873381
0.945418 0.723003 0.860533
0.958343 0.792248 0.864256
0.397864 0.826337 0.816526
0.40827 0.825498 0.818616
0.423468 0.827344 0.823301
0.472953 0.831128 0.837674
0.628687 0.851667 0.883955
0.881666 0.872847 0.950439
0.967407 0.860288 0.938552
0.965118 0.846677 0.906157
0.966354 0.85745 0.88986
0.446433 0.917739 0.853315
0.452552 0.918303 0.855329
0.460365 0.919188 0.857694
0.484352 0.922835 0.863935
0.564569 0.934569 0.887404
0.773816 0.954864 0.933394
0.961227 0.962081 0.960845
0.98349 0.943633 0.938537
0.980102 0.931044 0.91548
0.621759 0.950698 0.89633
0.624765 0.95108 0.896864
0.62829 0.951537 0.89749
0.638712 0.95285 0.899336
0.671611 0.957107 0.904982
0.763073 0.968734 0.920317
0.90663 0.985382 0.941558
0.989883 0.994812 0.935058
0.986282 0.992782 0.910292
0.834333 0.978286 0.954726
0.835035 0.978378 0.954849
0.835859 0.978469 0.954986
0.838346 0.978775 0.955428
0.846372 0.979767 0.956802
0.869825 0.982376 0.959838
0.92192 0.988266 0.965927
0.98558 0.995026 0.967468
0.989563 0.99472 0.93695
0.21033 0.0406806 0.613169
0.210422 0.0407263 0.613184
0.210513 0.0407721 0.613199
0.210986 0.0409247 0.613123
0.530068 0.0772869 0.639872
0.689906 0.114565 0.667552
0.77496 0.302586 0.722332
0.858152 0.480781 0.804105
0.93785 0.677638 0.885969
0.217517 0.041001 0.61033
0.217716 0.0409705 0.610376
0.217945 0.04094 0.610437
0.218631 0.0408637 0.61062
0.493324 0.07187 0.635462
0.691386 0.114717 0.670192
0.786358 0.324819 0.73666
0.865064 0.494285 0.812222
0.938933 0.68162 0.887541
0.248402 0.0959793 0.62118
0.249393 0.0980697 0.621515
0.250599 0.100633 0.621942
0.253361 0.108507 0.62324
0.461967 0.0690471 0.633188
0.691508 0.114763 0.670726
0.801495 0.354482 0.754772
0.872984 0.509972 0.821576
0.940215 0.686351 0.889418
0.351476 0.438651 0.692058
0.351736 0.439673 0.692409
0.35227 0.441688 0.693095
0.353857 0.447776 0.695186
0.41265 0.06421 0.627756
0.72166 0.216205 0.71281
0.839261 0.435828 0.798367
0.892134 0.550027 0.844129
0.944167 0.700191 0.895033
0.403555 0.806363 0.811978
0.403494 0.806592 0.812024
0.403449 0.806821 0.812085
0.402014 0.649332 0.761715
0.480903 0.384115 0.708095
0.792142 0.495262 0.827588
0.916106 0.599405 0.888121
0.929107 0.644862 0.889128
0.954314 0.73817 0.909911
0.386481 0.861997 0.824201
0.392081 0.849775 0.821881
0.396445 0.838285 0.819974
0.412146 0.809964 0.815854
0.559731 0.773434 0.844327
0.805081 0.776394 0.913664
0.963012 0.797345 0.959442
0.964233 0.793698 0.944427
0.964889 0.818784 0.934813
0.421714 0.912764 0.847135
0.428077 0.913054 0.848463
0.435813 0.913405 0.85008
0.463737 0.914244 0.858213
0.548928 0.921355 0.880964
0.748928 0.929992 0.930037
0.935592 0.932784 0.970565
0.980652 0.924865 0.974334
0.978332 0.916625 0.959869
0.584115 0.946029 0.895567
0.586847 0.946426 0.896437
0.590204 0.946899 0.897505
0.601221 0.948333 0.900313
0.635081 0.952651 0.908766
0.724727 0.965225 0.931792
0.883055 0.985061 0.970214
0.996536 0.998322 0.997589
0.993835 0.989364 0.982376
0.808377 0.975357 0.951782
0.80911 0.975448 0.951965
0.809995 0.975555 0.952178
0.812619 0.975906 0.952819
0.821363 0.97705 0.954955
0.846876 0.98027 0.961196
0.904753 0.987686 0.974823
0.979309 0.996017 0.992157
1 1 1
0.363012 0.4795 0.707088
0.363409 0.481071 0.707607
0.363882 0.482979 0.708217
0.36524 0.48835 0.709957
0.369879 0.506706 0.715908
0.571466 0.084535 0.645655
0.702754 0.139727 0.680949
0.779141 0.29778 0.757794
0.891875 0.539345 0.87422
0.379934 0.546563 0.728832
0.380331 0.548135 0.729335
0.380697 0.549645 0.729824
0.381689 0.554131 0.731228
0.384817 0.568429 0.735698
0.564553 0.0829023 0.643427
0.711757 0.158343 0.689372
0.783795 0.3075 0.762753
0.893935 0.544228 0.876341
0.394232 0.611292 0.749111
0.394476 0.612421 0.749462
0.394781 0.613825 0.749905
0.395651 0.617746 0.751125
0.397696 0.628748 0.754833
0.558022 0.0817731 0.642481
0.722118 0.179904 0.699748
0.789288 0.318914 0.768566
0.896452 0.550134 0.878889
0.408682 0.733288 0.791226
0.408698 0.733608 0.791318
0.408698 0.734264 0.791501
0.408713 0.735882 0.791974
0.408759 0.741222 0.793515
0.543084 0.084596 0.643183
0.749325 0.235355 0.726894
0.805737 0.353475 0.785672
0.90367 0.567147 0.886259
0.387396 0.856672 0.823743
0.387366 0.856733 0.823758
0.387304 0.85684 0.823789
0.387167 0.85713 0.82385
0.386633 0.858183 0.824094
0.637308 0.431464 0.763027
0.823941 0.401404 0.806683
0.856336 0.463981 0.836942
0.921813 0.611719 0.906569
0.345937 0.901289 0.825193
0.345937 0.901289 0.825193
0.345937 0.901289 0.825193
0.345937 0.901289 0.825193
0.388586 0.857832 0.823667
0.707469 0.791348 0.889296
0.922393 0.752041 0.940154
0.944961 0.684062 0.932494
0.953277 0.717098 0.941802
0.345937 0.901289 0.825193
0.345937 0.901289 0.825193
0.345937 0.901289 0.825193
0.35523 0.902968 0.827497
0.411429 0.914336 0.844297
0.645533 0.933761 0.907805
0.910201 0.936309 0.965377
0.978347 0.909941 0.976165
0.973068 0.87451 0.969604
0.514351 0.934234 0.875074
0.517098 0.934768 0.875914
0.520546 0.935439 0.876967
0.530907 0.937407 0.880034
0.563973 0.943465 0.889464
0.664286 0.957092 0.91603
0.851759 0.980697 0.961913
0.98587 0.99707 0.993439
0.993896 0.985428 0.993942
0.770993 0.970214 0.942733
0.771847 0.970306 0.942946
0.772961 0.970459 0.943206
0.775998 0.97084 0.943923
0.785901 0.972091 0.946273
0.815656 0.975906 0.953399
0.883223 0.984649 0.970123
0.968032 0.995163 0.989609
1 1 1
