Luts/Fujifilm/FLog2C_to_FLog2C-709_VLog.cube
TITLE "Generated by Resolve"
LUT_3D_SIZE 9
0 0 0
0.132403 0 0.000610361
0.320424 0 0
0.497108 0 0
0.674464 0 0
0.833234 0 0
0.977325 0.102937 0
1 0.31136 0
1 0.469505 0
0 0.11574 0
0.106386 0.101427 0
0.299763 0.0650645 0
0.473854 0.0222629 0
0.646769 0.00419623 0
0.811765 0.0362554 0
0.968719 0.173098 0
1 0.326162 0
1 0.473457 0
0 0.263874 0
0.000183108 0.253437 0
0.230762 0.238193 0
0.428901 0.213855 0
0.615885 0.18436 0
0.793545 0.175509 0
0.959792 0.228016 0
1 0.342428 0
1 0.478126 0
0 0.401602 0
0 0.391775 0
0.119722 0.383307 0
0.356664 0.368032 0
0.563684 0.344976 0
0.757778 0.322621 0
0.938827 0.324041 0
1 0.38294 0
1 0.491554 0
0 0.534234 0
0 0.530251 0
0.00825513 0.526223 0
0.25832 0.517449 0
0.48455 0.501289 0
0.69691 0.479271 0
0.896666 0.460136 0
1 0.468498 0
1 0.528603 0
0 0.668956 0
0.00242618 0.667536 0
0.0162356 0.66598 0
0.184344 0.66186 0
0.393912 0.652384 0
0.613626 0.635691 0
0.829694 0.614328 0
1 0.598154 0
1 0.609262 0
0.125658 0.804578 0
0.145006 0.804105 0
0.167681 0.803616 0
0.22826 0.801999 0
0.346517 0.79765 0
0.527916 0.787594 0
0.74316 0.770596 0
0.961242 0.749691 0
1 0.735119 0
0.330327 0.938704 0
0.334508 0.938552 0
0.339178 0.938384 0
0.353429 0.93785 0
0.394736 0.936294 0
0.492226 0.931868 0
0.660624 0.922255 0
0.872602 0.905379 0
1 0.884901 0
0.4878 1 0
0.488853 1 0
0.490105 1 0
0.493874 1 0
0.506004 1 0
0.541421 1 0
0.629648 1 0
0.790707 1 0
0.992981 1 0
0 0 0.105333
0.126833 0 0.105867
0.318425 0 0.104738
0.495445 0 0.0939803
0.673854 0 0.0831617
0.832853 0 0.041886
0.977218 0.102342 0
1 0.311467 0
1 0.469596 0
0 0.105852 0.0948043
0.0928511 0.0927596 0.0928969
0.297475 0.0530861 0.0915694
0.472419 0.0116579 0.0834516
0.645869 0.000885023 0.0644083
0.811383 0.0256504 0.0194858
0.968597 0.17261 0
1 0.326268 0
1 0.473457 0
0 0.258854 0.0662089
3.0518e-05 0.247974 0.065507
0.228199 0.232578 0.0618753
0.427604 0.206928 0.0555428
0.614984 0.177478 0.0397498
0.792981 0.169757 0.00631724
0.959701 0.227619 0
1 0.342428 0
1 0.478126 0
0 0.398215 0.0216678
0 0.387991 0.0198825
0.11223 0.379477 0.017258
0.355184 0.364004 0.0137942
0.562554 0.341085 0.00376898
0.757229 0.319081 0
0.938796 0.323476 0
1 0.38294 0
1 0.491554 0
0 0.531243 0
0 0.527184 0
0.00682078 0.523186 0
0.256123 0.514443 0
0.483558 0.498268 0
0.696361 0.476631 0
0.89659 0.459648 0
1 0.468498 0
1 0.528603 0
0 0.666499 0
0.00216678 0.66511 0
0.0153353 0.663508 0
0.181231 0.65951 0
0.392615 0.649912 0
0.612833 0.633539 0
0.82945 0.613245 0
1 0.598245 0
1 0.609262 0
0.1205 0.801617 0
0.139879 0.801221 0
0.163378 0.800656 0
0.224537 0.799146 0
0.344167 0.794751 0
0.52665 0.784955 0
0.742611 0.768917 0
0.961242 0.749691 0
1 0.735119 0
0.327642 0.935821 0
0.331853 0.935653 0
0.336553 0.935485 0
0.350912 0.934951 0
0.392462 0.933349 0
0.490364 0.928847 0
0.659159 0.91902 0
0.872267 0.904326 0
1 0.884901 0
0.486915 1 0
0.487968 1 0
0.489219 1 0
0.492988 1 0
0.50515 1 0
0.540597 1 0
0.628901 1 0
0.78999 1 0
0.992981 1 0
0 0 0.24477
0.11635 0 0.244373
0.314656 0 0.243168
0.492927 0 0.239322
0.672328 0 0.234607
0.831373 0 0.216068
0.976135 0.0729686 0.154635
1 0.306584 0
1 0.469596 0
0 0.0811322 0.238712
0.0701305 0.0638132 0.237064
0.291051 0.0270085 0.23592
0.470039 0 0.232273
0.643809 0 0.224537
0.809918 0.00204471 0.204761
0.967483 0.152056 0.147921
1 0.321523 0
1 0.473457 0
0 0.246983 0.224857
0 0.235584 0.22359
0.220691 0.220508 0.220783
0.424399 0.192737 0.219348
0.613306 0.160098 0.211414
0.791547 0.151415 0.195041
0.95848 0.211933 0.140658
1 0.337804 0
1 0.478126 0
0 0.390402 0.201556
0 0.379873 0.200443
0.104067 0.371084 0.198779
0.351766 0.355062 0.196002
0.560616 0.331685 0.189654
0.755673 0.308812 0.174792
0.93756 0.312108 0.121492
1 0.378637 0
1 0.491554 0
0 0.52517 0.162722
0 0.521141 0.161471
0.00460822 0.517113 0.160632
0.251911 0.508217 0.157565
0.481285 0.491829 0.151537
0.694835 0.469657 0.136553
0.895369 0.451575 0.0834669
1 0.464607 0
1 0.528603 0
0 0.66183 0.0921492
0.00178531 0.660441 0.0920119
0.012665 0.658839 0.090425
0.176089 0.654704 0.0898756
0.389899 0.645045 0.0855421
0.611185 0.628412 0.0695811
0.828153 0.607462 0.0225528
1 0.594659 0
1 0.609262 0
0.113954 0.798184 0.00865187
0.133791 0.797772 0.00827039
0.158236 0.797208 0.00755322
0.220691 0.795666 0.0065156
0.341558 0.791226 0.00297551
0.524865 0.781216 0
0.741238 0.76466 0
0.960372 0.746044 0
1 0.735119 0
0.32549 0.933501 0
0.329473 0.933349 0
0.334447 0.933165 0
0.348882 0.932631 0
0.390646 0.931014 0
0.488869 0.926436 0
0.657832 0.916381 0
0.871061 0.900633 0
1 0.884901 0
0.486015 1 0.00457771
0.487068 1 0.00457771
0.488334 1 0.00447089
0.492103 1 0.00427253
0.50428 1 0.00350958
0.539788 1 0.00115969
0.628183 1 0
0.789334 1 0
0.992432 1 0
0 0 0.375311
0.0818341 0 0.375158
0.305653 0 0.374197
0.488685 0 0.372351
0.669657 0 0.370062
0.828931 0 0.359518
0.974227 0.0301213 0.332509
1 0.283711 0.281025
1 0.459342 0.0651408
0 0.0352483 0.370794
0.0393225 0.025803 0.370367
0.278813 0.00231937 0.369192
0.464729 0 0.367315
0.640574 0 0.362829
0.80763 3.0518e-05 0.352468
0.965652 0.118029 0.328862
1 0.299763 0.279454
1 0.463279 0.0643931
0 0.228153 0.362112
0 0.216342 0.361273
0.211322 0.198642 0.360372
0.418936 0.169024 0.358541
0.610101 0.131136 0.354742
0.789258 0.120516 0.346426
0.956649 0.186831 0.325078
1 0.317174 0.277501
1 0.467994 0.0635843
0 0.378164 0.347219
0 0.367269 0.346441
0.0836957 0.357992 0.345556
0.34255 0.342397 0.34258
0.55726 0.316609 0.34107
0.753399 0.292317 0.334417
0.935729 0.294575 0.315847
1 0.360403 0.272389
1 0.481758 0.0559091
0 0.515969 0.323919
0 0.511757 0.323537
0.00173953 0.507683 0.322927
0.24387 0.498466 0.321752
0.477501 0.481697 0.319326
0.692531 0.458747 0.313359
0.89337 0.439597 0.298146
1 0.450004 0.259495
1 0.519448 0.0407263
0 0.654414 0.289662
0.00115969 0.65301 0.289525
0.00799573 0.651438 0.289113
0.165957 0.647196 0.288472
0.38526 0.637461 0.28687
0.608499 0.620417 0.281987
0.826062 0.598856 0.269612
1 0.583642 0.232792
1 0.60119 0.0123293
0.101961 0.792447 0.247211
0.123049 0.791959 0.24712
0.148531 0.791379 0.246906
0.213565 0.789837 0.246372
0.337209 0.785336 0.244724
0.521843 0.775204 0.240146
0.739025 0.758206 0.227863
0.958419 0.738033 0.189731
1 0.727932 0
0.321492 0.929229 0.197848
0.325505 0.929076 0.197803
0.330541 0.928893 0.19762
0.345129 0.928344 0.197208
0.387045 0.926711 0.195911
0.485985 0.922072 0.191638
0.655772 0.911757 0.179232
0.869276 0.895109 0.138964
1 0.877791 0
0.484031 1 0.170901
0.485084 1 0.170886
0.486351 1 0.170718
0.490135 1 0.17052
0.502358 1 0.169741
0.537972 1 0.166613
0.626429 1 0.156634
0.787976 1 0.122927
0.991577 1 0.000762951
0 0 0.509575
0.010132 0 0.509575
0.280629 0 0.508873
0.480064 0 0.507866
0.66508 0 0.506264
0.824567 0 0.498833
0.971389 0 0.483253
1 0.255543 0.45832
1 0.435966 0.410178
0 0.00148013 0.506279
0 4.57771e-05 0.505898
0.250813 0 0.505135
0.452033 0 0.503563
0.634226 0 0.500435
0.803647 0 0.493843
0.96286 0.0639506 0.480705
1 0.272969 0.457267
1 0.440131 0.409689
0 0.200473 0.499855
0 0.190188 0.499428
0.179171 0.168795 0.498695
0.406958 0.133562 0.497383
0.604028 0.0847944 0.494774
0.785397 0.0701457 0.489494
0.953872 0.148486 0.478096
1 0.292058 0.455955
1 0.445106 0.409155
0 0.361242 0.489265
0 0.349554 0.488731
0.0387732 0.339544 0.488151
0.332692 0.321538 0.487083
0.551278 0.294804 0.485039
0.749599 0.268391 0.480964
0.933013 0.269413 0.471809
1 0.33814 0.452476
1 0.459541 0.40734
0 0.502876 0.472694
0 0.498421 0.472374
0 0.494057 0.472053
0.228397 0.484413 0.47126
0.468101 0.467994 0.468101
0.688655 0.442969 0.466484
0.890593 0.422629 0.459541
1 0.432212 0.444007
1 0.499001 0.402365
0 0.643763 0.449561
0.00030518 0.642237 0.4495
0.00132753 0.640604 0.449256
0.147585 0.636286 0.448966
0.378012 0.626276 0.447776
0.604257 0.608865 0.445319
0.823178 0.586526 0.439933
1 0.570123 0.4271
1 0.583795 0.390249
0.0814527 0.783719 0.420264
0.104036 0.78323 0.420203
0.131304 0.782635 0.420142
0.201648 0.781064 0.419928
0.32958 0.776562 0.419089
0.517143 0.766232 0.417121
0.735866 0.74873 0.412497
0.955993 0.727657 0.401083
1 0.714122 0.367483
0.314321 0.92221 0.384848
0.318425 0.922057 0.384817
0.323537 0.921859 0.384787
0.338399 0.921309 0.384619
0.381277 0.919646 0.38407
0.481254 0.915007 0.382635
0.652399 0.904479 0.378729
0.866728 0.887175 0.368032
1 0.867475 0.335698
0.480201 1 0.350027
0.48127 1 0.350011
0.482536 1 0.349905
0.486366 1 0.349874
0.49868 1 0.349462
0.53434 1 0.348501
0.623453 1 0.345449
0.78555 1 0.33576
0.990433 1 0.305715
0 0 0.645289
0 0 0.645289
0.20473 0 0.644892
0.459022 0 0.644007
0.654154 0 0.642451
0.815885 0 0.636469
0.966583 0 0.625864
1 0.218769 0.610025
1 0.411582 0.585321
0 0 0.641871
0 0 0.641733
0.149615 0 0.641093
0.421759 0 0.639872
0.619974 0 0.637522
0.796155 0 0.632868
0.958251 0.00564584 0.624033
1 0.238193 0.609201
1 0.415991 0.58497
0 0.166934 0.637079
0 0.166445 0.636988
0.0506905 0.138888 0.636378
0.377584 0.0895247 0.63534
0.591211 0.0276951 0.633417
0.778561 0.00648508 0.629587
0.949401 0.090486 0.622034
1 0.25951 0.608225
1 0.421302 0.584543
0 0.340505 0.629282
0 0.331167 0.628901
0 0.318563 0.628443
0.301534 0.297322 0.627619
0.539117 0.266972 0.626062
0.743297 0.236057 0.62324
0.92871 0.236042 0.61738
1 0.309621 0.605615
1 0.436408 0.583352
0 0.48716 0.616739
0 0.482048 0.616464
0 0.477134 0.616205
0.191135 0.466529 0.615625
0.458305 0.44773 0.61442
0.682246 0.422324 0.612222
0.886442 0.400427 0.608087
1 0.409674 0.599207
1 0.477699 0.579873
0 0.629892 0.599313
0 0.628367 0.599207
0 0.626612 0.599069
0.10576 0.622065 0.598749
0.364294 0.611688 0.597955
0.594781 0.594644 0.594781
0.819028 0.570382 0.593164
1 0.553079 0.586694
1 0.565621 0.571237
0.0498665 0.772122 0.576989
0.069688 0.771618 0.576959
0.0999619 0.771008 0.576898
0.180407 0.76939 0.576669
0.317082 0.764691 0.576242
0.509987 0.754101 0.57499
0.731334 0.736248 0.572549
0.952758 0.714366 0.567407
1 0.699611 0.555077
0.302846 0.91252 0.549477
0.307057 0.912367 0.549462
0.312322 0.912169 0.549447
0.327565 0.91162 0.54931
0.371954 0.909911 0.549111
0.474342 0.905104 0.548318
0.64744 0.894377 0.546456
0.863157 0.876692 0.542062
1 0.855863 0.53138
0.473915 1 0.518227
0.474983 1 0.518212
0.47628 1 0.518212
0.48014 1 0.518181
0.492607 1 0.518029
0.528878 1 0.517601
0.618692 1 0.516289
0.78175 1 0.512627
0.988952 1 0.502861
0 0 0.780667
0 0 0.78056
0 0 0.780468
0.365972 0 0.779263
0.614145 0 0.777035
0.796109 0 0.772747
0.957 0 0.76527
1 0.173449 0.753872
1 0.382788 0.737453
0 0 0.776715
0 0 0.776654
0 0 0.776547
0.312657 0 0.775464
0.583276 0 0.773571
0.779095 0 0.77023
0.949111 0 0.763851
1 0.195361 0.753231
1 0.387411 0.737194
0 0.145541 0.77351
0 0.147982 0.773449
0 0.149905 0.773404
0.267308 0.0807965 0.772335
0.5579 0.0102083 0.770764
0.763348 0.000762951 0.767926
0.94081 0.0285954 0.762341
1 0.219898 0.752483
1 0.392996 0.736873
0 0.317189 0.767727
0 0.317647 0.767712
0 0.312978 0.767529
0.181018 0.279271 0.766598
0.508064 0.240375 0.765316
0.729839 0.201389 0.763088
0.920882 0.198047 0.75877
1 0.275151 0.750439
1 0.409247 0.735943
0 0.478889 0.758419
0 0.469978 0.758053
0 0.462486 0.757763
0.0433661 0.448585 0.757183
0.427131 0.426398 0.756207
0.669932 0.397971 0.754513
0.879515 0.373999 0.751492
1 0.382345 0.745342
1 0.452522 0.733257
0 0.614771 0.744305
0 0.612909 0.744213
0 0.61091 0.744106
0.000839246 0.605829 0.743816
0.332845 0.594339 0.74316
0.58526 0.574868 0.741878
0.81236 0.5505 0.739666
1 0.53196 0.735439
1 0.544213 0.726528
0.0132601 0.757824 0.726436
0.0181277 0.757382 0.726406
0.0331884 0.756741 0.72636
0.128161 0.755016 0.726238
0.291157 0.750072 0.725887
0.497475 0.73904 0.725002
0.721965 0.721569 0.72192
0.948226 0.697963 0.720211
1 0.682231 0.713863
0.283574 0.900145 0.704387
0.288212 0.899977 0.704372
0.29366 0.899779 0.704356
0.309743 0.899199 0.704311
0.356909 0.897459 0.704082
0.463249 0.892592 0.703639
0.640375 0.881529 0.702419
0.858473 0.863416 0.700023
1 0.841978 0.695048
0.464378 1 0.678248
0.465476 1 0.678248
0.466789 1 0.678233
0.470726 1 0.678218
0.483391 1 0.67808
0.520333 1 0.677882
0.611856 1 0.677195
0.776669 1 0.675334
0.986404 0.997513 0.671122
0 0 0.911788
0 0 0.911742
0 0 0.911681
0 0.00135805 0.911513
0.485924 0 0.909667
0.74728 0 0.906966
0.934676 0 0.902068
1 0.134676 0.893889
1 0.351522 0.881804
0 0.0927596 0.909941
0 0.0951705 0.909911
0 0.0981308 0.909865
0 0.106828 0.909728
0.465385 0.00120546 0.907988
0.735454 0 0.905562
0.928267 3.0518e-05 0.901122
1 0.159075 0.8934
1 0.356497 0.88159
0 0.187198 0.908171
0 0.188403 0.908141
0 0.189899 0.90811
0 0.194049 0.908003
0.445182 0.0824445 0.906325
0.723171 0.01178 0.904112
0.92137 0.0279088 0.900084
1 0.184939 0.892836
1 0.362417 0.881346
0 0.312505 0.904402
0 0.31281 0.904387
0 0.313405 0.904372
0 0.31519 0.904295
0.401663 0.246906 0.902678
0.694942 0.193652 0.900816
0.903853 0.175463 0.897505
1 0.243824 0.891264
1 0.379294 0.880583
0 0.46392 0.897505
0 0.464103 0.897505
0 0.464271 0.89749
0 0.452216 0.897078
0.321645 0.414282 0.895811
0.639323 0.37911 0.894347
0.865293 0.35021 0.891905
1 0.354604 0.887251
1 0.424659 0.878386
0 0.608423 0.886717
0 0.604852 0.886564
0 0.601251 0.886397
0 0.593225 0.886061
0.232807 0.578119 0.88539
0.556191 0.555566 0.884291
0.799847 0.528878 0.88249
0.999954 0.508431 0.879332
1 0.519905 0.872953
0 0.742901 0.871672
0 0.742367 0.871626
0 0.741634 0.871595
0 0.739544 0.871489
0.221546 0.734051 0.871168
0.470024 0.721965 0.870466
0.712398 0.702296 0.869123
0.94139 0.678645 0.866865
1 0.661952 0.862669
0.239094 0.885664 0.853437
0.245579 0.885496 0.853422
0.25359 0.885283 0.853407
0.271916 0.884672 0.853376
0.325902 0.882841 0.853239
0.442405 0.877653 0.852888
0.62855 0.866224 0.851972
0.849042 0.848463 0.848966
1 0.825315 0.847196
0.449012 1 0.831617
0.450126 1 0.831617
0.451469 1 0.831617
0.455482 1 0.831601
0.468879 1 0.83154
0.507378 1 0.831388
0.601602 1 0.830869
0.769589 0.999924 0.829725
0.982879 0.989364 0.827298
0 0.249607 1
0 0.250202 1
0 0.250919 1
0 0.252964 1
0 0.259892 1
0.613947 0.122377 1
0.882017 0.0668345 1
1 0.16553 1
1 0.330861 1
0 0.274968 1
0 0.275563 1
0 0.276143 1
0 0.277958 1
0 0.283711 1
0.607126 0.159808 1
0.877821 0.105531 1
1 0.181659 1
1 0.335592 1
0 0.300984 1
0 0.301427 1
0 0.301991 1
0 0.303578 1
0 0.308476 1
0.599374 0.194873 1
0.873121 0.145006 1
1 0.200549 1
1 0.341283 1
0 0.359625 1
0 0.359823 1
0 0.360235 1
0 0.361227 1
0 0.364523 1
0.5794 0.268666 1
0.860273 0.222644 1
1 0.246647 1
1 0.357763 1
0 0.466163 1
0 0.466255 1
0 0.466438 1
0 0.466896 1
0 0.468528 1
0.53373 0.39202 1
0.828687 0.350988 1
1 0.343023 1
1 0.40206 1
0 0.608377 1
0 0.608469 1
0 0.608469 1
0 0.608713 1
0 0.585901 1
0.457969 0.546471 1
0.768811 0.513542 1
0.995132 0.488991 1
1 0.49662 1
0 0.73817 1
0 0.736904 1
0 0.73547 1
0 0.731777 1
0 0.722942 1
0.384588 0.706996 1
0.683864 0.684215 1
0.928695 0.658503 1
1 0.640192 0.999542
0.0805829 0.871031 0.995041
0.0898451 0.870832 0.995026
0.101427 0.870588 0.995026
0.133883 0.869871 0.99501
0.229908 0.86775 0.994934
0.387915 0.861875 0.994751
0.602777 0.849393 0.994324
0.839338 0.829618 0.99353
1 0.806378 0.992218
0.417609 1 0.980438
0.418875 1 0.980438
0.420493 1 0.980423
0.424857 1 0.980423
0.439078 1 0.980377
0.481865 1 0.98024
0.583047 0.999161 0.979873
0.758206 0.990921 0.978943
0.975555 0.975387 0.975982
