Luts/Fujifilm/FLog2C_to_PRO-Neg.Std_VLog.cube
TITLE "Generated by Resolve"
LUT_3D_SIZE 33
0 0 0
0 0 0
0 0 0
0 0 0
0.0178836 0.00422675 0.00370794
0.06215 0.00852979 0.0171359
0.10605 0.0183413 0.0276646
0.167727 0.0222629 0.0480049
0.25771 0.0313726 0.0727855
0.376486 0.0411231 0.103639
0.532113 0.0508431 0.146761
0.699809 0.0560464 0.204929
0.839109 0.0724956 0.286061
0.937316 0.0937819 0.388479
0.952743 0.142275 0.447883
0.961578 0.228229 0.478035
0.966094 0.257221 0.484733
0.966094 0.257221 0.484733
0.966094 0.257221 0.484733
0.966094 0.257221 0.484733
0.966094 0.257221 0.484733
0.966094 0.257221 0.484733
0.966094 0.257221 0.484733
0.966094 0.257221 0.484733
0.966232 0.261021 0.482063
0.9673 0.282856 0.46717
0.96817 0.312016 0.447196
0.970321 0.341115 0.424613
0.971374 0.374289 0.397711
0.972305 0.409628 0.368399
0.972763 0.448676 0.333227
0.974044 0.489342 0.290837
0.973831 0.53315 0.243366
0 0 0
0 0 0
0 0 0
0 0 0
0.0241855 0.00624094 0.00447089
0.0708324 0.0099794 0.0191806
0.114656 0.0193332 0.0304875
0.175814 0.0235447 0.0496681
0.267506 0.0323033 0.0752728
0.386221 0.0417487 0.106249
0.540185 0.0514992 0.149126
0.705364 0.0565194 0.207126
0.841306 0.072755 0.287678
0.938521 0.0943618 0.391043
0.952926 0.143572 0.448249
0.9617 0.229297 0.478416
0.966094 0.257145 0.484718
0.966094 0.257221 0.484733
0.966094 0.257221 0.484733
0.966094 0.257221 0.484733
0.966094 0.257221 0.484733
0.966094 0.257221 0.484733
0.966094 0.257221 0.484733
0.966094 0.257221 0.484733
0.966583 0.265278 0.478828
0.967834 0.289189 0.46244
0.968231 0.316442 0.443153
0.970489 0.344701 0.42208
0.971374 0.377279 0.395224
0.972366 0.411872 0.366613
0.972793 0.450584 0.331533
0.974044 0.490837 0.289281
0.973861 0.534356 0.241856
0 0 0
0 0 0
0 0 0
0 0 0
0.0310979 0.00779736 0.00614939
0.0797436 0.0120851 0.0213321
0.124727 0.0189975 0.0348669
0.184451 0.024506 0.0522774
0.272587 0.032639 0.0761883
0.386862 0.0413672 0.106401
0.530694 0.050248 0.146258
0.689372 0.0543526 0.201236
0.822507 0.0704051 0.273579
0.930312 0.0879683 0.363714
0.947799 0.115969 0.437446
0.95761 0.175784 0.459693
0.965087 0.243626 0.480903
0.966125 0.257053 0.484855
0.966094 0.257221 0.484733
0.966094 0.257221 0.484733
0.966094 0.257221 0.484733
0.966094 0.257221 0.484733
0.966094 0.257221 0.484733
0.966094 0.257221 0.484733
0.967163 0.271153 0.47425
0.968322 0.295048 0.458076
0.968307 0.320668 0.439323
0.970657 0.348165 0.419638
0.971359 0.380285 0.392752
0.972427 0.414191 0.364752
0.972839 0.452491 0.329809
0.973983 0.492363 0.287633
0.973892 0.535576 0.24036
0 0 0
0 0 0
0 0 0
0 0 0
0.0208438 0.00358587 0.00418097
0.0554665 0.00849927 0.0142214
0.096849 0.0137484 0.0267796
0.146334 0.0207523 0.0420691
0.215686 0.0281224 0.0619516
0.315221 0.0348974 0.0883803
0.43743 0.0442969 0.119081
0.589563 0.0509346 0.162783
0.737026 0.0586862 0.222782
0.856748 0.0751049 0.299031
0.9393 0.0931106 0.389487
0.950927 0.128161 0.4439
0.957168 0.189334 0.461799
0.966155 0.251041 0.484169
0.966094 0.257221 0.484733
0.966094 0.257221 0.484733
0.966094 0.257221 0.484733
0.966094 0.257221 0.484733
0.966094 0.257221 0.484733
0.966628 0.259709 0.483238
0.967498 0.276936 0.470008
0.96878 0.300725 0.453864
0.968414 0.32488 0.43566
0.970794 0.351751 0.417014
0.971389 0.383215 0.390311
0.972381 0.416678 0.362509
0.97293 0.454459 0.327901
0.973907 0.493904 0.285969
0.973938 0.536782 0.238849
0.00196841 0.013962 0.000442512
0.00216678 0.0149844 0.00047303
0.00205997 0.0144808 0.000381476
0 0.00547799 7.62951e-05
0.0104219 0.00271611 0.00131228
0.0416571 0.00825513 0.00889601
0.0727092 0.0125734 0.0193027
0.117235 0.017258 0.0343023
0.175418 0.0247196 0.0504158
0.256367 0.0304417 0.0710613
0.35993 0.0398718 0.0990311
0.49192 0.0458686 0.135058
0.648157 0.0514382 0.182727
0.78143 0.0642863 0.250172
0.896117 0.0818494 0.328191
0.945281 0.10042 0.417975
0.954223 0.149554 0.45069
0.961654 0.218647 0.472145
0.966094 0.25713 0.484703
0.966094 0.257221 0.484733
0.966094 0.257221 0.484733
0.966094 0.257221 0.484733
0.966079 0.257694 0.484443
0.967834 0.265415 0.479789
0.967269 0.283787 0.465751
0.968719 0.305394 0.450523
0.968902 0.329442 0.432959
0.970855 0.355627 0.413687
0.971527 0.386191 0.387762
0.972274 0.419196 0.360098
0.973022 0.456306 0.326085
0.973831 0.495567 0.284184
0.973968 0.537957 0.237385
0.0068513 0.0501869 0
0.00700389 0.0507973 0
0.00576791 0.0420539 0.000213626
0.00488289 0.0309606 0.000106813
0.00616464 0.0217441 0.000518807
0.0315251 0.019791 0.0031281
0.0602579 0.0184482 0.0102693
0.0934005 0.0173495 0.0245975
0.141649 0.022446 0.0390784
0.209155 0.0280308 0.0579995
0.300862 0.0344396 0.0824903
0.421256 0.046067 0.113588
0.564309 0.0490578 0.156115
0.717266 0.0583658 0.215259
0.839368 0.072755 0.285328
0.940368 0.0893111 0.380316
0.950637 0.122316 0.444694
0.956664 0.19202 0.46154
0.966094 0.257221 0.484733
0.966094 0.257221 0.484733
0.966094 0.257221 0.484733
0.965942 0.258061 0.484428
0.965927 0.261982 0.481666
0.968277 0.272267 0.475196
0.967071 0.290013 0.461875
0.968643 0.309804 0.447395
0.969375 0.333913 0.43032
0.970916 0.359426 0.410437
0.971649 0.38909 0.38529
0.972168 0.421805 0.35758
0.973129 0.458274 0.324163
0.973754 0.497063 0.282582
0.973999 0.53904 0.236027
0.0123598 0.0770428 0
0.0124208 0.0779431 0
0.0106813 0.0702525 0.000213626
0.00849927 0.0576944 0.000442512
0.00688182 0.0469215 0
0.0221103 0.0423896 0.000137331
0.0513619 0.0400702 0.00254826
0.081239 0.0408637 0.00972
0.127169 0.0408484 0.0229343
0.185672 0.0422827 0.043595
0.26865 0.0430457 0.0697185
0.374289 0.0463111 0.0981918
0.508171 0.0473182 0.139132
0.667918 0.0537881 0.190509
0.800519 0.0670176 0.259236
0.917784 0.083772 0.345815
0.947921 0.106752 0.432715
0.95639 0.170047 0.454856
0.963363 0.243778 0.480995
0.966094 0.257221 0.484733
0.966094 0.257221 0.484733
0.965469 0.260502 0.483513
0.966049 0.267689 0.477989
0.967895 0.281315 0.468696
0.967315 0.296437 0.45771
0.968597 0.31429 0.444205
0.969848 0.338308 0.42771
0.970993 0.363226 0.407187
0.971771 0.391974 0.382818
0.972061 0.424323 0.355169
0.973205 0.46009 0.322393
0.973693 0.498604 0.280919
0.974044 0.540261 0.234531
0.0159457 0.113512 0
0.0160525 0.114382 0
0.0154726 0.104097 0.000564584
0.0122225 0.0863203 0.000122072
0.010956 0.072343 0.000122072
0.0178073 0.0639963 0.000854505
0.0438392 0.0622873 0.000427253
0.0763561 0.0624857 0.00390631
0.114916 0.0635538 0.00900282
0.168734 0.0648203 0.0233616
0.246921 0.0664378 0.0490425
0.344686 0.0704356 0.0755779
0.473793 0.0705882 0.113985
0.623056 0.0710002 0.158694
0.763058 0.0770275 0.226871
0.881971 0.085481 0.31133
0.943664 0.104768 0.407706
0.955016 0.153735 0.448066
0.963226 0.223651 0.472648
0.965957 0.262364 0.481575
0.967895 0.263218 0.479973
0.966934 0.269703 0.477317
0.966674 0.276509 0.472328
0.967742 0.290776 0.461906
0.967941 0.303746 0.452827
0.96878 0.320211 0.439841
0.970413 0.343496 0.424643
0.971069 0.367727 0.403342
0.971923 0.395392 0.379904
0.971939 0.427359 0.35227
0.973312 0.462379 0.32015
0.973602 0.500389 0.279011
0.974075 0.541711 0.232715
0.0205844 0.162722 0.00062562
0.0204623 0.162661 0.000564584
0.0177157 0.142672 0.000122072
0.0170748 0.121263 0.00062562
0.01561 0.105699 0.000518807
0.013489 0.0948959 0
0.0383612 0.0913863 0.000381476
0.0671702 0.087953 0
0.105577 0.0883192 0.00280766
0.158343 0.0900893 0.00955215
0.228168 0.092607 0.023331
0.320684 0.0958114 0.0493782
0.439017 0.0996719 0.0814832
0.582223 0.100206 0.1243
0.723552 0.108125 0.182025
0.846235 0.117098 0.2607
0.943801 0.133486 0.353872
0.954223 0.162707 0.42388
0.962737 0.224231 0.449287
0.967849 0.276555 0.471946
0.967773 0.278264 0.470542
0.967529 0.283482 0.466255
0.968368 0.289738 0.461494
0.968215 0.30135 0.454276
0.968688 0.313054 0.446357
0.969253 0.328771 0.433417
0.970626 0.350057 0.418921
0.97116 0.373648 0.398276
0.972122 0.399969 0.376013
0.971771 0.431403 0.348379
0.973465 0.465431 0.317174
0.973495 0.502998 0.276204
0.974136 0.543648 0.230304
0.022446 0.232914 9.15541e-05
0.0237583 0.216464 0.000122072
0.0218967 0.190951 0.000747692
0.0204166 0.166369 0.000167849
0.0196689 0.147036 0.0009308
0.0180667 0.134203 0.000289921
0.0285039 0.128161 6.10361e-05
0.0607004 0.123888 7.62951e-05
0.0977493 0.124056 0
0.146822 0.121874 0.000396735
0.212406 0.12314 0.00602731
0.297612 0.126879 0.0184176
0.407187 0.130877 0.0441749
0.543862 0.135317 0.0831922
0.684504 0.14464 0.136767
0.809781 0.157107 0.20531
0.926543 0.169268 0.296529
0.952255 0.187396 0.386847
0.962219 0.232639 0.42153
0.967895 0.294057 0.45478
0.967681 0.298955 0.455558
0.968154 0.301198 0.454215
0.969207 0.305699 0.449989
0.968521 0.314382 0.444938
0.969467 0.324636 0.437339
0.969833 0.33933 0.425544
0.970703 0.358404 0.410864
0.971405 0.38114 0.39202
0.972396 0.405936 0.370916
0.971542 0.436759 0.343252
0.973663 0.469459 0.313237
0.973342 0.50631 0.272633
0.974227 0.546181 0.227146
0.0236515 0.322835 0.000549325
0.023209 0.285908 0.000244144
0.0238193 0.248249 0.000122072
0.0236973 0.221759 0.00062562
0.0222934 0.199908 0.000259403
0.0215152 0.186191 3.0518e-05
0.0241703 0.176883 3.0518e-05
0.0509041 0.171801 4.57771e-05
0.0907454 0.168246 3.0518e-05
0.138903 0.165789 0.000396735
0.199084 0.166278 4.57771e-05
0.280339 0.168048 0.000259403
0.383642 0.171954 0.0059205
0.508827 0.176455 0.0364538
0.645319 0.185428 0.0889296
0.774411 0.198138 0.148913
0.892531 0.212116 0.231983
0.954177 0.227405 0.329137
0.961227 0.253407 0.387228
0.967056 0.305577 0.42295
0.968338 0.322103 0.437766
0.969192 0.322667 0.43714
0.969162 0.324865 0.436881
0.969314 0.331579 0.432135
0.96994 0.339498 0.425956
0.970459 0.352789 0.415824
0.97084 0.369329 0.401144
0.97171 0.390692 0.38407
0.972519 0.414145 0.363912
0.971313 0.443626 0.33666
0.973907 0.4748 0.308019
0.973129 0.510704 0.267903
0.974319 0.549569 0.222919
0.019089 0.402182 6.10361e-05
0.0210575 0.354696 0.00030518
0.0231479 0.317021 0.000167849
0.0238499 0.289342 0.000167849
0.0240482 0.266255 0.000656138
0.0242924 0.252018 0.000839246
0.0227665 0.242832 0.000244144
0.0354162 0.232349 9.15541e-05
0.0783246 0.228275 0.000198367
0.126543 0.223987 0.000228885
0.190799 0.220295 0
0.268391 0.220401 0
0.362417 0.221149 1.5259e-05
0.477867 0.227054 0.000320439
0.609277 0.235889 0.0294652
0.739193 0.246555 0.0892348
0.85922 0.260975 0.163607
0.954833 0.275975 0.257786
0.961517 0.289891 0.337865
0.968078 0.323461 0.384482
0.970733 0.351553 0.41622
0.970596 0.349401 0.417517
0.969955 0.349416 0.416556
0.970657 0.354009 0.41294
0.970489 0.359014 0.409659
0.970779 0.369985 0.401099
0.971115 0.3841 0.390097
0.971893 0.402945 0.373449
0.972671 0.424659 0.354955
0.971649 0.452308 0.32842
0.97409 0.481865 0.300862
0.972869 0.516503 0.261662
0.974472 0.554055 0.21735
0.0149996 0.476799 9.15541e-05
0.016556 0.432151 3.0518e-05
0.0191348 0.394568 0.00015259
0.0219425 0.365743 0.000213626
0.0223545 0.344671 0.00077821
0.023743 0.329412 0.000167849
0.0232395 0.319158 0.00015259
0.0266117 0.308553 0.000228885
0.0643931 0.30164 0.000335698
0.114031 0.29453 0.000137331
0.176776 0.291981 0.000289921
0.254643 0.286854 0.000244144
0.345434 0.288029 0.000885023
0.456245 0.290303 0.000335698
0.576577 0.297459 0
0.705592 0.305241 0.0178836
0.824094 0.317891 0.0867628
0.932479 0.330556 0.177172
0.961761 0.341588 0.27483
0.966705 0.35697 0.32958
0.971939 0.384253 0.382193
0.971649 0.383108 0.3897
0.971389 0.379767 0.393896
0.97171 0.380545 0.39292
0.971176 0.384573 0.389563
0.971603 0.39176 0.382513
0.971786 0.402762 0.373281
0.97174 0.41857 0.359106
0.973037 0.438361 0.342214
0.972076 0.4636 0.317708
0.973587 0.491249 0.290318
0.972793 0.524041 0.253391
0.974655 0.559991 0.209979
0.0150607 0.540658 0.000274662
0.0157473 0.503548 0.000137331
0.0157473 0.476539 0.000228885
0.016144 0.454826 0.000274662
0.0170748 0.437079 0.000259403
0.0170596 0.423728 0.000122072
0.0168612 0.413367 0.000396735
0.0193637 0.402411 0.000534066
0.0444343 0.391409 0.00047303
0.096025 0.383459 0.000747692
0.159152 0.375509 0.000274662
0.238193 0.369268 0.000503548
0.328252 0.366094 0.000488289
0.434623 0.363912 3.0518e-05
0.552346 0.36759 4.57771e-05
0.671824 0.372641 0.000366217
0.791882 0.380667 0.0121309
0.902968 0.392264 0.0852827
0.962036 0.402701 0.185794
0.966934 0.402945 0.266606
0.970382 0.420951 0.327886
0.972244 0.422385 0.355932
0.972808 0.416815 0.360998
0.973404 0.413657 0.36495
0.972869 0.413779 0.365011
0.972656 0.418631 0.358679
0.972412 0.426642 0.351705
0.972854 0.439414 0.340673
0.973709 0.456092 0.324208
0.972366 0.477974 0.303136
0.972961 0.503319 0.276753
0.973266 0.533944 0.242145
0.974563 0.568032 0.19968
0.0129244 0.605875 0.000488289
0.01355 0.580941 0.000274662
0.0141299 0.561227 1.5259e-05
0.0129854 0.545708 0.000335698
0.013489 0.531029 0.000228885
0.0144503 0.519326 7.62951e-05
0.0151827 0.51075 1.5259e-05
0.0148775 0.501701 9.15541e-05
0.0220645 0.490883 0.000259403
0.0709392 0.480751 0.000106813
0.139452 0.471839 0.000167849
0.222995 0.461952 0.000320439
0.312306 0.453727 0.000259403
0.414816 0.449134 0.00047303
0.527855 0.447654 0.000549325
0.647456 0.448127 0
0.761486 0.455024 0.000457771
0.871229 0.463661 0.00721752
0.960006 0.468116 0.0860151
0.966766 0.46569 0.18085
0.969879 0.466819 0.254673
0.972564 0.467079 0.315328
0.973358 0.457877 0.324407
0.973587 0.452537 0.328298
0.971527 0.450126 0.330022
0.97322 0.45069 0.33196
0.973266 0.455909 0.324971
0.972885 0.464866 0.316182
0.973632 0.477882 0.3028
0.972442 0.496147 0.283772
0.97293 0.518975 0.259342
0.973877 0.54667 0.227695
0.974044 0.578805 0.185534
0.0113222 0.678126 0.000350958
0.0123598 0.661707 0.000854505
0.0124514 0.647501 0.000427253
0.0123293 0.635859 0.000793469
0.0122835 0.625483 0.000747692
0.012314 0.616022 0.000228885
0.012314 0.60885 0.000396735
0.0126497 0.600732 0.000747692
0.0169985 0.590799 0.00015259
0.052369 0.580758 1.5259e-05
0.118364 0.571786 0.000549325
0.201389 0.559701 0.000610361
0.292363 0.550469 6.10361e-05
0.395468 0.540825 0.000259403
0.505058 0.537148 0.000106813
0.6206 0.534234 3.0518e-05
0.736446 0.535683 9.15541e-05
0.841505 0.541085 0
0.936278 0.543069 0.0019379
0.965393 0.540612 0.0737621
0.96875 0.526955 0.161746
0.972427 0.519097 0.245487
0.972915 0.50576 0.273823
0.974121 0.49781 0.2813
0.972763 0.491981 0.288624
0.973236 0.489326 0.291737
0.972824 0.491356 0.290639
0.972595 0.495674 0.285298
0.973434 0.504921 0.27512
0.973327 0.520088 0.258839
0.973541 0.538781 0.237461
0.973709 0.562951 0.206882
0.973388 0.592615 0.167437
0.007187 0.753689 0
0.00758373 0.742519 4.57771e-05
0.00851453 0.733074 0.000122072
0.00874342 0.725216 0.000350958
0.00888075 0.718486 0.000579843
0.00924697 0.711192 0.000549325
0.00958267 0.704829 0.000503548
0.00947585 0.698222 0.000381476
0.00946059 0.690486 0.000228885
0.0274357 0.679469 9.15541e-05
0.0888838 0.671473 7.62951e-05
0.173877 0.662409 3.0518e-05
0.268467 0.65214 0.000427253
0.3729 0.641703 7.62951e-05
0.482979 0.634134 6.10361e-05
0.598047 0.628 0.000335698
0.710399 0.622812 4.57771e-05
0.814847 0.623011 0
0.909194 0.621775 0
0.963302 0.619181 0
0.967956 0.599405 0.0485695
0.971923 0.580407 0.145754
0.972839 0.560754 0.210773
0.97438 0.549996 0.224979
0.97406 0.539925 0.235172
0.974075 0.53402 0.24213
0.973144 0.531655 0.24622
0.972717 0.532158 0.244144
0.97406 0.538033 0.236255
0.973999 0.548409 0.225177
0.973404 0.563806 0.206409
0.972869 0.583429 0.179217
0.972137 0.6103 0.142046
0.00433356 0.825422 0.000106813
0.00437934 0.819821 0.00047303
0.0043946 0.814633 0.000839246
0.00537118 0.808606 0.000518807
0.00630198 0.803113 0.000198367
0.00679026 0.798108 9.15541e-05
0.00654612 0.793652 0.000335698
0.0062562 0.788479 0.000656138
0.00933852 0.781918 0.000488289
0.0150607 0.773648 6.10361e-05
0.0675364 0.766369 6.10361e-05
0.146166 0.759182 3.0518e-05
0.243427 0.751049 7.62951e-05
0.344945 0.740826 0.00030518
0.457404 0.731868 0.000656138
0.571618 0.723369 0.000289921
0.685374 0.713451 0
0.789197 0.705318 0
0.883635 0.703883 0.00047303
0.953597 0.701625 0
0.963821 0.684504 4.57771e-05
0.968261 0.656977 0.0244144
0.971679 0.624292 0.120195
0.97232 0.60795 0.145556
0.972824 0.596292 0.164782
0.972061 0.585458 0.177874
0.972778 0.579461 0.185565
0.972885 0.576516 0.190555
0.973281 0.577813 0.189105
0.973129 0.584176 0.180926
0.972747 0.594873 0.165423
0.971725 0.61117 0.142779
0.970397 0.632486 0.109178
0.000427253 0.88986 6.10361e-05
0.000579843 0.886137 7.62951e-05
0.000732433 0.882277 7.62951e-05
0.000839246 0.879042 0.00030518
0.0009308 0.876005 0.000534066
0.00103761 0.87303 0.000747692
0.00129702 0.869657 0.000747692
0.00173953 0.865568 0.000534066
0.00231937 0.860197 0.000228885
0.0120851 0.854414 0.000289921
0.0284581 0.847684 0.000595102
0.115938 0.843687 0.000137331
0.211597 0.837156 0.00030518
0.318013 0.828016 0.000442512
0.427863 0.820554 3.0518e-05
0.542275 0.810834 3.0518e-05
0.656184 0.799741 3.0518e-05
0.759289 0.787579 0.000167849
0.855894 0.775799 1.5259e-05
0.944244 0.767422 6.10361e-05
0.960388 0.758846 0
0.963058 0.737392 0.000122072
0.967819 0.696788 0.0156863
0.970214 0.672572 0.0504616
0.97081 0.657404 0.0717327
0.970962 0.644572 0.0937209
0.971695 0.634806 0.109087
0.972045 0.62742 0.118242
0.971817 0.625055 0.123674
0.971588 0.626444 0.120806
0.971618 0.632151 0.111803
0.970718 0.643458 0.095201
0.970382 0.661311 0.0666667
1.5259e-05 0.9505 0.000488289
3.0518e-05 0.947799 0.000228885
3.0518e-05 0.945113 0
3.0518e-05 0.942626 0
3.0518e-05 0.940078 0
3.0518e-05 0.93756 0
3.0518e-05 0.935103 0
0.000915541 0.932509 0
0.00296025 0.929061 0
0.0056611 0.924468 0
0.0366064 0.920241 0.000335698
0.0875563 0.915785 0.000915541
0.180331 0.910826 0.000488289
0.283726 0.903166 0.000122072
0.397391 0.892378 0.000320439
0.510933 0.881498 0.000442512
0.624994 0.866789 4.57771e-05
0.733364 0.854383 0
0.828855 0.840894 7.62951e-05
0.916899 0.830549 0
0.959289 0.821363 1.5259e-05
0.961013 0.799817 6.10361e-05
0.963439 0.770321 1.5259e-05
0.966781 0.740505 0.000289921
0.966537 0.72311 0.000808728
0.968643 0.707424 0.010132
0.968277 0.693812 0.01355
0.969131 0.684123 0.0332189
0.97081 0.677485 0.04065
0.96994 0.674189 0.0456245
0.969863 0.675441 0.0442054
0.969375 0.681971 0.0339513
0.968261 0.694499 0.0186313
1.5259e-05 0.99649 0.000335698
1.5259e-05 0.996292 0.000335698
1.5259e-05 0.995972 0.000335698
1.5259e-05 0.994369 0.000274662
1.5259e-05 0.992767 0.000228885
1.5259e-05 0.991257 0.000167849
0 0.989654 0.000122072
0 0.987945 4.57771e-05
0.00129702 0.985626 0
0.00544747 0.982834 0
0.0102541 0.979492 0
0.0600443 0.975158 0.000213626
0.148135 0.969696 0.000610361
0.251926 0.961257 0.000335698
0.363348 0.951873 0.000167849
0.47863 0.941299 3.0518e-05
0.594614 0.930037 0
0.702007 0.915068 0
0.801068 0.901625 1.5259e-05
0.889326 0.889784 0.00015259
0.95761 0.877928 0
0.958968 0.858061 0
0.959655 0.827039 3.0518e-05
0.961028 0.79733 0
0.963928 0.785199 0.000411994
0.964172 0.771328 0.000106813
0.966232 0.760067 6.10361e-05
0.967193 0.746883 0.000122072
0.966369 0.736553 0.000122072
0.96672 0.729046 0.00128176
0.967819 0.725277 0
0.96759 0.727123 0.000610361
0.965881 0.734859 0.000808728
0 1 0.000289921
0 1 0.000289921
9.15541e-05 1 0.000289921
0.000335698 1 0.000289921
0.000549325 1 0.000289921
0.00077821 1 0.000274662
0.000961318 1 0.000274662
0.00122072 1 0.000274662
0.00155642 1 0.000274662
0.0105745 0.999969 0.00030518
0.0312963 0.999893 0.000396735
0.0583352 0.999802 0.000488289
0.127092 0.999222 0.000335698
0.228794 0.998337 0
0.336538 0.997757 0.00030518
0.447822 0.996292 0.000106813
0.563516 0.984985 0.000686656
0.676387 0.96965 0
0.772763 0.957412 0
0.860655 0.943236 0
0.937102 0.926863 0.00015259
0.957366 0.907607 0
0.958862 0.881392 0.000457771
0.959197 0.848829 1.5259e-05
0.959136 0.828031 0
0.960876 0.815793 0.000213626
0.960571 0.804944 6.10361e-05
0.962036 0.795727 0.000244144
0.961379 0.788403 0
0.963149 0.781842 9.15541e-05
0.963455 0.776776 9.15541e-05
0.964294 0.773465 0.000213626
0.964294 0.777813 0
0 1 0.000289921
0 1 0.000289921
0.000427253 1 0.000289921
0.000839246 1 0.000289921
0.00129702 0.999985 0.000274662
0.00170901 0.999985 0.000274662
0.00215152 0.999985 0.000274662
0.00267033 0.999985 0.000274662
0.00334173 0.999969 0.000274662
0.00424201 0.999969 0.000274662
0.0244602 0.999939 0.000411994
0.066743 0.999863 0.000717174
0.120409 0.999771 0.00111391
0.201251 0.999481 0.000732433
0.304875 0.9991 0
0.410361 0.999268 1.5259e-05
0.522683 0.999786 0
0.633692 0.999344 0
0.736767 0.999512 0.000274662
0.823026 0.985733 0.00062562
0.904097 0.968811 0
0.954696 0.95137 1.5259e-05
0.955444 0.929961 4.57771e-05
0.95639 0.901518 1.5259e-05
0.957214 0.874266 0.000167849
0.958404 0.86244 0
0.95903 0.851179 0.000106813
0.958938 0.839658 0
0.959365 0.82948 1.5259e-05
0.960281 0.820661 0.000244144
0.960327 0.813321 0.000198367
0.961074 0.808942 0
0.960281 0.80618 4.57771e-05
0.000274662 0.999985 0.000274662
0.00421149 0.999969 0.000274662
0.00993362 0.999954 0.000274662
0.0150759 0.999924 0.000274662
0.0205081 0.999908 0.000274662
0.0256352 0.999878 0.000274662
0.0310674 0.999863 0.000274662
0.0374151 0.999832 0.000274662
0.0455787 0.999802 0.000259403
0.0567025 0.999756 0.000259403
0.0714275 0.99968 0.000259403
0.105653 0.999725 0.000320439
0.157229 0.999832 0.000442512
0.223819 0.999969 0.000595102
0.300038 0.999908 0.000503548
0.390768 0.999771 0.00030518
0.486915 0.999664 4.57771e-05
0.588632 0.999588 0.000335698
0.690791 0.999512 0.000167849
0.781323 0.999527 3.0518e-05
0.862745 0.999344 0.000183108
0.938888 0.989685 1.5259e-05
0.954986 0.97081 3.0518e-05
0.955428 0.945571 0
0.956573 0.916396 0
0.956329 0.903258 0
0.956725 0.892866 1.5259e-05
0.95787 0.882368 0.00015259
0.95816 0.872755 0.000137331
0.95761 0.863401 6.10361e-05
0.958694 0.855055 0.000228885
0.958175 0.847639 0
0.958968 0.843107 0.000213626
0.0213931 0.999741 0.000747692
0.0298924 0.999756 0.00077821
0.0390478 0.999771 0.000823987
0.0475471 0.999786 0.000854505
0.0560464 0.999802 0.000885023
0.0643778 0.999817 0.000915541
0.0728618 0.999817 0.000946059
0.083299 0.999847 0.000976577
0.0970016 0.999863 0.00102235
0.115267 0.999893 0.00109865
0.140063 0.999939 0.00117494
0.17203 0.999985 0.00129702
0.210224 0.999847 0.00111391
0.257725 0.999619 0.00077821
0.319066 0.999313 0.000350958
0.387991 0.999298 0.000167849
0.469963 0.999374 1.5259e-05
0.558633 0.99971 0
0.649882 0.999954 0.000564584
0.740978 0.999985 0.000854505
0.822614 0.999969 6.10361e-05
0.897169 0.999756 0.000366217
0.949935 0.99939 4.57771e-05
0.954772 0.985336 9.15541e-05
0.954955 0.960021 1.5259e-05
0.955215 0.941634 9.15541e-05
0.956924 0.931304 0.000122072
0.955886 0.922148 0.000137331
0.957214 0.911757 0
0.957061 0.90219 0.000122072
0.956847 0.894652 0.000137331
0.957595 0.8869 0
0.957321 0.88072 0.000198367
0.131426 0.999969 7.62951e-05
0.137316 0.999969 7.62951e-05
0.143221 0.999969 7.62951e-05
0.149111 0.999969 7.62951e-05
0.155001 0.999969 7.62951e-05
0.160311 0.999969 7.62951e-05
0.166201 0.999969 7.62951e-05
0.173281 0.999969 6.10361e-05
0.182712 0.999954 6.10361e-05
0.195087 0.999954 6.10361e-05
0.212177 0.999954 6.10361e-05
0.234577 0.999954 4.57771e-05
0.263462 0.999939 4.57771e-05
0.297612 0.999954 3.0518e-05
0.342184 0.999954 1.5259e-05
0.398199 0.999969 0
0.460777 0.999756 1.5259e-05
0.535607 0.999481 3.0518e-05
0.620691 0.999191 0
0.703044 0.999695 0
0.782269 0.999954 0.000457771
0.857343 0.999252 1.5259e-05
0.924315 0.999695 0.000320439
0.950454 0.999954 9.15541e-05
0.953201 0.99498 0
0.954665 0.977737 4.57771e-05
0.95404 0.96846 0.000122072
0.955169 0.958816 0.00015259
0.954955 0.948928 0.000167849
0.955322 0.94049 0.000137331
0.956298 0.93167 0.000106813
0.956573 0.92221 0.00015259
0.956863 0.915663 0.000228885
0.22295 0.999741 0.000183108
0.226871 0.999741 0.000198367
0.231357 0.999741 0.000228885
0.235279 0.999741 0.000259403
0.2392 0.999756 0.000274662
0.243687 0.999756 0.00030518
0.247608 0.999756 0.000335698
0.252644 0.999756 0.000366217
0.259373 0.999771 0.000396735
0.268345 0.999771 0.000457771
0.28011 0.999786 0.000534066
0.295811 0.999802 0.00062562
0.317113 0.999817 0.000747692
0.343847 0.999832 0.000885023
0.375158 0.999802 0.000656138
0.415274 0.999756 0.000366217
