Luts/Fujifilm/FLog2C_to_WDR_VLog.cube
TITLE "Generated by Resolve"
LUT_3D_SIZE 33
0 0 0
0 0 0
0 0 0
0 0 0
0 0 0
0.0113832 0.00135805 0.00135805
0.0455482 0.00544747 0.00544747
0.0865187 0.0103456 0.0103456
0.129946 0.0155489 0.0155489
0.174228 0.0208438 0.0208438
0.223499 0.0267491 0.0267491
0.275776 0.03299 0.03299
0.335317 0.0397803 0.0397803
0.404227 0.0456703 0.0456703
0.485832 0.0516365 0.0516365
0.571618 0.0569009 0.0569009
0.653132 0.0610361 0.0610361
0.730312 0.06421 0.06421
0.802319 0.0665599 0.0665599
0.841443 0.0675975 0.0675975
0.84152 0.0675975 0.0675975
0.84152 0.0675975 0.0675975
0.84152 0.0675975 0.0675975
0.84152 0.0675975 0.0675975
0.84152 0.0675975 0.0675975
0.84152 0.0675975 0.0675975
0.842878 0.0709392 0.0677653
0.895003 0.215473 0.0697642
0.936233 0.355001 0.0621958
0.972076 0.458076 0.0356756
0.997635 0.549706 0.00367742
1 0.631968 0
1 0.703182 0
0 0 0
0 0 0
0 0 0
0 0 0
0 0 0
0.0176394 0.00210575 0.00210575
0.0520027 0.00622568 0.00622568
0.0921798 0.0110323 0.0110323
0.133852 0.016022 0.016022
0.177295 0.02121 0.02121
0.226108 0.0270542 0.0270542
0.277638 0.0332189 0.0332189
0.3364 0.0399023 0.0399023
0.406073 0.0458228 0.0458228
0.487327 0.0517281 0.0517281
0.57261 0.0569619 0.0569619
0.65391 0.0610819 0.0610819
0.730739 0.0642252 0.0642252
0.802594 0.0665599 0.0665599
0.841474 0.0675975 0.0675975
0.84152 0.0675975 0.0675975
0.84152 0.0675975 0.0675975
0.84152 0.0675975 0.0675975
0.84152 0.0675975 0.0675975
0.84152 0.0675975 0.0675975
0.84152 0.0675975 0.0675975
0.843931 0.0735332 0.0679026
0.900328 0.231983 0.0694896
0.938415 0.362737 0.061387
0.973587 0.462562 0.0342718
0.998367 0.552651 0.00259403
1 0.63389 0
1 0.704402 0
0 0 0
0 0 0
0 0 0
0 0 0
0 0 0
0.0240482 0.00288396 0.00288396
0.0581369 0.00695811 0.00695811
0.0973373 0.0116426 0.0116426
0.137697 0.0164797 0.0164797
0.180194 0.021561 0.021561
0.228504 0.0273442 0.0273442
0.278264 0.0332952 0.0332952
0.337972 0.0400702 0.0400702
0.407492 0.0459449 0.0459449
0.488655 0.0518196 0.0518196
0.573754 0.057023 0.057023
0.654673 0.0611124 0.0611124
0.731182 0.0642405 0.0642405
0.801266 0.0665293 0.0665293
0.84152 0.0675975 0.0675975
0.84152 0.0675975 0.0675975
0.84152 0.0675975 0.0675975
0.84152 0.0675975 0.0675975
0.84152 0.0675975 0.0675975
0.84152 0.0675975 0.0675975
0.84152 0.0675975 0.0675975
0.844938 0.0760052 0.06804
0.90544 0.247822 0.0692149
0.940612 0.370459 0.0605936
0.975158 0.467231 0.0328069
0.999023 0.555581 0.00161746
1 0.635706 0
1 0.705623 0
0 0 0
0 0 0
0 0 0
0 0 0
0 0 0
0.0267033 0.00318914 0.00318914
0.0633555 0.00758373 0.00758373
0.102312 0.0122377 0.0122377
0.141649 0.0169528 0.0169528
0.181598 0.0217288 0.0217288
0.229496 0.0274662 0.0274662
0.280125 0.0335241 0.0335241
0.33991 0.0402686 0.0402686
0.409201 0.0460822 0.0460822
0.489815 0.0519112 0.0519112
0.575235 0.0571145 0.0571145
0.654429 0.0610971 0.0610971
0.729259 0.0641794 0.0641794
0.79881 0.066453 0.066453
0.84152 0.0675975 0.0675975
0.84152 0.0675975 0.0675975
0.84152 0.0675975 0.0675975
0.84152 0.0675975 0.0675975
0.84152 0.0675975 0.0675975
0.84152 0.0675975 0.0675975
0.84152 0.0675975 0.0675975
0.846983 0.0813153 0.0682078
0.910216 0.262928 0.0688792
0.94284 0.3776 0.0594949
0.976471 0.471519 0.0313878
0.9991 0.558434 0.00149538
1 0.637507 0
1 0.706844 0
0 0 0
0 0 0
0 0 0
0 0 0
0.00175479 0.000213626 0.000213626
0.0353094 0.00422675 0.00422675
0.0699321 0.00839246 0.0083772
0.106691 0.0127718 0.0127718
0.145342 0.0173953 0.0173953
0.186007 0.0222629 0.0222629
0.232029 0.0277562 0.0277562
0.282124 0.033753 0.033753
0.340169 0.0403296 0.0403296
0.408835 0.0460517 0.0460517
0.48893 0.0518502 0.0518502
0.572625 0.0569772 0.0569772
0.651835 0.0609903 0.0609903
0.72665 0.0640879 0.0640879
0.796353 0.066392 0.066392
0.84152 0.0675975 0.0675975
0.84152 0.0675975 0.0675975
0.84152 0.0675975 0.0675975
0.84152 0.0675975 0.0675975
0.84152 0.0675975 0.0675975
0.84152 0.0675975 0.0675975
0.84152 0.0675975 0.0675975
0.856458 0.107057 0.0687266
0.913344 0.274189 0.0682994
0.945281 0.383978 0.0576791
0.97763 0.475517 0.0300145
0.999161 0.561135 0.00138857
1 0.639445 0
1 0.708064 0
0.00515755 0.024506 0.00515755
0.00527962 0.0250553 0.00527962
0.00515755 0.0244602 0.00515755
0.00503548 0.0239414 0.00503548
0.00503548 0.0239109 0.00503548
0.0268711 0.0236667 0.0071107
0.0599832 0.0243992 0.0104524
0.100069 0.0234989 0.0141604
0.138827 0.0226749 0.0177615
0.180209 0.0231174 0.0218509
0.227359 0.0272068 0.0272068
0.277958 0.0332647 0.0332647
0.336431 0.0399939 0.0399939
0.405753 0.0458076 0.0458076
0.486183 0.051667 0.051667
0.569741 0.0568093 0.0568093
0.649409 0.0608835 0.0608835
0.723995 0.0639811 0.0639811
0.793774 0.0663157 0.0663157
0.84152 0.0675975 0.0675975
0.84152 0.0675975 0.0675975
0.84152 0.0675975 0.0675975
0.84152 0.0675975 0.0675975
0.84152 0.0675975 0.0675975
0.84152 0.0675975 0.0675975
0.84152 0.0675975 0.0675975
0.865782 0.132326 0.0692302
0.916411 0.285191 0.0677195
0.947646 0.390143 0.0559396
0.978836 0.479683 0.0285801
0.999237 0.564004 0.00128176
1 0.641245 0
1 0.709163 0
0.0109102 0.0517739 0.0109102
0.0110781 0.0526131 0.0110781
0.0112459 0.0534066 0.0112459
0.0111543 0.0529488 0.0111543
0.0110475 0.05243 0.0110475
0.0190433 0.0505074 0.0114595
0.0506447 0.0510567 0.0146181
0.0935988 0.0515297 0.0188754
0.135729 0.0504463 0.0227512
0.177111 0.0469215 0.0260777
0.224201 0.0412604 0.029572
0.274296 0.0361639 0.0334478
0.332586 0.0396429 0.0396429
0.402319 0.0455329 0.0455329
0.482948 0.0514534 0.0514534
0.566918 0.0566567 0.0566567
0.646387 0.0607462 0.0607462
0.721416 0.0638895 0.0638895
0.791363 0.0662394 0.0662394
0.84152 0.0675975 0.0675975
0.84152 0.0675975 0.0675975
0.84152 0.0675975 0.0675975
0.84152 0.0675975 0.0675975
0.84152 0.0675975 0.0675975
0.84152 0.0675975 0.0675975
0.84152 0.0675975 0.0675975
0.874922 0.157137 0.0697337
0.919463 0.296178 0.0671397
0.950011 0.396323 0.0541848
0.979995 0.48368 0.0272221
0.999298 0.566705 0.00117494
1 0.643046 0
1 0.710384 0
0.0181582 0.0861982 0.0181582
0.0183261 0.0870069 0.0183261
0.0184939 0.0878004 0.0184939
0.0186465 0.0885023 0.0186465
0.0185397 0.088014 0.0185397
0.0191196 0.0845655 0.0179446
0.0411231 0.083238 0.0198215
0.0838941 0.0842145 0.0241398
0.131044 0.0837873 0.0286412
0.175601 0.0817578 0.0325628
0.224186 0.0753643 0.0360418
0.275013 0.0670024 0.0391241
0.331518 0.0534371 0.0415808
0.397742 0.0451667 0.0451667
0.47921 0.051194 0.051194
0.563622 0.0564736 0.0564736
0.643183 0.0605936 0.0605936
0.71812 0.0637675 0.0637675
0.78819 0.0661479 0.0661479
0.84152 0.0675975 0.0675975
0.84152 0.0675975 0.0675975
0.84152 0.0675975 0.0675975
0.84152 0.0675975 0.0675975
0.84152 0.0675975 0.0675975
0.84152 0.0675975 0.0675975
0.84509 0.0766155 0.0679789
0.88574 0.186496 0.0703288
0.92311 0.309285 0.066453
0.952834 0.403662 0.0521096
0.981399 0.488548 0.0255436
0.999374 0.570031 0.00103761
1 0.645121 0
1 0.711849 0
0.0260166 0.123537 0.0260166
0.0261234 0.124071 0.0261234
0.0262455 0.12459 0.0262455
0.0263676 0.125185 0.0263676
0.0260624 0.123751 0.0260624
0.0255589 0.121324 0.0255589
0.0289616 0.118853 0.0254215
0.0699626 0.119921 0.0295872
0.122362 0.121904 0.0350347
0.17232 0.121691 0.0396429
0.225559 0.118257 0.0431373
0.279377 0.109987 0.0457618
0.338567 0.0972763 0.0480201
0.402533 0.0770581 0.0495613
0.475731 0.0558175 0.0515297
0.558572 0.0561685 0.0561685
0.638254 0.0603494 0.0603494
0.713497 0.0635843 0.0635843
0.78378 0.0660105 0.0660105
0.84152 0.0675975 0.0675975
0.84152 0.0675975 0.0675975
0.84152 0.0675975 0.0675975
0.84152 0.0675975 0.0675975
0.84152 0.0675975 0.0675975
0.84152 0.0675975 0.0675975
0.853117 0.09691 0.0688334
0.895354 0.215808 0.0699626
0.927901 0.326452 0.0655528
0.956573 0.413428 0.0493477
0.983261 0.494987 0.0233463
0.999481 0.574487 0.000854505
1 0.648173 0
1 0.713787 0
0.0348974 0.165682 0.0348974
0.0350042 0.166201 0.0350042
0.0350958 0.166644 0.0350958
0.0351415 0.166888 0.0351415
0.0347295 0.16492 0.0347295
0.0342412 0.162554 0.0342412
0.0340581 0.160113 0.033753
0.0464027 0.159182 0.0347753
0.103624 0.162722 0.0405585
0.16347 0.165225 0.0452735
0.220462 0.164553 0.0489509
0.279286 0.160708 0.052079
0.343359 0.151751 0.0547036
0.411566 0.136355 0.056672
0.485939 0.108919 0.0576486
0.559091 0.0762951 0.0581216
0.632059 0.0600595 0.0600595
0.707469 0.0633555 0.0633555
0.778027 0.0658274 0.0658274
0.840665 0.0675822 0.0675822
0.84152 0.0675975 0.0675975
0.84152 0.0675975 0.0675975
0.84152 0.0675975 0.0675975
0.84152 0.0675975 0.0675975
0.84152 0.0675975 0.0675975
0.864927 0.128069 0.0697185
0.905913 0.249882 0.0690318
0.933669 0.345281 0.0630961
0.961471 0.426169 0.0457313
0.985733 0.503502 0.0204166
0.999619 0.580362 0.00062562
1 0.652049 0
1 0.71635 0
0.0431067 0.210971 0.0431067
0.0430915 0.21088 0.0430915
0.043122 0.211063 0.043122
0.0429999 0.21033 0.0429999
0.0427405 0.208606 0.0427405
0.0424506 0.206683 0.0424506
0.0421759 0.205005 0.0421759
0.0432746 0.202853 0.0419623
0.0721447 0.203784 0.0441749
0.143389 0.208087 0.0494698
0.209827 0.21033 0.0536965
0.274189 0.208637 0.0569314
0.342702 0.204303 0.0597696
0.416266 0.194369 0.0620432
0.496788 0.176883 0.0637369
0.57438 0.149569 0.0644999
0.643687 0.116274 0.0645609
0.707195 0.0838941 0.0647135
0.772229 0.0710918 0.0659342
0.833219 0.0673991 0.0673991
0.84152 0.0675975 0.0675975
0.84152 0.0675975 0.0675975
0.84152 0.0675975 0.0675975
0.845533 0.0775464 0.0680858
0.860136 0.116182 0.0691539
0.889143 0.197436 0.0700389
0.9178 0.289647 0.0675975
0.940978 0.368734 0.0596933
0.966506 0.441352 0.04094
0.988846 0.514397 0.0166629
0.999817 0.588144 0.00030518
1 0.657176 0
1 0.719768 0
0.05037 0.262928 0.05037
0.0504158 0.263249 0.0504158
0.0504005 0.263157 0.0504005
0.0502174 0.261677 0.0502174
0.0500191 0.260197 0.0500191
0.049836 0.258747 0.049836
0.0496376 0.257252 0.0496376
0.0494087 0.255451 0.0494087
0.0518807 0.252964 0.0492561
0.101518 0.255879 0.0525978
0.185306 0.261128 0.0576181
0.260441 0.262379 0.0611429
0.335241 0.260655 0.0638743
0.41416 0.254566 0.0660105
0.499992 0.243107 0.0676432
0.583337 0.226123 0.0686656
0.659724 0.204852 0.0691997
0.728939 0.179812 0.0694285
0.791684 0.15256 0.0695354
0.846326 0.126406 0.0695659
0.859129 0.11313 0.0691844
0.854841 0.101488 0.0689555
0.861875 0.119921 0.0695201
0.8701 0.143465 0.0696269
0.889067 0.197162 0.0700542
0.90985 0.262882 0.0686046
0.92903 0.331258 0.0651408
0.950317 0.39675 0.0541543
0.972915 0.460746 0.0347906
0.992187 0.52781 0.0117342
1 0.598154 0
1 0.663966 0
1 0.724285 0
0.0572213 0.322377 0.0572213
0.0572061 0.322286 0.0572061
0.0570535 0.320699 0.0570535
0.0569162 0.319432 0.0569162
0.0567941 0.318288 0.0567941
0.0566567 0.316884 0.0566567
0.0565347 0.315709 0.0565347
0.0563668 0.314153 0.0563668
0.0561685 0.311894 0.0561227
0.0633402 0.309621 0.0562753
0.13431 0.314549 0.06009
0.231586 0.319677 0.064271
0.317464 0.320775 0.0669261
0.403754 0.317556 0.0686809
0.49575 0.309957 0.0698405
0.583581 0.298375 0.0703899
0.664652 0.284321 0.0705272
0.739193 0.26833 0.0704509
0.80795 0.252567 0.0702373
0.870909 0.237446 0.0699931
0.899138 0.227008 0.0699016
0.897398 0.222187 0.0698405
0.900206 0.230304 0.0698558
0.90573 0.24889 0.0691539
0.915557 0.282353 0.0678264
0.927596 0.32607 0.0654307
0.943374 0.375692 0.0582132
0.962173 0.428641 0.0448768
0.98024 0.484382 0.0270085
0.99649 0.545129 0.00535592
1 0.610376 0
1 0.672511 0
1 0.730266 0
0.0631571 0.389441 0.0631571
0.0630655 0.388235 0.0630655
0.0629892 0.387259 0.0629892
0.0628824 0.385931 0.0628824
0.0627909 0.38471 0.0627909
0.0626993 0.383505 0.0626993
0.0626383 0.382574 0.0626383
0.0625162 0.381186 0.0625162
0.0623636 0.379232 0.0623636
0.0621805 0.376761 0.0621805
0.0771344 0.375143 0.0626383
0.172595 0.381857 0.0661784
0.282826 0.386679 0.068925
0.382193 0.386664 0.0702068
0.481712 0.382193 0.0705577
0.574334 0.374395 0.0703136
0.659663 0.364492 0.0696574
0.738064 0.353918 0.0687572
0.810605 0.342748 0.0677043
0.877317 0.333043 0.0665293
0.927764 0.326223 0.065507
0.927016 0.322728 0.0655985
0.927733 0.326543 0.0654002
0.931517 0.338994 0.0643015
0.937011 0.358465 0.0620737
0.946883 0.38703 0.056199
0.960021 0.422995 0.0464942
0.974319 0.465263 0.0333104
0.988296 0.512657 0.0172427
0.999283 0.566384 0.0011902
1 0.626001 0
1 0.683223 0
1 0.73785 0
0.0676585 0.464332 0.0676585
0.0676127 0.46334 0.0676127
0.0675669 0.462287 0.0675669
0.0675059 0.461189 0.0675059
0.0674754 0.46041 0.0674754
0.0674296 0.459419 0.0674296
0.0673838 0.458488 0.0673838
0.0673381 0.457374 0.0673381
0.0672465 0.455604 0.0672465
0.0671397 0.453391 0.0671397
0.0670024 0.450538 0.0670024
0.0933242 0.449607 0.0675822
0.215625 0.457572 0.0698405
0.342046 0.461799 0.0705119
0.453727 0.460716 0.0698711
0.552956 0.455528 0.068513
0.642939 0.448569 0.0668345
0.725628 0.440085 0.0648814
0.802441 0.43151 0.0619821
0.874342 0.4224 0.0571756
0.939178 0.415229 0.0511025
0.955657 0.410727 0.0501717
0.955795 0.411002 0.0501259
0.95761 0.416327 0.0484627
0.962112 0.42826 0.0450446
0.96849 0.44715 0.0391546
0.976867 0.473472 0.0306096
0.986496 0.506493 0.0193332
0.996338 0.545129 0.00555428
0.999908 0.592279 0.00015259
1 0.644846 0
1 0.696925 0
1 0.747311 0
0.0700542 0.538567 0.0700542
0.0700389 0.537697 0.0700389
0.0700236 0.536919 0.0700236
0.0700084 0.535927 0.0700084
0.0699779 0.534951 0.0699779
0.0699626 0.534081 0.0699626
0.0699474 0.533227 0.0699474
0.0699321 0.532174 0.0699321
0.0699016 0.530694 0.0699016
0.0698558 0.52874 0.0698558
0.0697948 0.526055 0.0697948
0.0697185 0.522469 0.0697185
0.120623 0.523033 0.0700847
0.286854 0.53315 0.0700236
0.415274 0.534905 0.0681315
0.52253 0.532326 0.0656291
0.617853 0.527001 0.0622416
0.706416 0.520516 0.0543984
0.789288 0.512291 0.0460975
0.866178 0.503807 0.0380102
0.937133 0.495903 0.0300603
0.981735 0.489662 0.0251774
0.981231 0.487633 0.0259251
0.981689 0.489174 0.0254063
0.983429 0.495537 0.0231632
0.987137 0.5084 0.0187381
0.99202 0.527001 0.0120546
0.996933 0.551904 0.0047303
0.999924 0.582818 0.000137331
1 0.622126 0
1 0.66743 0
1 0.71342 0
1 0.759411 0
0.0704967 0.608331 0.0704967
0.0705119 0.607294 0.0705119
0.0705119 0.606561 0.0705119
0.0705119 0.605768 0.0705119
0.0705272 0.605081 0.0705272
0.0705272 0.604166 0.0705272
0.0705272 0.603464 0.0705272
0.0705272 0.602441 0.0705272
0.0705425 0.601007 0.0705425
0.0705425 0.599115 0.0705425
0.0705425 0.596689 0.0705425
0.0705577 0.593362 0.0705577
0.0740368 0.589288 0.070573
0.21622 0.597879 0.0693217
0.370245 0.603677 0.065919
0.485542 0.603204 0.0607919
0.587472 0.600702 0.0497139
0.680323 0.595102 0.0389715
0.766979 0.5879 0.0285954
0.847288 0.57995 0.018677
0.921386 0.57203 0.009308
0.984161 0.565087 0.00341802
0.997787 0.560906 0.00350958
0.998718 0.559808 0.00196841
0.999176 0.562417 0.00137331
0.998703 0.570321 0.00209049
1 0.582925 0
1 0.601099 0
1 0.624582 0
1 0.65565 0
1 0.693538 0
1 0.733425 0
1 0.773953 0
0.0694438 0.673198 0.0694438
0.0694591 0.672389 0.0694591
0.0694743 0.671748 0.0694743
0.0695048 0.670893 0.0695048
0.0695201 0.670207 0.0695201
0.0695354 0.669429 0.0695354
0.0695659 0.668589 0.0695659
0.0695811 0.66772 0.0695811
0.0696117 0.666468 0.0696117
0.0696574 0.664805 0.0696574
0.0697185 0.662348 0.0697185
0.0697948 0.659236 0.0697948
0.0698863 0.654932 0.0698863
0.143786 0.657481 0.0687419
0.321218 0.667247 0.0625467
0.44448 0.670695 0.0503395
0.550774 0.669703 0.0365911
0.64799 0.665522 0.0235752
0.737545 0.659281 0.0112764
0.820294 0.651728 0.00134279
0.893614 0.643839 0
0.958984 0.636957 0
0.999115 0.631785 0
1 0.628687 0
1 0.628901 0
1 0.63241 0
1 0.639826 0
1 0.651942 0
1 0.668559 0
1 0.692226 0
1 0.722942 0
1 0.75642 0
1 0.791653 0
0.0672618 0.732738 0.0672618
0.0672923 0.732113 0.0672923
0.0673228 0.73138 0.0673228
0.0673686 0.730602 0.0673686
0.0673838 0.729946 0.0673838
0.0674296 0.729229 0.0674296
0.0674601 0.72845 0.0674601
0.0675059 0.727535 0.0675059
0.0675517 0.726421 0.0675517
0.0676127 0.724804 0.0676127
0.0677195 0.722667 0.0677195
0.0678416 0.719585 0.0678416
0.0680095 0.715709 0.0680095
0.107073 0.715175 0.0671092
0.273854 0.726955 0.0570535
0.403357 0.73341 0.0396277
0.512627 0.734112 0.0236515
0.611627 0.73109 0.00875868
0.703517 0.725002 6.10361e-05
0.785489 0.717281 0
0.860121 0.709728 0
0.927047 0.702846 0
0.984314 0.697017 0
1 0.692943 0
1 0.690944 0
1 0.691646 0
1 0.695125 0
1 0.702266 0
1 0.713466 0
1 0.731121 0
1 0.755261 0
1 0.782376 0
1 0.811887 0
0.0643473 0.786618 0.0643473
0.0643778 0.785946 0.0643778
0.0644236 0.785275 0.0644236
0.0644694 0.784634 0.0644694
0.0645151 0.783902 0.0645151
0.0645457 0.7832 0.0645457
0.0645914 0.782498 0.0645914
0.0646372 0.78172 0.0646372
0.0647135 0.780514 0.0647135
0.0648203 0.778912 0.0648203
0.0649424 0.776898 0.0649424
0.0650797 0.77438 0.0650797
0.0652781 0.770977 0.0652781
0.0883803 0.769512 0.0644694
0.228397 0.782483 0.0485695
0.369116 0.792203 0.0281224
0.476829 0.793729 0.0106813
0.576928 0.790341 0.000534066
0.668376 0.78349 0
0.75169 0.77641 0
0.827237 0.769223 0
0.895216 0.762554 0
0.956512 0.756664 0
0.997757 0.751812 0
1 0.748531 0
1 0.747097 0
1 0.748135 0
1 0.75169 0
1 0.758434 0
1 0.771038 0
1 0.789624 0
1 0.810971 0
1 0.834928 0
0.0575875 0.837095 0.0575875
0.0577249 0.836378 0.0577249
0.0578775 0.835645 0.0578775
0.0580148 0.834928 0.0580148
0.0581369 0.834211 0.0581369
0.0582742 0.833539 0.0582742
0.0583963 0.832822 0.0583963
0.0585336 0.83212 0.0585336
0.0587472 0.831006 0.0587472
0.0590219 0.829511 0.0590219
0.0593576 0.827756 0.0593576
0.0597848 0.825422 0.0597848
0.0603342 0.822416 0.0603342
0.0801251 0.821881 0.0583505
0.205859 0.835615 0.0385138
0.341024 0.846326 0.0158846
0.449485 0.848112 0.000228885
0.547677 0.84242 0
0.637766 0.836286 0
0.71989 0.829786 0
0.795743 0.823148 0
0.864347 0.816785 0
0.926406 0.810864 0
0.982315 0.805722 0
1 0.801602 0
1 0.798901 0
1 0.797909 0
1 0.79913 0
1 0.802426 0
1 0.811078 0
1 0.824826 0
1 0.841382 0
1 0.860319 0
0.0476692 0.88397 0.0476692
0.0477913 0.883375 0.0477913
0.0479286 0.882811 0.0479286
0.0480507 0.882216 0.0480507
0.0481727 0.881666 0.0481727
0.0482948 0.881086 0.0482948
0.0484016 0.880659 0.0484016
0.0485542 0.879973 0.0485542
0.0487373 0.879088 0.0487373
0.0489967 0.877913 0.0489967
0.0493019 0.876524 0.0493019
0.0497292 0.874571 0.0497292
0.0624704 0.874266 0.0481727
0.085832 0.875029 0.0449226
0.222309 0.889982 0.0207218
0.335363 0.896101 0.00411994
0.436347 0.893736 0
0.529503 0.888777 0
0.613886 0.883345 0
0.693736 0.877501 0
0.767346 0.871504 0
0.835645 0.865538 0
0.897826 0.859846 0
0.954101 0.854597 0
0.995682 0.850019 0
1 0.846586 0
1 0.844251 0
1 0.843595 0
1 0.844892 0
1 0.850324 0
1 0.86041 0
1 0.872679 0
1 0.887388 0
0.0379492 0.926146 0.0379492
0.0380255 0.925811 0.0380255
0.0381323 0.925353 0.0381323
0.0382391 0.924926 0.0382391
0.0383459 0.924468 0.0383459
0.0384527 0.924071 0.0384527
0.0385443 0.923629 0.0385443
0.0386664 0.92311 0.0386664
0.0388342 0.922423 0.0388342
0.0390478 0.921523 0.0390478
0.0474098 0.921767 0.0377966
0.0648203 0.923049 0.0349584
0.0867781 0.924743 0.0313726
0.160998 0.931426 0.0182498
0.26772 0.940719 0
0.355642 0.937652 0
0.440177 0.934066 0
0.521645 0.929885 0
0.599756 0.9252 0
0.673579 0.920104 0
0.744274 0.914763 0
0.810193 0.909255 0
0.871534 0.903807 0
0.927855 0.89868 0
0.978775 0.894041 0
0.999863 0.890105 0
1 0.887053 0
1 0.885191 0
1 0.884749 0
1 0.888197 0
1 0.895232 0
1 0.904204 0
1 0.915114 0
0.0286107 0.964111 0.0286107
0.0332647 0.964492 0.0277562
0.0400397 0.965179 0.0264897
0.0461128 0.965789 0.0253452
0.0525216 0.966445 0.0241398
0.0585946 0.967056 0.0230106
0.0650187 0.967712 0.0218051
0.0725109 0.96846 0.0203861
0.0823072 0.969543 0.0185245
0.0954604 0.970886 0.0160678
0.112886 0.972641 0.0127871
0.148394 0.973892 0.00949111
0.200534 0.97496 0.00582895
0.267659 0.976272 0.00108339
0.328511 0.975006 0
0.395575 0.972595 0
0.460395 0.969665 0
0.527352 0.966262 0
0.595376 0.96228 0
0.662547 0.957885 0
0.727184 0.953155 0
0.790097 0.94818 0
0.848814 0.943175 0
0.903899 0.938323 0
0.954772 0.933669 0
0.995438 0.929534 0
1 0.926085 0
1 0.923461 0
1 0.92192 0
1 0.923827 0
1 0.928939 0
1 0.93521 0
1 0.943282 0
0.16524 0.999908 0.00015259
0.172839 0.999908 0.000137331
0.181018 0.999908 0.000137331
0.188617 0.999924 0.000122072
0.196216 0.999924 0.000122072
0.203525 0.999908 0.000137331
0.211124 0.999908 0.000137331
0.220493 0.999924 0.000122072
0.232776 0.999939 0.000106813
0.249149 0.999954 7.62951e-05
0.271382 0.999969 4.57771e-05
0.300053 1 1.5259e-05
0.327581 1 0
0.359762 1 0
0.401205 1 0
0.443992 1 0
0.493919 0.999741 0
0.546807 0.997604 0
0.60238 0.994507 0
0.660121 0.99089 0
0.718227 0.986984 0
0.775357 0.982788 0
0.831174 0.978241 0
0.883741 0.973693 0
0.93312 0.969329 0
0.978729 0.96524 0
0.999664 0.961563 0
1 0.95848 0
1 0.956191 0
1 0.957137 0
1 0.960678 0
1 0.965209 0
1 0.970871 0
0.345342 1 0
0.348989 1 0
0.352636 1 0
0.356298 1 0
0.359945 1 0
0.363226 1 0
0.366888 1 0
0.371267 1 0
0.377111 1 0
0.384771 1 0
0.395361 1 0
0.409247 1 0
0.427131 1 0
0.446281 1 0
0.470909 1 0
0.501961 1 0
0.535866 1 0
0.576089 1 0
0.620157 1 0
0.66746 1 0
0.717189 1 0
0.768017 1 0
0.818463 1 0
0.86807 1 0
0.914992 0.998825 0
0.959274 0.995361 0
0.997726 0.992264 0
1 0.989975 0
1 0.987549 0
1 0.987884 0
1 0.990311 0
1 0.993469 0
1 0.996094 0
0.464317 1 0
0.46627 1 0
0.468498 1 0
0.470436 1 0
0.472389 1 0
0.474617 1 0
0.476555 1 0
0.479057 1 0
0.482399 1 0
0.486854 1 0
0.492699 1 0
0.500481 1 0
0.511055 1 0
0.524392 1 0
0.539666 1 0
0.559243 1 0
0.584451 1 0
0.612573 1 0
0.646235 1 0
0.683711 1 0
0.724407 1 0
0.767987 1 0
0.812406 1 0
0.857053 1 0
0.901259 1 0
0.943114 1 0
0.982635 1 0
1 1 0
1 1 0
1 1 0
1 1 0
1 1 0
1 1 0
0.556619 1 0
0.557977 1 0
0.559106 1 0
0.560464 1 0
0.561593 1 0
0.562951 1 0
0.56408 1 0
0.565667 1 0
0.567712 1 0
