Luts/Fujifilm/FLog2C_to_ASTIA_VLog.cube
TITLE "Generated by Resolve"
LUT_3D_SIZE 9
0 0 0
0.017258 0.000946059 3.0518e-05
0.346517 0.00360113 0.00854505
0.959915 9.15541e-05 0.239887
0.999466 0.0997177 0.540078
0.999466 0.0997177 0.540078
0.999329 0.10486 0.536904
0.999527 0.281651 0.419669
0.999786 0.502617 0.226413
0.000122072 0.011902 7.62951e-05
0.00880446 0.000350958 0.000213626
0.22974 0.00459297 0.00650034
0.762722 0.00015259 0.0827802
0.999557 0.000122072 0.514611
0.999466 0.0997177 0.540078
1 0.139116 0.515435
0.999374 0.299245 0.405936
0.999725 0.508812 0.219165
0.000198367 0.178988 6.10361e-05
0.000396735 0.108598 0.000946059
0.107149 0.0729076 0.000488289
0.553048 0.0471962 0.000244144
0.999969 0.0015259 0.369909
0.999649 0.130175 0.519249
0.999405 0.182727 0.486137
0.999374 0.320729 0.390051
0.999664 0.516136 0.210575
4.57771e-05 0.549889 0.000228885
6.10361e-05 0.409461 0.000366217
0.0308995 0.349355 0.000534066
0.403342 0.294606 3.0518e-05
0.90837 0.264439 0.00613413
0.999634 0.297917 0.399695
0.999481 0.297475 0.407401
0.999557 0.375219 0.345861
0.999451 0.537179 0.185916
1.5259e-05 0.813153 0.000396735
3.0518e-05 0.78175 0.000274662
0.000274662 0.754574 0.00103761
0.286839 0.708278 0
0.760586 0.652003 0.000442512
0.999527 0.58822 0.0149233
0.99942 0.513542 0.213809
0.999817 0.510262 0.215625
0.999268 0.59881 0.105989
0 1 0.000289921
0 0.999939 0.000274662
0.00485237 0.999542 0.000289921
0.205783 0.994141 0.000183108
0.652399 0.920378 0
0.998993 0.849699 0.000122072
0.999481 0.76466 0.000122072
0.999451 0.731456 0.000289921
0.999512 0.731228 1.5259e-05
0.117327 0.999985 0.000610361
0.154788 0.999954 0.00062562
0.198856 0.999908 0.000640879
0.318425 0.999863 0.000549325
0.561257 0.999985 0.000259403
0.864088 0.999435 0.000167849
0.988373 0.943023 7.62951e-05
0.994812 0.886213 0.000228885
0.99881 0.85214 6.10361e-05
0.444968 0.999878 0.000289921
0.452491 0.999878 0.000289921
0.460883 0.999878 0.000274662
0.486473 0.999893 0.000244144
0.55993 0.999908 4.57771e-05
0.725261 0.999771 0.000411994
0.977707 0.999863 0.0196994
0.983734 1 0.0220188
0.983963 0.995224 0.0187686
0.759884 0.999649 0.000259403
0.761074 0.999649 0.000259403
0.762509 0.999649 0.000259403
0.766827 0.999619 0.000259403
0.780728 0.999573 0.000244144
0.82089 0.999557 0.000122072
0.929854 0.999527 0.00587472
0.983734 1 0.0220188
0.983734 1 0.0220188
0 0 0
0.00770581 0.000244144 0.000198367
0.316991 0.00383001 0.00695811
0.928435 4.57771e-05 0.207645
0.999466 0.0997177 0.540078
0.999466 0.0997177 0.540078
0.999298 0.105074 0.536934
0.999527 0.281773 0.419562
0.999786 0.50277 0.22623
0.000106813 0.0123903 0.0164187
0.000350958 0.000259403 7.62951e-05
0.201648 0.00428779 0.00564584
0.72253 0.000106813 0.0676585
0.99968 0.000167849 0.509468
0.999466 0.0997177 0.540078
0.999695 0.140566 0.514153
0.999374 0.299397 0.405829
0.999725 0.508812 0.219165
0.000106813 0.197513 7.62951e-05
4.57771e-05 0.117891 0.000762951
0.0899062 0.0810559 4.57771e-05
0.519188 0.0554818 0.000198367
0.999802 0.0049897 0.323995
0.999832 0.138933 0.513787
0.999756 0.183917 0.485344
0.999374 0.320729 0.390051
0.999664 0.516136 0.210575
0 0.589212 0.000198367
7.62951e-05 0.43032 0.000137331
0.01149 0.364706 1.5259e-05
0.370947 0.310231 0
0.879789 0.283299 0.000106813
0.999954 0.30338 0.383108
0.999496 0.299763 0.406287
0.999557 0.375219 0.345861
0.999451 0.537179 0.185916
4.57771e-05 0.828931 0.000350958
0.000106813 0.796963 0.000762951
9.15541e-05 0.768994 0.000396735
0.242298 0.722927 7.62951e-05
0.733944 0.665766 0.000381476
0.999374 0.606592 0.00283818
0.999557 0.514809 0.210178
0.999817 0.510262 0.215625
0.999268 0.59881 0.105989
0 1 0.000289921
0 1 0.000289921
0.000793469 0.999954 0.000289921
0.120134 0.997024 1.5259e-05
0.614618 0.93434 0
0.997894 0.860075 3.0518e-05
0.999359 0.768658 3.0518e-05
0.999451 0.731563 0.000289921
0.999512 0.731228 1.5259e-05
0.0083772 0.999847 0.000335698
0.0417029 0.999786 0.000503548
0.0813001 0.999741 0.000701915
0.194965 0.999664 0.000869764
0.479347 0.99968 7.62951e-05
0.821744 0.99942 0.000411994
0.988983 0.954253 0.000732433
0.994812 0.886213 0.000228885
0.99881 0.85214 6.10361e-05
0.384787 0.999466 0.000488289
0.392584 0.999527 0.000518807
0.401312 0.999573 0.000549325
0.427893 0.999741 0.000656138
0.502327 0.999847 0.000579843
0.669505 0.999359 0.000137331
0.942763 0.999634 0.00917067
0.983734 1 0.0220188
0.983963 0.995224 0.0187686
0.749752 0.999863 0.000167849
0.750973 0.999863 0.000167849
0.752438 0.999863 0.000183108
0.756832 0.999847 0.000213626
0.770977 0.999802 0.000289921
0.811658 0.999725 0.000198367
0.921691 0.999725 0.00456245
0.983734 1 0.0220188
0.983734 1 0.0220188
0 0 0.081651
0.000442512 1.5259e-05 0.0544594
0.276707 0.00361639 0.0180209
0.881117 0 0.161486
0.999466 0.0957656 0.539712
0.999466 0.0997177 0.540078
0.999817 0.118044 0.526802
0.999664 0.298619 0.407752
0.999786 0.50277 0.22623
0.00164797 0.00230411 0.15024
7.62951e-05 1.5259e-05 0.093431
0.172869 0.000564584 0.0557412
0.681819 1.5259e-05 0.0726635
0.999954 0.000106813 0.49633
0.999466 0.0997177 0.540078
0.999924 0.16199 0.498299
0.999603 0.316625 0.393988
0.999725 0.508812 0.219165
0 0.210315 0.230335
1.5259e-05 0.123613 0.119173
0.0771191 0.0786908 0.0765393
0.489799 0.053254 0.059144
0.999771 0.00860609 0.313664
0.999542 0.156542 0.503258
0.999756 0.211795 0.468177
0.999588 0.336996 0.37789
0.999664 0.516136 0.210575
0.000244144 0.616693 0.147265
1.5259e-05 0.470832 0.0159152
0.000671397 0.400885 0.00341802
0.347921 0.330205 6.10361e-05
0.851575 0.289189 0.0632792
0.999268 0.313283 0.402274
0.999374 0.328023 0.383948
0.999268 0.393194 0.330816
0.999451 0.537179 0.185916
0 0.858732 0.000488289
4.57771e-05 0.829053 0.00047303
6.10361e-05 0.80209 0.000564584
0.184588 0.751888 0.000595102
0.702571 0.687938 1.5259e-05
0.99942 0.615778 0.121187
0.99939 0.545663 0.228351
0.999298 0.531151 0.193637
0.999268 0.59881 0.105989
0 1 0.000289921
0 1 0.000289921
0 1 0.000289921
0.0167086 0.999496 0.000442512
0.560739 0.955398 1.5259e-05
0.973144 0.874601 0
0.999512 0.800427 3.0518e-05
0.998688 0.747997 0
0.999512 0.731228 1.5259e-05
0.00344854 0.999985 0.000289921
0.0185855 0.999908 0.000274662
0.0369726 0.999817 0.000274662
0.108095 0.99971 0.000213626
0.410224 0.99968 0.000976577
0.783749 0.999588 4.57771e-05
0.985931 0.972519 0.00306706
0.993347 0.90071 0
0.99881 0.85214 6.10361e-05
0.354269 0.999481 0.000198367
0.361654 0.999496 0.000183108
0.370901 0.999527 0.000167849
0.397742 0.999588 0.000122072
0.47483 0.999771 1.5259e-05
0.641779 0.999557 0.000106813
0.919524 0.999863 0.00355535
0.983734 1 0.0220188
0.983963 0.995224 0.0187686
0.73994 0.999802 0.000366217
0.741161 0.999786 0.000381476
0.742626 0.999786 0.000396735
0.747021 0.999786 0.000427253
0.761227 0.999786 0.000564584
0.802884 0.999588 0.000579843
0.911315 0.999725 0.00302129
0.983734 1 0.0220188
0.983734 1 0.0220188
0.00360113 1.5259e-05 0.296559
0.00111391 4.57771e-05 0.239384
0.25684 1.5259e-05 0.152193
0.848692 0 0.256443
0.999878 0.0854658 0.551659
0.999527 0.102159 0.569116
0.999634 0.147906 0.573083
0.999405 0.336919 0.453696
0.999191 0.54461 0.178073
0.00509651 0.000106813 0.443946
0.00434882 4.57771e-05 0.338994
0.154894 0.000549325 0.235996
0.660471 0.000503548 0.262486
1 1.5259e-05 0.599725
0.99971 0.117662 0.617746
0.999802 0.195956 0.564202
0.999405 0.354833 0.446525
0.999176 0.551019 0.170275
0.000289921 0.205951 0.68481
0.00047303 0.111635 0.493812
0.0619059 0.0628061 0.363897
0.483299 0.0306554 0.312612
0.99234 0.000381476 0.50016
0.999695 0.200565 0.61474
0.999481 0.248219 0.551659
0.999573 0.375082 0.438911
0.999176 0.558679 0.160998
3.0518e-05 0.618326 0.69514
0.000213626 0.486107 0.518807
0.000503548 0.41297 0.434241
0.331243 0.331472 0.331228
0.835386 0.276524 0.361654
0.999878 0.320912 0.566674
0.999573 0.357458 0.523507
0.999969 0.428733 0.415702
0.999176 0.580438 0.134417
0.000228885 0.834836 0.420264
4.57771e-05 0.808865 0.369894
6.10361e-05 0.785306 0.335866
0.117678 0.739727 0.263722
0.67982 0.674067 0.199283
0.999573 0.609903 0.391943
0.99968 0.556527 0.44979
0.999176 0.556878 0.349981
0.999466 0.639796 0.053727
0 1 0.000289921
0 1 0.000289921
0 1 0.000289921
0.000991836 0.999985 0.000396735
0.500954 0.996841 1.5259e-05
0.940871 0.926238 0.0039826
0.999435 0.787778 0.267063
0.999557 0.749386 0.179904
0.998932 0.762219 3.0518e-05
0 1 0.000289921
0 1 0.000289921
0 1 0.000289921
0.0280461 0.999893 0.000289921
0.318349 0.999512 6.10361e-05
0.730541 0.999893 1.5259e-05
0.985855 0.982223 0.00749218
0.992828 0.923583 6.10361e-05
0.99646 0.874372 4.57771e-05
0.317479 0.999802 0.000106813
0.324727 0.999771 9.15541e-05
0.333822 0.999741 9.15541e-05
0.360174 0.999634 7.62951e-05
0.436637 0.999664 7.62951e-05
0.609705 0.999695 0.000549325
0.881178 0.999847 0.00135805
0.983734 1 0.0220188
0.983536 0.999268 0.0214084
0.719585 0.999908 0.00047303
0.720775 0.999908 0.000457771
0.722225 0.999924 0.000442512
0.726558 0.999924 0.000381476
0.74052 0.999939 0.000198367
0.782116 0.999908 0
0.889464 0.999847 0.0015259
0.983734 1 0.0220188
0.983734 1 0.0220188
0.00936904 3.0518e-05 0.693568
0.00782788 0.000427253 0.656687
0.214633 0.000106813 0.451774
0.824918 7.62951e-05 0.496178
0.999557 0.0608682 0.675288
1 0.117418 0.689342
0.999588 0.183215 0.692973
0.999451 0.375296 0.62652
0.999557 0.563134 0.489891
0.0113222 0.000122072 0.875746
0.0108034 9.15541e-05 0.81323
0.119585 0.000167849 0.614298
0.637247 0.000122072 0.571725
0.999954 7.62951e-05 0.766873
0.999985 0.0993973 0.735927
0.999451 0.238163 0.688075
0.99942 0.391211 0.623072
0.999557 0.568215 0.487388
0.000122072 0.155993 0.999557
0.00291447 0.0800793 0.979736
0.032517 0.0205539 0.806317
0.483726 0.000167849 0.701289
0.974807 9.15541e-05 0.76054
0.999802 0.190951 0.735882
0.999664 0.292866 0.684565
0.99968 0.408957 0.61883
0.999542 0.574319 0.484443
0.00015259 0.614237 0.999619
0.000885023 0.484596 0.968841
0.000381476 0.410437 0.899519
0.304753 0.319432 0.78294
0.82324 0.243137 0.709636
0.999924 0.310842 0.738567
0.999847 0.398718 0.675547
0.999359 0.457969 0.608988
0.999496 0.591928 0.475639
0.000442512 0.819806 0.916808
0.000427253 0.794217 0.881224
0.000274662 0.76936 0.848951
0.0443275 0.72401 0.78735
0.655375 0.655818 0.655665
0.999481 0.595056 0.669764
0.999893 0.570153 0.644648
0.999557 0.568444 0.579797
0.999588 0.639445 0.451774
0.000228885 0.997696 0.675441
0.000350958 0.997192 0.670481
7.62951e-05 0.996872 0.66508
7.62951e-05 0.987991 0.651926
0.402441 0.95462 0.559884
0.895705 0.887739 0.507622
0.999313 0.773953 0.565026
0.999542 0.736187 0.50547
0.999222 0.746014 0.375341
0 0.999695 0.231312
0 0.999619 0.232868
0 0.999542 0.23476
0.011902 0.999359 0.236301
0.239628 0.999771 0.209461
0.667903 0.999832 0.129122
0.989395 0.999771 0.218952
0.99675 0.937102 0.270085
0.998703 0.914183 0.134401
0.314778 0.999817 0.0183108
0.320562 0.999817 0.0170901
0.32781 0.999832 0.0155642
0.348806 0.999878 0.011017
0.413153 0.999924 0.00280766
0.573526 0.999435 0.000289921
0.83093 0.999542 0.000671397
0.984649 0.999756 0.0353246
0.983734 1 0.0220188
0.696071 0.999863 0.214801
0.697215 0.999863 0.213962
0.698589 0.999863 0.212543
0.702678 0.999863 0.209522
0.715908 0.999847 0.19855
0.755108 0.999893 0.170108
0.860182 0.999817 0.104753
0.98613 0.99968 0.0737774
0.983871 0.999985 0.0231479
0.0120241 0.000350958 0.900877
0.0120241 0.000350958 0.900877
0.0726635 0.00062562 0.902068
0.786877 1.5259e-05 0.799496
1 1.5259e-05 0.858991
0.999985 0.027985 0.841184
0.999985 0.123156 0.828443
0.999451 0.37322 0.760403
0.999603 0.581231 0.695659
0.0149538 0 0.922927
0.0146639 1.5259e-05 0.923384
0.0128023 0.000427253 0.900938
0.590219 4.57771e-05 0.972686
1 9.15541e-05 0.979141
0.999741 0.0327459 0.883421
0.999954 0.177752 0.824018
0.999542 0.391501 0.759075
0.999619 0.585428 0.695003
0.0096437 0.0697337 0.990234
0.0107729 0.0665141 0.990753
0.0130922 0.000289921 0.922942
0.447578 0.000259403 0.999374
0.946319 0.00030518 0.999283
0.999985 0.0703746 0.916304
0.999893 0.235706 0.821683
0.999878 0.412299 0.758206
0.999634 0.590463 0.694209
4.57771e-05 0.518608 0.999985
0.000244144 0.468406 0.999817
0.00112917 0.376455 0.999954
0.212329 0.263645 0.99968
0.806775 0.170336 0.99942
1 0.209796 0.957275
0.999695 0.358724 0.810742
0.999268 0.465751 0.754253
0.999695 0.604807 0.691936
0.000823987 0.759472 0.999924
0.000839246 0.744183 0.999878
6.10361e-05 0.728832 1
0.00215152 0.694255 0.999954
0.615778 0.631006 0.9991
0.999725 0.549477 0.930953
0.999893 0.563684 0.792523
0.999359 0.582696 0.747692
0.999527 0.643076 0.68426
0.000122072 0.933867 0.999771
3.0518e-05 0.931777 0.999634
0.000228885 0.928603 0.999893
0.000289921 0.921706 0.999969
0.249348 0.895308 0.95259
0.840101 0.840726 0.840253
0.999664 0.762203 0.781415
0.999893 0.726436 0.729152
0.999725 0.732021 0.656641
0.000366217 0.999924 0.78967
0.000320439 0.999939 0.788846
0.000228885 0.999908 0.787793
7.62951e-05 0.999817 0.784573
0.00207523 1 0.771603
0.563943 0.99939 0.676219
0.982452 0.980682 0.639597
0.998825 0.901717 0.633402
0.999619 0.877195 0.565011
0.203769 0.999878 0.652705
0.212634 0.999863 0.650507
0.223713 0.999847 0.647761
0.25594 0.999802 0.639597
0.348898 0.999741 0.616754
0.553628 0.999313 0.572473
0.79028 0.999619 0.472282
0.989624 0.999527 0.403555
0.988693 0.999664 0.273533
0.666331 0.999557 0.696452
0.667674 0.999573 0.696254
0.669291 0.999588 0.69601
0.674128 0.999619 0.695293
0.689738 0.99971 0.692836
0.730571 0.999786 0.682551
0.82533 0.999771 0.646006
0.989792 0.999664 0.558251
0.98941 0.999573 0.36321
0.0156863 0.00483711 0.936233
0.0156863 0.00483711 0.936233
0.0156863 0.00483711 0.936233
0.517342 3.0518e-05 0.999496
1 0 0.99971
1 0 0.99971
0.999985 0.0181735 0.999908
0.999954 0.290089 0.926406
0.999878 0.547158 0.842695
0.0156863 0.00483711 0.936233
0.0156863 0.00483711 0.936233
0.0156863 0.00483711 0.936233
0.242802 0.000274662 0.999573
0.954574 0 0.999664
1 0 0.99971
0.999939 0.0652934 0.999649
0.999893 0.309499 0.923766
0.999847 0.552254 0.842557
0.0156863 0.00483711 0.936233
0.0156863 0.00483711 0.936233
0.0156863 0.00483711 0.936233
0.119127 0.000488289 0.979751
0.881971 0.000122072 0.999588
1 0 0.99971
0.999786 0.119417 0.998383
0.999847 0.33164 0.920943
0.999802 0.55845 0.84239
0.00115969 0.260822 0.999985
0.00115969 0.262257 0.999985
0.000411994 0.244755 0.999908
0.00756847 0.168124 0.999847
0.758267 0.0258488 0.999451
0.999557 0.00347906 0.99939
0.999405 0.255482 0.987762
0.999924 0.389395 0.915114
0.99968 0.576425 0.841886
0.000915541 0.707561 1
0.000228885 0.613443 0.999466
0.000701915 0.596017 0.999741
0.000228885 0.572641 0.999985
0.488975 0.533684 0.999695
0.986954 0.4383 0.999481
0.999847 0.4795 0.959945
0.999588 0.519158 0.898116
0.999741 0.62063 0.837324
0.000488289 0.838071 0.999985
0.000442512 0.834272 0.999969
0.000839246 0.830869 0.999817
0.000457771 0.822248 1
0.116732 0.803388 0.999573
0.755276 0.765606 0.999741
0.999725 0.707485 0.970367
0.999908 0.695079 0.879744
0.999771 0.718532 0.82977
0.000808728 0.972686 0.999969
0.000823987 0.97261 0.999985
0.00077821 0.972442 0.999969
0.000274662 0.971618 0.999695
0.000381476 0.969299 1
0.404196 0.978027 0.999832
0.924331 0.925704 0.924208
0.999542 0.869825 0.863981
1 0.847944 0.812879
0.00491341 0.981277 0.999893
0.00697337 0.982605 0.999878
0.00941482 0.984161 0.999847
0.0165713 0.988785 0.999771
0.0673838 0.99881 0.994415
0.365637 0.999863 0.933364
0.743832 0.999969 0.82974
0.993103 0.999756 0.751934
0.992157 0.999664 0.693156
0.520043 0.999649 0.994247
0.522148 0.999664 0.993973
0.524681 0.99968 0.993622
0.532265 0.99971 0.992599
0.556817 0.999832 0.989212
0.62269 0.999939 0.975326
0.765072 0.999466 0.931746
0.972198 0.999725 0.868116
0.992996 0.999771 0.757626
0.0156863 0.00483711 0.936233
0.0156863 0.00483711 0.936233
0.0156863 0.00483711 0.936233
0.0156863 0.00483711 0.936233
0.669306 0.000213626 0.999084
1 0 0.99971
1 0 0.99971
0.999954 0.112306 0.999512
0.999756 0.436439 0.999557
0.0156863 0.00483711 0.936233
0.0156863 0.00483711 0.936233
0.0156863 0.00483711 0.936233
0.0156863 0.00483711 0.936233
0.584207 0.000106813 0.999527
1 0 0.99971
1 0 0.99971
0.999954 0.134325 0.999451
0.999817 0.442802 0.999512
0.0125734 0.0360571 0.966293
0.0124514 0.0372778 0.967483
0.0122988 0.0387884 0.968933
0.0113069 0.0480507 0.972915
0.505852 0.00030518 0.999786
1 0 0.99971
1 0 0.99971
0.999924 0.160632 0.999313
0.999878 0.450355 0.999451
0.000717174 0.430518 0.999817
0.000717174 0.431418 0.999832
0.000701915 0.433234 0.999832
0.000656138 0.438682 0.999832
0.36994 0.000289921 0.999573
0.999664 0 0.999695
0.999893 0.0367132 0.999359
0.999863 0.228626 0.999664
0.999863 0.471839 0.999222
0.000442512 0.805615 0.999817
0.000442512 0.805951 0.999817
0.000442512 0.806287 0.999817
0.000762951 0.628611 0.999878
0.206607 0.323003 0.999771
0.841321 0.291325 0.999466
0.999985 0.297887 0.999283
0.999939 0.376944 0.999542
0.999649 0.528283 0.998978
7.62951e-05 0.905516 0.999924
0.00015259 0.881498 0.999939
7.62951e-05 0.856077 0.999985
0.000335698 0.807004 0.999832
0.00819409 0.720302 0.999985
0.642054 0.655894 0.999664
0.999908 0.610727 0.999313
0.999985 0.599222 0.999557
0.99971 0.641428 0.998825
0.000549325 0.972747 0.999817
0.000335698 0.972503 0.999695
0.000106813 0.972183 0.999573
0.00015259 0.966369 0.999619
0.00015259 0.950164 0.999924
0.353857 0.914443 0.999878
0.843214 0.850904 0.999725
0.999786 0.809201 0.999695
0.999481 0.800214 0.988251
0.000976577 0.973083 1
0.000976577 0.973083 1
0.000976577 0.973083 1
0.000762951 0.972869 0.999893
4.57771e-05 0.972152 0.999542
0.155764 0.999725 0.999985
0.640833 0.999542 0.999741
0.989441 0.995346 0.995315
0.996124 0.976333 0.954681
0.429221 0.999924 0.999741
0.431464 0.999924 0.999741
0.43415 0.999908 0.999725
0.442206 0.999908 0.999695
0.469062 0.999863 0.999603
0.542748 0.999695 0.999359
0.69897 0.998917 0.999832
0.928786 0.998428 0.998383
0.999344 1 0.99826
0.000198367 0.467735 1
0.000198367 0.469184 1
0.000198367 0.470909 1
0.000228885 0.475822 1
0.000289921 0.492576 1
0.757168 6.10361e-05 0.999908
1 0 0.99971
1 0 0.99971
0.999985 0.190372 0.999512
0.000442512 0.528969 1
0.000457771 0.530404 1
0.000457771 0.531807 1
0.00047303 0.536065 0.999985
0.000549325 0.549645 0.999939
0.742 0.000167849 0.999664
1 0 0.99971
1 0 0.99971
0.999985 0.198413 0.999496
0.000747692 0.590402 0.999786
0.000747692 0.59147 0.999786
0.000762951 0.592798 0.999771
0.00077821 0.596521 0.999756
0.000701915 0.60737 0.999786
0.727855 0.000137331 0.999771
1 0 0.99971
1 0 0.99971
0.999969 0.208148 0.999481
0.000289921 0.713542 1
0.00030518 0.713924 1
0.00030518 0.714656 1
0.000320439 0.716503 1
0.000396735 0.722591 1
0.688289 0.000167849 0.999619
1 0 0.99971
1 0 0.99971
0.999954 0.236179 0.999451
0.000442512 0.895857 0.999847
0.000442512 0.895979 0.999847
0.000427253 0.896223 0.999847
0.000411994 0.896819 0.999832
0.000366217 0.89897 0.999817
0.568719 0.300694 0.999405
1 0.0341802 0.999649
0.999985 0.0646372 0.999756
0.999802 0.310445 0.99939
0 0.973785 1
0 0.973785 1
0 0.973785 1
0 0.973785 1
0.000137331 0.896742 0.999878
0.411292 0.700648 0.999832
0.923171 0.578988 0.999512
0.999527 0.430961 0.998993
0.999817 0.478538 0.999832
0 0.973785 1
0 0.973785 1
0 0.973785 1
0 0.973785 1
0.000686656 0.973281 1
0.0275273 0.957107 0.999924
0.773037 0.867369 0.999451
0.999832 0.778241 0.999557
0.999847 0.716487 0.999893
0.000976577 0.973083 1
0.000976577 0.973083 1
0.000976577 0.973083 1
0.000976577 0.973083 1
0.000976577 0.973083 1
0.0166323 0.981826 0.999832
0.555032 0.999695 0.999863
0.95819 0.998901 0.997833
0.997253 0.960235 0.99968
0.310338 0.99968 0.999832
0.313237 0.99968 0.999832
0.316808 0.99968 0.999832
0.326482 0.99968 0.999817
0.358083 0.999695 0.999786
0.452155 0.99971 0.999695
0.639704 0.999405 0.999634
0.892607 0.997803 0.998901
1 1 1
