Luts/Fujifilm/FLog2C_to_PROVIA_VLog.cube
TITLE "Generated by Resolve"
LUT_3D_SIZE 5
0 0 0
0.36141 0.0125887 0.0408179
1 0.25713 0.480659
0.999557 0.261616 0.476829
0.999191 0.543175 0.193713
0.00241093 0.181384 0
0.112779 0.0838788 3.0518e-05
0.999893 0.115816 0.33727
0.999893 0.314702 0.432456
0.999405 0.554009 0.177829
1.5259e-05 0.799496 0.000396735
0 0.733013 0.000183108
0.770169 0.629419 0.000122072
0.999329 0.550896 0.183291
0.9991 0.621683 0.073991
0 1 0.000289921
0 1 0.000289921
0.0154574 0.999985 0.000335698
0.998581 0.933516 0.000564584
0.999161 0.856123 0.000167849
0.53254 0.999847 0.000366217
0.539696 0.999847 0.000350958
0.589349 0.999832 0.000213626
0.880522 0.995865 0.000106813
0.980819 0.986313 0.0157168
0.00631724 0 0.0897688
0.298238 0.00810254 0.0467994
1 0.254292 0.479667
0.999664 0.271 0.469718
0.999207 0.543297 0.19353
4.57771e-05 0.214374 0.227619
0.0889296 0.0904402 0.0885481
0.999619 0.117845 0.299718
0.999817 0.332311 0.41561
0.999405 0.554009 0.177829
0 0.852461 0.000534066
6.10361e-05 0.788235 6.10361e-05
0.691005 0.663111 0
0.999451 0.577646 0.19823
0.9991 0.621683 0.073991
0 1 0.000289921
0 1 0.000289921
0 1 0.000289921
0.997772 0.959777 0.00633249
0.999161 0.856123 0.000167849
0.492348 0.999695 0.000106813
0.49984 0.999695 9.15541e-05
0.551705 0.999725 4.57771e-05
0.856031 0.997208 0.000106813
0.980819 0.986313 0.0157168
0.070573 0.000411994 0.623301
0.284977 0 0.43418
0.999924 0.227222 0.618448
0.999542 0.312978 0.651942
0.999466 0.593271 0.465599
0.0907607 0.181079 0.999359
0.143282 0.0538491 0.732174
0.99881 0.0401312 0.738109
0.999939 0.385962 0.656596
0.999298 0.603037 0.460746
0.000488289 0.847059 0.855543
1.5259e-05 0.790326 0.789303
0.651881 0.65275 0.652201
0.99939 0.600641 0.641505
0.999496 0.662425 0.426749
4.57771e-05 0.999222 0.119997
1.5259e-05 0.999222 0.124178
0.000106813 0.999527 0.140429
0.996582 0.999329 0.167681
0.999054 0.921645 0.0893111
0.434806 0.999832 0.163668
0.441474 0.999832 0.161395
0.487541 0.999878 0.147219
0.789899 0.999435 0.0537575
0.984726 0.985794 0.0166934
0.383291 1.5259e-05 0.999985
0.383551 6.10361e-05 0.999939
1 0 0.99971
0.999786 0.195987 0.991943
0.999847 0.581094 0.866453
0.426871 3.0518e-05 0.999512
0.427375 3.0518e-05 0.999603
0.965637 0.000259403 0.999527
0.999985 0.269734 0.99559
0.999817 0.590799 0.865827
0.000335698 0.735119 0.999298
0.0360266 0.607889 0.999741
0.661143 0.534707 0.999557
0.999771 0.527291 0.979004
0.999649 0.649332 0.859785
0.00157168 0.987411 0.999969
0.00131228 0.986145 0.999969
0.000762951 0.979644 1
0.931746 0.933776 0.932204
0.999664 0.866972 0.834714
0.294453 0.999817 0.979828
0.302373 0.999802 0.979019
0.357168 0.999756 0.973312
0.700694 0.999664 0.927016
0.985443 0.999832 0.777661
0.219059 0.461524 0.999542
0.215702 0.465187 0.999573
0.192889 0.490196 0.999725
1 0 0.99971
1 0.318166 1
0.068925 0.601205 0.999878
0.0655528 0.603891 0.999878
0.0487678 0.620523 0.999847
1 0 0.99971
1 0.329763 1
0.000701915 0.91371 1
0.000701915 0.914 1
0.000656138 0.916274 1
0.999908 0.180026 0.999283
0.999893 0.403174 0.999237
0.00213626 0.990723 1
0.00213626 0.990723 1
0.00209049 0.990585 0.999725
0.802976 0.885695 0.99942
0.999725 0.747494 0.99942
0.0194095 0.996643 0.999969
0.0248875 0.996857 0.999969
0.0777142 0.997833 0.999969
0.523598 0.999924 0.997024
1 1 1
