Luts/Fujifilm/FLog2C_to_ETERNA_VLog.cube
TITLE "Generated by Resolve"
LUT_3D_SIZE 33
0.00585946 0.00585946 0.00585946
0.00585946 0.00585946 0.00585946
0.00585946 0.00585946 0.00585946
0.00585946 0.00585946 0.00585946
0.0372778 0.00776684 0.0102541
0.111086 0.00927749 0.0207523
0.163455 0.0177157 0.0259556
0.228107 0.019379 0.0352178
0.31133 0.0319066 0.0470283
0.424079 0.0502174 0.0604868
0.558556 0.0773785 0.0778363
0.695109 0.106783 0.0883192
0.830427 0.148028 0.107866
0.929519 0.196262 0.115602
0.940551 0.2477 0.178332
0.944945 0.308553 0.254002
0.943984 0.328389 0.270512
0.943984 0.328389 0.270512
0.943984 0.328389 0.270512
0.943984 0.328389 0.270512
0.943984 0.328389 0.270512
0.943984 0.328389 0.270512
0.943984 0.328389 0.270512
0.943984 0.328389 0.270512
0.943465 0.331533 0.267185
0.943999 0.347448 0.256092
0.940505 0.372412 0.240284
0.939254 0.39736 0.221668
0.937026 0.425162 0.198062
0.934997 0.455329 0.167544
0.932616 0.487907 0.123049
0.929992 0.523369 0.0701915
0.928038 0.557839 0.065095
0.00585946 0.00585946 0.00585946
0.00585946 0.00585946 0.00585946
0.00585946 0.00585946 0.00585946
0.00585946 0.00585946 0.00585946
0.0510567 0.00883497 0.0120089
0.122393 0.0102083 0.022034
0.172381 0.0187228 0.0269169
0.236957 0.019913 0.0366369
0.320043 0.0339666 0.0481117
0.433051 0.0515145 0.0616159
0.56553 0.0789044 0.0786297
0.69987 0.107774 0.0888075
0.832792 0.14873 0.108309
0.930922 0.197498 0.115511
0.940703 0.248661 0.180255
0.944976 0.309316 0.254795
0.943984 0.328344 0.270466
0.943984 0.328389 0.270512
0.943984 0.328389 0.270512
0.943984 0.328389 0.270512
0.943984 0.328389 0.270512
0.943984 0.328389 0.270512
0.943984 0.328389 0.270512
0.943984 0.328389 0.270512
0.943465 0.334691 0.264485
0.943023 0.35259 0.253285
0.940749 0.376104 0.237522
0.938872 0.400427 0.219043
0.936828 0.427527 0.195499
0.934981 0.457206 0.165667
0.932464 0.489494 0.120378
0.930007 0.524575 0.0684215
0.928008 0.558862 0.0650034
0.00585946 0.00585946 0.00585946
0.00585946 0.00585946 0.00585946
0.00585946 0.00585946 0.00585946
0.00585946 0.00585946 0.00585946
0.0648356 0.00975052 0.0138857
0.133806 0.0118868 0.0232242
0.182574 0.0183871 0.028336
0.244907 0.0209201 0.0377661
0.325017 0.0347143 0.0486
0.433478 0.0507515 0.061738
0.557076 0.0769055 0.0768749
0.685512 0.104189 0.0895857
0.813428 0.141192 0.104814
0.92343 0.184421 0.114504
0.937835 0.227253 0.138033
0.941939 0.272129 0.213504
0.945724 0.317601 0.261051
0.943969 0.328298 0.270436
0.943984 0.328389 0.270512
0.943984 0.328389 0.270512
0.943984 0.328389 0.270512
0.943984 0.328389 0.270512
0.943984 0.328389 0.270512
0.943984 0.328389 0.270512
0.943709 0.338903 0.261158
0.942138 0.357336 0.250675
0.940963 0.379614 0.234882
0.938506 0.403403 0.216526
0.936645 0.429908 0.19295
0.934966 0.459174 0.163729
0.932296 0.491096 0.117678
0.929931 0.525826 0.0681315
0.927993 0.559899 0.0649119
0.00585946 0.00585946 0.00585946
0.00585946 0.00585946 0.00585946
0.00585946 0.00585946 0.00585946
0.00585946 0.00585946 0.00585946
0.0425269 0.00721752 0.010132
0.100664 0.00944533 0.01944
0.154253 0.0127413 0.0247044
0.205066 0.0195468 0.0330968
0.273579 0.028687 0.0419928
0.365972 0.0388647 0.0547951
0.479072 0.0585031 0.0652171
0.604623 0.0885634 0.0792859
0.728405 0.114748 0.0942397
0.849073 0.153475 0.110597
0.932128 0.196338 0.115129
0.940124 0.2374 0.164416
0.943954 0.281086 0.224277
0.944839 0.323873 0.266957
0.943984 0.328389 0.270512
0.943984 0.328389 0.270512
0.943984 0.328389 0.270512
0.943984 0.328389 0.270512
0.943984 0.328389 0.270512
0.943877 0.330571 0.268605
0.943618 0.343359 0.258183
0.941314 0.361944 0.248081
0.941115 0.383108 0.232288
0.93817 0.406455 0.213977
0.936461 0.432303 0.190402
0.934844 0.461219 0.161242
0.932158 0.492866 0.114733
0.92987 0.527077 0.0679637
0.927962 0.560937 0.0648356
0.00480659 0.0240482 0.002533
0.00491341 0.025391 0.00234989
0.00544747 0.0248569 0.00204471
0.00534066 0.012314 0.00483711
0.0224918 0.00613413 0.00836194
0.082826 0.0096437 0.016144
0.126268 0.0130159 0.0219577
0.175967 0.0165408 0.0295415
0.233936 0.0237125 0.0357366
0.30956 0.0329595 0.0445869
0.40943 0.0470893 0.0578317
0.524407 0.0680095 0.0730907
0.649622 0.0960098 0.0864271
0.771542 0.126894 0.102388
0.886702 0.168353 0.1131
0.935409 0.212268 0.112169
0.940581 0.253071 0.190051
0.945098 0.302434 0.245609
0.943999 0.328313 0.270451
0.943984 0.328389 0.270512
0.943984 0.328389 0.270512
0.943984 0.328389 0.270512
0.943938 0.32871 0.270115
0.943618 0.335622 0.26421
0.94258 0.349554 0.255512
0.941299 0.366049 0.244511
0.94078 0.386786 0.229679
0.937972 0.409766 0.21146
0.936278 0.434943 0.187686
0.934661 0.463279 0.158495
0.932021 0.49453 0.111955
0.929793 0.52842 0.0677958
0.927947 0.561929 0.064744
0.00495918 0.0852216 0.000274662
0.00495918 0.0860914 0.000259403
0.00552377 0.0730144 0.000259403
0.0053254 0.0522164 9.15541e-05
0.0103304 0.0356756 0.00216678
0.0572976 0.0275578 0.00918593
0.105882 0.0214084 0.0169985
0.150225 0.0179141 0.0242771
0.201892 0.0211795 0.0307774
0.268055 0.0273136 0.0404364
0.352468 0.0365454 0.0509651
0.462135 0.0588083 0.0629129
0.585672 0.0804456 0.078706
0.710384 0.11104 0.0950942
0.832013 0.14873 0.10309
0.932815 0.190951 0.117433
0.938903 0.234073 0.156512
0.943816 0.281727 0.227024
0.943984 0.328389 0.270512
0.943984 0.328389 0.270512
0.943984 0.328389 0.270512
0.943908 0.328878 0.270008
0.943572 0.331548 0.266423
0.943496 0.340887 0.259983
0.941649 0.355169 0.253086
0.941299 0.369924 0.241138
0.940444 0.390387 0.2271
0.937789 0.413001 0.209018
0.936095 0.437507 0.185061
0.934478 0.465431 0.155642
0.931884 0.496315 0.10901
0.929717 0.529625 0.0676432
0.927932 0.56286 0.0646525
0.00622568 0.123369 0.000518807
0.00627146 0.124376 0.000503548
0.00573739 0.113115 0.000228885
0.0059968 0.0962692 3.0518e-05
0.00517281 0.0798962 6.10361e-05
0.0336919 0.0689555 0.000213626
0.0879988 0.0611887 0.0075227
0.132799 0.0577401 0.0144808
0.182498 0.0518807 0.0227512
0.240925 0.0511025 0.0321813
0.318044 0.0505226 0.0438849
0.420722 0.0572976 0.0574502
0.539544 0.0714733 0.0713664
0.667048 0.102174 0.0877546
0.789853 0.133959 0.101747
0.907042 0.176135 0.114855
0.937072 0.220645 0.123095
0.942504 0.267338 0.204303
0.94461 0.317998 0.262318
0.943984 0.328389 0.270512
0.943984 0.328389 0.270512
0.943664 0.330312 0.268498
0.943313 0.335988 0.262608
0.943496 0.347082 0.255436
0.941192 0.36051 0.249729
0.941299 0.373877 0.237705
0.940124 0.393927 0.224582
0.937591 0.416251 0.206561
0.935912 0.440055 0.182437
0.93431 0.467506 0.152911
0.931746 0.497963 0.106279
0.929656 0.530877 0.0674907
0.927901 0.563882 0.0645762
0.00563058 0.163622 1.5259e-05
0.00556954 0.164553 0
0.00549325 0.152697 7.62951e-05
0.00643931 0.133776 0
0.00622568 0.115999 0.00015259
0.0187228 0.104936 0.000442512
0.0700236 0.0995346 0.000518807
0.117296 0.0946365 0.00604257
0.1664 0.0898604 0.014847
0.221988 0.0901045 0.0225376
0.293217 0.088304 0.0335088
0.38735 0.0930037 0.0464485
0.502327 0.0982681 0.0622568
0.625879 0.112795 0.0785687
0.749401 0.135683 0.0912795
0.871244 0.169665 0.10808
0.93637 0.211643 0.111696
0.940139 0.256733 0.182467
0.944244 0.304952 0.246159
0.94345 0.331563 0.267155
0.943847 0.333165 0.266621
0.943847 0.337682 0.263172
0.943206 0.343725 0.258122
0.943191 0.354147 0.250965
0.94107 0.366217 0.245243
0.941115 0.378943 0.233921
0.939742 0.398108 0.221622
0.937362 0.420096 0.203662
0.935699 0.443091 0.179339
0.934096 0.469978 0.149615
0.931594 0.500023 0.102846
0.929564 0.532326 0.0672923
0.927871 0.565118 0.0644694
0.00555428 0.207919 9.15541e-05
0.00556954 0.20766 6.10361e-05
0.00521859 0.189334 6.10361e-05
0.00561532 0.171283 0.000610361
0.00546273 0.154528 6.10361e-05
0.00512703 0.143999 0.000106813
0.0555123 0.136782 0.000442512
0.10367 0.130098 0
0.153582 0.124605 0.0059968
0.204257 0.12195 0.0140536
0.27158 0.120775 0.0250095
0.358083 0.123217 0.037232
0.46717 0.130114 0.0519875
0.587518 0.139834 0.0673228
0.711772 0.159121 0.0826581
0.833646 0.185534 0.0976272
0.933059 0.225406 0.104448
0.937469 0.264073 0.130388
0.943084 0.306935 0.216693
0.943557 0.342855 0.257527
0.94374 0.344793 0.257618
0.942779 0.34876 0.255085
0.941619 0.354726 0.251026
0.942 0.363714 0.24683
0.940917 0.373617 0.239719
0.940703 0.386145 0.229038
0.939376 0.403876 0.216571
0.937072 0.425147 0.199847
0.935424 0.447135 0.175189
0.933806 0.473304 0.14522
0.931365 0.502785 0.0982528
0.929442 0.534447 0.0670176
0.92784 0.566766 0.0643168
0.00624094 0.265888 0.00015259
0.00704967 0.253056 0.000137331
0.00520333 0.231968 0.000396735
0.00511177 0.209979 6.10361e-05
0.00564584 0.19295 9.15541e-05
0.00642405 0.182712 0.000381476
0.0295109 0.175875 4.57771e-05
0.0882429 0.168322 0
0.138033 0.164904 0.000518807
0.188312 0.1608 0.00560006
0.250614 0.157137 0.0151827
0.33048 0.157855 0.0276799
0.43267 0.160983 0.0411841
0.550195 0.171496 0.0577401
0.672923 0.185931 0.0731975
0.796063 0.210498 0.0861677
0.910155 0.24242 0.0974594
0.935592 0.281453 0.0981308
0.940566 0.315938 0.172946
0.941329 0.357046 0.243259
0.941558 0.361593 0.248066
0.941497 0.363394 0.24625
0.940536 0.367346 0.24332
0.941115 0.374151 0.239017
0.940703 0.383185 0.233585
0.940215 0.395117 0.222889
0.938949 0.411429 0.209613
0.936904 0.430854 0.193545
0.935058 0.452399 0.169772
0.933425 0.477699 0.139391
0.931075 0.506432 0.0922103
0.929305 0.537133 0.0666667
0.927794 0.568933 0.0641337
0.0065156 0.336202 0.000671397
0.00698863 0.305348 0.000442512
0.00668345 0.277302 0.00015259
0.00624094 0.255985 0.000244144
0.00648508 0.238239 0.000442512
0.00621042 0.226429 0.000808728
0.0167697 0.219165 0.000442512
0.0680858 0.212253 0.000183108
0.123476 0.205432 9.15541e-05
0.174853 0.20032 0.000885023
0.232914 0.196216 0.00608835
0.307866 0.193881 0.0179141
0.402823 0.196994 0.0310216
0.515465 0.203342 0.0465705
0.636667 0.215076 0.063035
0.758083 0.237583 0.0771344
0.876387 0.268757 0.0889601
0.935637 0.30547 0.0911879
0.937453 0.332738 0.108248
0.938979 0.368902 0.207034
0.940948 0.380697 0.232029
0.940902 0.381994 0.23299
0.940124 0.383261 0.233936
0.940276 0.388083 0.228565
0.940291 0.39559 0.22356
0.939681 0.406912 0.214511
0.938231 0.421134 0.200488
0.936736 0.437995 0.185229
0.934371 0.459373 0.163088
0.932906 0.483375 0.131716
0.930694 0.511254 0.084184
0.929091 0.540688 0.0661936
0.927733 0.571817 0.0638895
0.00708019 0.400366 0.000122072
0.0074464 0.36347 0.000122072
0.00622568 0.33228 1.5259e-05
0.00668345 0.308431 3.0518e-05
0.00662242 0.290761 0.000213626
0.00593576 0.279225 0
0.00810254 0.271061 0.000579843
0.0449836 0.262699 1.5259e-05
0.105837 0.256504 3.0518e-05
0.159991 0.249271 0
0.22063 0.243839 0.00114443
0.287694 0.239872 0.00755322
0.376989 0.240467 0.0189059
0.48368 0.243671 0.0349432
0.601923 0.25304 0.0513008
0.72195 0.272053 0.0659495
0.839628 0.29929 0.0779431
0.934371 0.332815 0.0863813
0.936812 0.361318 0.0836805
0.936614 0.386999 0.14728
0.938872 0.406317 0.216327
0.93901 0.404257 0.217044
0.938491 0.404395 0.214954
0.938674 0.407446 0.213428
0.938506 0.412146 0.20911
0.938033 0.421134 0.201755
0.936843 0.433814 0.188144
0.936095 0.447929 0.174533
0.933486 0.468284 0.154559
0.931777 0.491127 0.119432
0.930175 0.517479 0.0756085
0.928832 0.545403 0.065568
0.927642 0.575631 0.0635691
0.00810254 0.463737 0.000549325
0.00799573 0.426184 0.000839246
0.00654612 0.394965 0.000289921
0.00660716 0.37258 0.000122072
0.00593576 0.354635 4.57771e-05
0.00654612 0.342763 0.000335698
0.00628672 0.334096 4.57771e-05
0.0241703 0.324163 0.00015259
0.092546 0.316747 3.0518e-05
0.146014 0.306889 0.000442512
0.205295 0.30132 0.000686656
0.272221 0.294469 0.000350958
0.354513 0.291402 0.00822461
0.458427 0.29247 0.0227512
0.569375 0.300359 0.0370642
0.686778 0.312642 0.0529641
0.804059 0.337255 0.066453
0.909499 0.369924 0.0770275
0.933516 0.402457 0.0763714
0.932845 0.4159 0.0840009
0.935607 0.433616 0.177752
0.936309 0.432959 0.190936
0.936584 0.430503 0.195392
0.937194 0.430152 0.194186
0.936706 0.433661 0.189563
0.936324 0.439292 0.183856
0.935302 0.449393 0.173037
0.934462 0.462058 0.160861
0.932387 0.479973 0.139345
0.930312 0.501167 0.103502
0.929458 0.52517 0.0725109
0.92845 0.551629 0.0648203
0.927535 0.580682 0.0631418
0.00758373 0.521157 0.000122072
0.00759899 0.488014 0.000396735
0.00808728 0.464393 0.000137331
0.00782788 0.444404 0.000518807
0.00759899 0.429633 0.000167849
0.00668345 0.419669 3.0518e-05
0.00669871 0.410834 4.57771e-05
0.0144198 0.400748 0.000167849
0.0748455 0.390143 3.0518e-05
0.133928 0.38085 0.000854505
0.191623 0.370092 0.000244144
0.256153 0.362554 0.000549325
0.336202 0.35639 0.000518807
0.435584 0.352682 0.00868238
0.542901 0.358175 0.0238499
0.656626 0.367269 0.0385901
0.771008 0.386465 0.0545815
0.878431 0.415366 0.0675517
0.930938 0.447745 0.0741588
0.930022 0.455253 0.0715496
0.931853 0.466575 0.0943465
0.934295 0.465858 0.158206
0.934432 0.460716 0.163134
0.934325 0.458961 0.165606
0.934752 0.459205 0.167346
0.934234 0.46247 0.159655
0.933639 0.469718 0.151095
0.932876 0.480064 0.13489
0.930999 0.495171 0.11397
0.929366 0.513649 0.0868391
0.928542 0.535042 0.0684977
0.927886 0.560037 0.0639811
0.927382 0.587243 0.0628061
0.00816358 0.581308 0.000442512
0.00706493 0.559121 1.5259e-05
0.00784314 0.541283 0.000228885
0.00833143 0.52459 4.57771e-05
0.00817884 0.512276 7.62951e-05
0.0083772 0.502525 0.000122072
0.00906386 0.494835 0.000167849
0.0111543 0.486473 0.000457771
0.0537881 0.476036 0.000610361
0.116106 0.465888 0.000289921
0.177508 0.454597 3.0518e-05
0.245838 0.444236 3.0518e-05
0.320607 0.436027 0.00015259
0.414801 0.430808 0.000701915
0.522545 0.430579 0.00972
0.633249 0.435264 0.0247196
0.743038 0.448066 0.0386053
0.845975 0.469581 0.0541085
0.926055 0.497169 0.0673838
0.928771 0.505806 0.0681315
0.929656 0.504524 0.0697642
0.930068 0.503517 0.0974899
0.930785 0.496422 0.108598
0.930983 0.492226 0.116732
0.932204 0.488823 0.122408
0.930694 0.490623 0.122393
0.93051 0.495155 0.113436
0.930785 0.501945 0.0995804
0.930663 0.513527 0.083772
0.929152 0.529076 0.0696574
0.92784 0.547738 0.0658579
0.927153 0.570855 0.0628977
0.927184 0.595666 0.0626993
0.00863661 0.649287 4.57771e-05
0.00863661 0.633539 0.000244144
0.00907912 0.62005 0.000183108
0.00805676 0.610086 0.000122072
0.00775158 0.601328 0.000259403
0.00833143 0.593393 0.000656138
0.00814832 0.586145 0.000427253
0.00999466 0.577554 4.57771e-05
0.0382391 0.568322 0.000549325
0.102434 0.559442 0.000503548
0.169207 0.549187 0.000213626
0.236789 0.536263 6.10361e-05
0.309483 0.527108 0.000671397
0.40238 0.51809 0.00015259
0.504921 0.514031 0.000534066
0.610864 0.514382 0.00872816
0.715267 0.521263 0.0258488
0.815396 0.533806 0.0425116
0.905684 0.552483 0.0596628
0.927825 0.565744 0.0647746
0.928115 0.555306 0.0648661
0.928038 0.546777 0.0654002
0.928389 0.536995 0.0673838
0.929412 0.530266 0.0670176
0.928908 0.524971 0.0742809
0.928862 0.523125 0.0704204
0.929335 0.523903 0.0717021
0.929046 0.528222 0.0719005
0.929656 0.535943 0.0670634
0.928801 0.548043 0.0639506
0.927352 0.563699 0.0646372
0.926986 0.583871 0.0624704
0.926925 0.60647 0.0625467
0.00920119 0.718837 0.000335698
0.00906386 0.70959 0.000396735
0.00886549 0.701503 0.000381476
0.00889601 0.694286 0.00030518
0.00894179 0.688014 0.000244144
0.00920119 0.681178 0.000259403
0.00946059 0.675212 0.000274662
0.0146944 0.668345 0.000228885
0.0234379 0.660105 0.000167849
0.092195 0.652506 0.000137331
0.158618 0.643122 7.62951e-05
0.225269 0.632593 1.5259e-05
0.299351 0.6215 0.000320439
0.389685 0.612177 0.000274662
0.489723 0.604059 0
0.592599 0.600839 0.00122072
0.692515 0.599603 0.0135805
0.789166 0.604578 0.0344854
0.881453 0.615106 0.0530556
0.925566 0.62536 0.0613107
0.92694 0.612222 0.0625772
0.927108 0.595804 0.0626078
0.927291 0.581048 0.0634012
0.92694 0.573022 0.0628061
0.927825 0.564858 0.0653086
0.927596 0.559716 0.0651713
0.928527 0.557809 0.0638132
0.927672 0.558633 0.0649424
0.927962 0.563378 0.0647135
0.927947 0.571893 0.0622873
0.92726 0.583764 0.0633402
0.927245 0.599664 0.0625467
0.926528 0.620386 0.0618601
0.00924697 0.786404 0.000106813
0.00892653 0.780575 0.000167849
0.00862135 0.775143 0.000244144
0.00846876 0.770275 0.00015259
0.00833143 0.765911 6.10361e-05
0.00881972 0.761517 0
0.0105135 0.756848 3.0518e-05
0.0124971 0.7514 4.57771e-05
0.0400549 0.745602 0.000320439
0.08542 0.738796 0.000747692
0.149111 0.731106 0.000457771
0.218051 0.721843 0.000381476
0.292882 0.712047 0.000411994
0.376913 0.70161 0.00047303
0.475441 0.692622 4.57771e-05
0.574853 0.683513 1.5259e-05
0.674037 0.678203 0.00437934
0.767132 0.677104 0.0249485
0.855161 0.680949 0.0441444
0.920302 0.686107 0.0562905
0.925597 0.675914 0.0584268
0.925597 0.652567 0.0590982
0.926604 0.629755 0.0611124
0.926375 0.618097 0.060914
0.926009 0.60856 0.0616312
0.926986 0.600855 0.0634165
0.927108 0.595804 0.0623026
0.926619 0.593393 0.0617685
0.927214 0.594308 0.062623
0.927214 0.599634 0.0607919
0.926833 0.607919 0.0625467
0.926635 0.620996 0.060502
0.926024 0.637858 0.0608072
0.00950637 0.851133 0.000915541
0.00909438 0.847608 0.000915541
0.00868238 0.843961 0.000900282
0.00872816 0.840543 0.000961318
0.0087892 0.837308 0.00102235
0.00883497 0.834165 0.00108339
0.0114595 0.830732 0.0010071
0.0168917 0.826688 0.00077821
0.0238956 0.821363 0.00047303
0.0721141 0.815824 0.000228885
0.152514 0.809476 0
0.213565 0.801892 0.000717174
0.285496 0.791623 0.000534066
0.371511 0.781552 0.000656138
0.463905 0.772091 9.15541e-05
0.563577 0.762875 0.000427253
0.656672 0.755383 0.00112917
0.746654 0.750393 0.0167544
0.833326 0.746929 0.0378119
0.914137 0.74667 0.0515908
0.926528 0.740169 0.0556954
0.926375 0.713649 0.0569467
0.925994 0.684764 0.0575418
0.926192 0.666499 0.0591287
0.926024 0.655451 0.0601511
0.925902 0.646113 0.0595102
0.925856 0.638682 0.0595102
0.926055 0.633051 0.0614939
0.926192 0.63093 0.060853
0.926345 0.631907 0.0611887
0.927001 0.636316 0.0616007
0.925887 0.64538 0.0594949
0.926467 0.658183 0.0608377
0.0129549 0.905531 0.000137331
0.0127718 0.903243 6.10361e-05
0.0126955 0.900938 0
0.0136263 0.898695 1.5259e-05
0.0145113 0.896391 3.0518e-05
0.0153811 0.894133 4.57771e-05
0.0162203 0.89192 4.57771e-05
0.0291142 0.889418 6.10361e-05
0.0584268 0.885954 4.57771e-05
0.0973678 0.881361 4.57771e-05
0.149386 0.876265 3.0518e-05
0.214221 0.870314 0
0.284184 0.861936 0
0.363165 0.853544 0.000686656
0.453605 0.843519 0.000244144
0.548089 0.834134 0
0.639811 0.826383 0.000244144
0.727123 0.817716 0.00860609
0.810391 0.811109 0.0288243
0.891356 0.806226 0.0459754
0.926787 0.802075 0.0527199
0.926497 0.776089 0.055024
0.926513 0.742916 0.0562753
0.925917 0.716686 0.0560464
0.924987 0.704768 0.0566567
0.925597 0.693202 0.0581216
0.925963 0.683574 0.0583658
0.925277 0.67599 0.0585184
0.925994 0.67097 0.0583963
0.925994 0.668849 0.0581216
0.926421 0.669749 0.0580911
0.926055 0.674449 0.0585184
0.92549 0.683497 0.0591135
0.0155337 0.956115 0.000381476
0.0149844 0.954604 0.00047303
0.0147402 0.953033 0.000564584
0.0175326 0.951217 0.00047303
0.020325 0.949401 0.000381476
0.0229801 0.947677 0.000289921
0.0257725 0.945861 0.000198367
0.0285649 0.943923 9.15541e-05
0.0461891 0.941161 1.5259e-05
0.0946212 0.937575 4.57771e-05
0.154406 0.933272 9.15541e-05
0.215183 0.927382 7.62951e-05
0.279942 0.919799 1.5259e-05
0.354192 0.913832 0
0.440696 0.906264 0.000274662
0.531853 0.898573 0.000228885
0.621027 0.889784 1.5259e-05
0.707652 0.880354 0.00529488
0.789212 0.87274 0.0232548
0.868681 0.86569 0.0398413
0.927306 0.858701 0.0553292
0.926284 0.83621 0.0545815
0.927138 0.803525 0.0536812
0.926543 0.769818 0.0554208
0.926726 0.754177 0.0556497
0.925521 0.742535 0.0568399
0.926375 0.730678 0.0550698
0.92607 0.721111 0.056733
0.92636 0.713344 0.057023
0.926421 0.708659 0.0551308
0.925917 0.70634 0.0567025
0.925978 0.707439 0.0566415
0.925002 0.712825 0.0563058
0.0245823 0.995117 0.000122072
0.0251774 0.994598 9.15541e-05
0.0303197 0.993835 0.000122072
0.0425879 0.99263 0.000198367
0.0540932 0.991485 0.000259403
0.0659953 0.990326 0.000335698
0.0768597 0.989334 0.000396735
0.0909438 0.987945 0.000488289
0.109102 0.986145 0.000595102
0.137057 0.983871 0.000579843
0.176852 0.981186 0.000366217
0.228916 0.977539 9.15541e-05
0.286503 0.972747 0
0.354528 0.966628 0
0.434104 0.959533 0
0.519722 0.952819 6.10361e-05
0.607019 0.945663 0.000442512
0.688716 0.938033 0.000808728
0.767575 0.928252 0.0169528
0.843336 0.918425 0.0340429
0.909606 0.909392 0.0497139
0.928222 0.891707 0.0531472
0.927367 0.860914 0.0554971
0.927611 0.825452 0.0555123
0.927398 0.803906 0.0548257
0.92665 0.791119 0.056199
0.927199 0.778744 0.0551003
0.926116 0.768078 0.0555734
0.927108 0.758587 0.0561532
0.927306 0.750927 0.055375
0.926116 0.745769 0.0562448
0.926802 0.74345 0.056733
0.926192 0.744945 0.0548409
0.0291752 0.999847 0.000244144
0.0293431 0.999847 0.000244144
0.0439307 0.999786 0.000274662
0.0584573 0.999741 0.00030518
0.0742657 0.99968 0.000335698
0.0881666 0.999619 0.000350958
0.103334 0.999557 0.000381476
0.121035 0.999496 0.000411994
0.144411 0.999405 0.000457771
0.175387 0.999283 0.000518807
0.208972 0.999268 0.000518807
0.24712 0.999329 0.000457771
0.295659 0.999435 0.000396735
0.35433 0.999023 0.000488289
0.425422 0.998245 0.000640879
0.501778 0.994232 0.000122072
0.582589 0.988083 6.10361e-05
0.664363 0.980194 0.000335698
0.741787 0.97203 0.00958267
0.814817 0.964172 0.026978
0.88365 0.952651 0.0424048
0.930312 0.938155 0.0546731
0.929503 0.91371 0.0558633
0.92813 0.88127 0.0537728
0.927977 0.853498 0.0539864
0.927398 0.839292 0.0560006
0.926802 0.827695 0.0544289
0.927337 0.815732 0.0543069
0.926879 0.804685 0.0560159
0.926863 0.795697 0.0539559
0.927275 0.787869 0.0542458
0.927031 0.782818 0.0553292
0.926345 0.78085 0.0551919
0.14081 0.999512 0
0.149401 0.999527 0
0.158541 0.999542 0
0.16672 0.999557 0
0.175372 0.999573 0
0.183551 0.999588 0
0.192218 0.999603 0
0.202319 0.999619 0
0.215488 0.999649 0
0.233295 0.99968 0
0.25687 0.999725 0
0.285344 0.999786 1.5259e-05
0.320256 0.999863 6.10361e-05
0.365332 0.999969 0.000106813
0.421653 0.999924 6.10361e-05
0.490059 0.999786 0
0.561791 0.999191 0
0.637919 0.999481 0
0.711925 0.999939 0.00352483
0.78468 0.999435 0.020737
0.853284 0.989181 0.0359808
0.917098 0.977951 0.0509346
0.931807 0.960143 0.0561074
0.930388 0.931884 0.0565805
0.928557 0.898131 0.0532082
0.928527 0.886137 0.0530251
0.928237 0.874083 0.0546426
0.92755 0.862364 0.0529641
0.926619 0.851041 0.0548562
0.927031 0.840955 0.0533608
0.927703 0.832151 0.05449
0.927413 0.824079 0.055314
0.927199 0.819654 0.0563516
0.228016 0.999374 1.5259e-05
0.2336 0.999405 1.5259e-05
0.239628 0.99942 1.5259e-05
0.245212 0.999451 1.5259e-05
0.250797 0.999481 1.5259e-05
0.256062 0.999512 1.5259e-05
0.261662 0.999542 1.5259e-05
0.268528 0.999573 1.5259e-05
0.277562 0.999603 1.5259e-05
0.289601 0.999664 1.5259e-05
0.305928 0.999741 1.5259e-05
0.327001 0.999847 1.5259e-05
0.354467 0.999893 0
0.389364 0.999939 0
0.434409 0.999985 0
0.486397 0.999924 0
0.548333 0.999863 7.62951e-05
0.614145 0.999939 0.00077821
0.683314 0.999435 0.000183108
0.751186 0.999573 0.00901808
0.820203 0.999588 0.0347601
0.885863 0.999298 0.0589456
0.931182 0.99469 0.0682536
0.931624 0.976135 0.0562295
0.931044 0.948745 0.0544442
0.931273 0.928679 0.054139
0.929061 0.917296 0.0550088
0.929259 0.90576 0.0534218
0.928206 0.894743 0.0543374
0.928573 0.884611 0.0542916
0.928832 0.874525 0.0544594
0.92752 0.866072 0.0541695
0.927749 0.85948 0.0533761
0.299123 0.999802 0.000701915
0.303456 0.999802 0.000717174
0.30779 0.999786 0.000732433
0.312123 0.999786 0.000732433
0.316457 0.999786 0.000747692
0.320363 0.999771 0.000762951
0.324697 0.999771 0.00077821
0.3299 0.999771 0.00077821
0.336843 0.999756 0.000808728
0.345953 0.999741 0.000823987
0.358526 0.999725 0.000854505
0.375006 0.99971 0.000900282
0.396246 0.99968 0.000946059
0.421515 0.999695 0.000762951
0.45449 0.999695 0.000488289
0.495933 0.99971 0.00015259
0.542397 0.999725 0.000335698
0.59765 0.999786 0.000488289
0.658869 0.999954 7.62951e-05
0.722622 0.999969 0.00709545
0.785901 0.999542 0.0233921
0.851514 0.999374 0.0490425
0.910735 0.999817 0.0730144
0.933654 0.999603 0.0794385
