Luts/Fujifilm/FLog2C_to_WDR_VLog.cube
TITLE "Generated by Resolve"
LUT_3D_SIZE 9
0 0 0
0 0 0
0.129946 0.0155489 0.0155489
0.335317 0.0397803 0.0397803
0.653132 0.0610361 0.0610361
0.84152 0.0675975 0.0675975
0.84152 0.0675975 0.0675975
0.936233 0.355001 0.0621958
1 0.703182 0
0 0 0
0.00175479 0.000213626 0.000213626
0.145342 0.0173953 0.0173953
0.340169 0.0403296 0.0403296
0.651835 0.0609903 0.0609903
0.84152 0.0675975 0.0675975
0.84152 0.0675975 0.0675975
0.945281 0.383978 0.0576791
1 0.708064 0
0.0260166 0.123537 0.0260166
0.0260624 0.123751 0.0260624
0.122362 0.121904 0.0350347
0.338567 0.0972763 0.0480201
0.638254 0.0603494 0.0603494
0.84152 0.0675975 0.0675975
0.84152 0.0675975 0.0675975
0.956573 0.413428 0.0493477
1 0.713787 0
0.0572213 0.322377 0.0572213
0.0567941 0.318288 0.0567941
0.0561685 0.311894 0.0561227
0.317464 0.320775 0.0669261
0.664652 0.284321 0.0705272
0.899138 0.227008 0.0699016
0.915557 0.282353 0.0678264
0.98024 0.484382 0.0270085
1 0.730266 0
0.0704967 0.608331 0.0704967
0.0705272 0.605081 0.0705272
0.0705425 0.601007 0.0705425
0.0740368 0.589288 0.070573
0.587472 0.600702 0.0497139
0.921386 0.57203 0.009308
0.999176 0.562417 0.00137331
1 0.624582 0
1 0.773953 0
0.0575875 0.837095 0.0575875
0.0581369 0.834211 0.0581369
0.0587472 0.831006 0.0587472
0.0603342 0.822416 0.0603342
0.449485 0.848112 0.000228885
0.795743 0.823148 0
1 0.801602 0
1 0.802426 0
1 0.860319 0
0.16524 0.999908 0.00015259
0.196216 0.999924 0.000122072
0.232776 0.999939 0.000106813
0.327581 1 0
0.493919 0.999741 0
0.718227 0.986984 0
0.93312 0.969329 0
1 0.956191 0
1 0.970871 0
0.634028 1 0
0.637247 1 0
0.640833 1 0
0.651804 1 0
0.684047 1 0
0.761151 1 0
0.88838 1 0
1 1 0
1 1 0
0.913314 1 0
0.913802 1 0
0.914382 1 0
0.916152 1 0
0.921813 1 0
0.938552 1 0
0.980179 1 0
1 1 0
1 1 0
0 0 0
0 0 0
0.129458 0.0154879 0.0154879
0.334218 0.0396735 0.0396735
0.653132 0.0610361 0.0610361
0.84152 0.0675975 0.0675975
0.84152 0.0675975 0.0675975
0.936294 0.355245 0.0621653
1 0.703304 0
0 0 0
0 0 0
0.144976 0.0173495 0.0173495
0.33991 0.0402991 0.0402991
0.651743 0.0609751 0.0609751
0.84152 0.0675975 0.0675975
0.84152 0.0675975 0.0675975
0.945357 0.384176 0.0576333
1 0.708064 0
0.0261387 0.124147 0.0261387
0.026154 0.124147 0.026154
0.121859 0.122499 0.035111
0.33817 0.0970474 0.0479591
0.638041 0.0603494 0.0603494
0.84152 0.0675975 0.0675975
0.84152 0.0675975 0.0675975
0.956573 0.413428 0.0493477
1 0.713787 0
0.0572213 0.322377 0.0572213
0.0568246 0.318532 0.0568246
0.0561379 0.312078 0.0561379
0.317327 0.321035 0.0669413
0.664302 0.284901 0.0705272
0.89929 0.227497 0.0698863
0.91548 0.282078 0.0678264
0.98024 0.484382 0.0270085
1 0.730266 0
0.0704967 0.608316 0.0704967
0.0705272 0.605035 0.0705272
0.0705425 0.601007 0.0705425
0.07393 0.58941 0.070573
0.587472 0.600702 0.0497139
0.921386 0.57203 0.009308
0.999176 0.562417 0.00137331
1 0.624582 0
1 0.773953 0
0.0575875 0.837064 0.0575875
0.0581521 0.834211 0.0581521
0.0587625 0.830945 0.0587625
0.0603342 0.822492 0.0603342
0.449454 0.848066 0.000228885
0.795666 0.82324 0
1 0.801602 0
1 0.802533 0
1 0.860319 0
0.164462 0.999908 0.00015259
0.195224 0.999893 0.00015259
0.232151 0.999924 0.000106813
0.326589 1 0
0.4934 0.999725 0
0.71812 0.986725 0
0.93312 0.969329 0
1 0.956191 0
1 0.970871 0
0.633265 1 0
0.636484 1 0
0.640085 1 0
0.651072 1 0
0.68336 1 0
0.760586 1 0
0.888045 1 0
1 1 0
1 1 0
0.912764 1 0
0.913252 1 0
0.913832 1 0
0.915602 1 0
0.921279 1 0
0.938018 1 0
0.979675 1 0
1 1 0
1 1 0
0.00477607 0.00477607 0.0970016
0.00477607 0.00477607 0.0970016
0.130907 0.0198367 0.111421
0.33875 0.0430915 0.131533
0.659327 0.0627146 0.148318
0.847349 0.0683299 0.138338
0.841749 0.067628 0.0703441
0.936355 0.355459 0.06215
1 0.703304 0
0.00479133 0.00479133 0.0971237
0.0047303 0.0047303 0.0961624
0.144549 0.0214389 0.112398
0.344854 0.0436255 0.13225
0.657481 0.062623 0.14667
0.846494 0.0682383 0.127749
0.841566 0.0676127 0.0682231
0.945418 0.384329 0.0575875
1 0.708064 0
0.0282902 0.11812 0.11165
0.0282139 0.117845 0.111116
0.116716 0.116747 0.116976
0.337667 0.0870069 0.129381
0.643061 0.0618143 0.133104
0.84535 0.0680858 0.113802
0.84152 0.0675975 0.0675975
0.956634 0.41355 0.0493019
1 0.713787 0
0.0580606 0.320424 0.111131
0.0576486 0.316442 0.109926
0.0569314 0.309773 0.107088
0.315618 0.31693 0.115129
0.663691 0.279454 0.104784
0.897475 0.220325 0.0775921
0.914305 0.278019 0.0680095
0.980255 0.484443 0.026978
1 0.730266 0
0.0705119 0.605234 0.0705119
0.0705272 0.601984 0.0705272
0.0705425 0.598062 0.0705425
0.0731975 0.586221 0.070573
0.58587 0.597528 0.0506905
0.920104 0.569009 0.0104067
0.998718 0.560311 0.002121
1 0.624506 0
1 0.773953 0
0.0580758 0.834531 0.0580758
0.0586099 0.831724 0.0586099
0.0592203 0.828443 0.0592203
0.0608072 0.819883 0.0608072
0.447715 0.845731 0.00030518
0.794919 0.820935 0
1 0.79968 0
1 0.802182 0
1 0.860319 0
0.160372 0.999893 0.000167849
0.19144 0.999893 0.000167849
0.229358 0.999924 0.000106813
0.324651 1 0
0.492119 0.998245 0
0.717235 0.984848 0
0.932509 0.967422 0
1 0.955566 0
1 0.970871 0
0.632258 1 0
0.635294 1 0
0.639094 1 0
0.650095 1 0
0.682445 1 0
0.759762 1 0
0.887251 1 0
1 1 0
1 1 0
0.912093 1 0
0.912581 1 0
0.913176 1 0
0.914931 1 0
0.920623 1 0
0.937377 1 0
0.979049 1 0
1 1 0
1 1 0
0.0121004 0.0121004 0.245518
0.0121004 0.0121004 0.245594
0.125505 0.0256504 0.258701
0.343725 0.0479896 0.285649
0.669123 0.0654154 0.317647
0.861921 0.069749 0.324315
0.859693 0.0695811 0.295064
0.941054 0.339208 0.210452
1 0.700557 0
0.0120699 0.0120699 0.244877
0.0120851 0.0120851 0.245151
0.13814 0.0271305 0.259632
0.349645 0.0484474 0.286519
0.667124 0.0653544 0.316793
0.861616 0.0697337 0.320287
0.859342 0.0695506 0.290364
0.950729 0.369024 0.201968
1 0.705318 0
0.0279088 0.087953 0.257435
0.0279088 0.0880293 0.257069
0.102419 0.0795453 0.262257
0.331365 0.0558938 0.281605
0.653223 0.0648051 0.310369
0.861219 0.0697032 0.315084
0.8589 0.0695201 0.284566
0.961578 0.399191 0.189654
1 0.71104 0
0.0606699 0.31342 0.294148
0.0603342 0.309682 0.293172
0.059678 0.302678 0.29102
0.307362 0.307332 0.307561
0.666087 0.26183 0.319295
0.90309 0.193103 0.310811
0.920119 0.257603 0.279194
0.983978 0.471794 0.153826
1 0.727611 0
0.0700542 0.605097 0.282109
0.0701152 0.601724 0.281529
0.0701762 0.597772 0.280369
0.0708171 0.585306 0.27744
0.584787 0.591379 0.267765
0.92282 0.557549 0.230198
1 0.54931 0.191485
1 0.614801 0.0767834
1 0.77142 0
0.0523232 0.834852 0.194705
0.0529641 0.831983 0.194583
0.053727 0.828687 0.193713
0.0557107 0.81976 0.19266
0.4421 0.838788 0.147387
0.79237 0.813565 0.13022
1 0.792218 0.0885023
1 0.794659 0.00486763
1 0.857923 0
0.147539 0.999832 0.0352026
0.179995 0.999817 0.0347448
0.219211 0.999786 0.0337835
0.317784 0.9991 0.0314488
0.488151 0.992462 0.0248875
0.714412 0.978912 0.0120394
0.930404 0.961318 0
1 0.949447 0
1 0.968368 0
0.629236 1 0
0.632288 1 0
0.636103 1 0
0.647166 1 0
0.679484 1 0
0.757153 1 0
0.885161 1 0
1 1 0
1 1 0
0.910063 1 0.184619
0.910552 1 0.184604
0.911147 1 0.184298
0.912917 1 0.183948
0.918608 1 0.182605
0.935393 1 0.175952
0.977096 1 0.154314
1 1 0.081117
1 1 0
0.0220645 0.0220645 0.447913
0.0220645 0.0220645 0.448005
0.0877241 0.0299229 0.455634
0.340337 0.0532082 0.498146
0.676646 0.0679942 0.546029
0.879149 0.0705577 0.564446
0.878294 0.0705425 0.552026
0.94667 0.287297 0.551568
1 0.674022 0.471656
0.0220645 0.0220645 0.447959
0.0220645 0.0220645 0.447913
0.105165 0.0319982 0.457649
0.344076 0.0534524 0.498466
0.674037 0.0679332 0.544976
0.878996 0.0705577 0.562234
0.878141 0.0705425 0.54963
0.958633 0.32105 0.552789
1 0.678996 0.470832
0.021973 0.0219883 0.445853
0.021973 0.0219883 0.445731
0.0456703 0.0247807 0.44828
0.322652 0.051957 0.492271
0.660121 0.0675669 0.54049
0.878798 0.0705577 0.559335
0.877943 0.0705425 0.546761
0.970886 0.35465 0.552285
1 0.684977 0.470024
0.061265 0.27808 0.512581
0.0609751 0.274769 0.511574
0.0602731 0.266972 0.50898
0.287892 0.262684 0.536248
0.653208 0.200061 0.558663
0.887373 0.0980087 0.555718
0.914214 0.184436 0.557733
0.99353 0.432456 0.546227
1 0.70219 0.467048
0.0690929 0.590845 0.553872
0.0691997 0.587366 0.55314
0.0693217 0.583246 0.552254
0.069688 0.570336 0.549401
0.569589 0.569451 0.569619
0.91725 0.527825 0.566934
1 0.518746 0.555474
1 0.586755 0.529824
1 0.7476 0.459403
0.0371862 0.83151 0.54049
0.0379492 0.828504 0.540307
0.038819 0.825177 0.539788
0.0410468 0.816266 0.53901
0.427482 0.819898 0.535683
0.785367 0.793896 0.531533
1 0.771603 0.523384
1 0.773434 0.50367
1 0.836728 0.443091
0.109667 0.988418 0.504326
0.145556 0.987625 0.504219
0.188907 0.986694 0.504097
0.298878 0.984115 0.503746
0.476417 0.977111 0.502342
0.70695 0.962966 0.499321
0.924971 0.944778 0.492638
1 0.932113 0.475456
1 0.949905 0.420661
0.621057 1 0.482979
0.62414 1 0.482948
0.628 1 0.482918
0.6392 1 0.482658
0.672129 1 0.481865
0.750561 1 0.479942
0.879667 1 0.474723
1 1 0.459403
1 1 0.408789
0.90547 1 0.508568
0.905974 1 0.508568
0.906569 1 0.5084
0.908339 1 0.508385
0.914061 1 0.507866
0.930831 1 0.506767
0.972778 1 0.503029
1 1 0.491096
1 1 0.451118
0.0297551 0.0297551 0.604028
0.0297551 0.0297551 0.604028
0.0297551 0.0297551 0.603983
0.313726 0.0553597 0.660807
0.673365 0.0692302 0.724269
0.891447 0.0704356 0.751339
0.89099 0.0704662 0.74403
0.935866 0.21709 0.760235
1 0.641382 0.76492
0.0297551 0.0297551 0.60383
0.0297398 0.0297398 0.6038
0.0297398 0.0297398 0.603647
0.314382 0.0553902 0.660471
0.668315 0.0691386 0.722622
0.89134 0.0704509 0.749706
0.890883 0.0704662 0.742382
0.951125 0.260884 0.769406
1 0.646616 0.764431
0.0296635 0.0296635 0.60209
0.0296635 0.0296635 0.60206
0.0296483 0.0296483 0.601923
0.290257 0.0537728 0.653391
0.654154 0.068864 0.71841
0.891203 0.0704509 0.747524
0.890745 0.0704662 0.740215
0.967193 0.300496 0.778027
1 0.652934 0.763851
0.0595102 0.227207 0.668772
0.0594949 0.227237 0.668696
0.0585184 0.217639 0.664912
0.226108 0.200961 0.687648
0.62031 0.108644 0.718257
0.890791 0.0704662 0.7411
0.902815 0.108095 0.743679
0.993301 0.386404 0.788205
1 0.670924 0.762173
0.0685435 0.569635 0.748119
0.0686656 0.56611 0.747234
0.0688334 0.561883 0.746151
0.069276 0.548348 0.742702
0.553521 0.537575 0.788693
0.90782 0.492485 0.79826
1 0.481621 0.792554
1 0.552712 0.780789
1 0.718303 0.757549
0.0295415 0.816861 0.76817
0.0303655 0.813901 0.76759
0.0313268 0.810376 0.766903
0.0338293 0.801099 0.765057
0.401175 0.79762 0.776257
0.771817 0.771649 0.771817
0.999161 0.746822 0.770199
1 0.747936 0.763256
1 0.810681 0.747356
0.0532387 0.970138 0.753841
0.0838788 0.969314 0.753765
0.134844 0.968322 0.753689
0.268742 0.965637 0.753353
0.459205 0.958282 0.752743
0.697002 0.943664 0.751171
0.918166 0.92488 0.748638
1 0.911223 0.743877
1 0.927474 0.732815
0.610117 1 0.7355
0.61326 1 0.735485
0.617182 1 0.73547
0.62855 1 0.735302
0.662272 1 0.735103
0.742199 1 0.734295
0.872755 1 0.732616
1 1 0.728908
1 1 0.720027
0.899397 1 0.73843
0.899886 1 0.73843
0.900481 1 0.738415
0.902266 1 0.738399
0.908034 1 0.738262
0.925002 1 0.737926
0.967208 1 0.736873
1 1 0.734173
1 1 0.72639
0.0349584 0.0349584 0.709682
0.0349584 0.0349584 0.709682
0.0349584 0.0349584 0.709682
0.2112 0.051133 0.751644
0.645335 0.0695048 0.84239
0.899336 0.0700236 0.879271
0.898985 0.0700389 0.873472
0.928161 0.165988 0.887449
1 0.616434 0.930251
0.0349279 0.0349279 0.708873
0.0349279 0.0349279 0.708843
0.0349126 0.0349126 0.708812
0.190097 0.0495003 0.745174
0.633463 0.0693065 0.838926
0.899245 0.0700236 0.877791
0.898894 0.0700542 0.871992
0.94493 0.211933 0.901884
1 0.621775 0.92987
0.0348516 0.0348516 0.707393
0.0348516 0.0348516 0.707362
0.0348516 0.0348516 0.707347
0.145983 0.0459144 0.731945
0.61944 0.0690318 0.83473
0.899138 0.0700389 0.87602
0.898787 0.0700542 0.870207
0.963104 0.261814 0.917388
1 0.628229 0.929397
0.0580148 0.193439 0.771511
0.0581369 0.194629 0.772015
0.0583658 0.196796 0.7729
0.0555123 0.162692 0.757687
0.572442 0.0687266 0.82121
0.894163 0.0700999 0.869886
0.899931 0.0747692 0.866163
0.992721 0.352316 0.940261
1 0.647044 0.928054
0.0680247 0.557931 0.878599
0.0681315 0.555367 0.877867
0.0683146 0.551019 0.876616
0.0688334 0.537179 0.872618
0.501869 0.518547 0.926604
0.892576 0.466789 0.950301
1 0.453864 0.946029
1 0.526253 0.937942
1 0.695399 0.924361
0.024445 0.806409 0.919753
0.0253452 0.803296 0.918959
0.0264134 0.799527 0.917998
0.0292668 0.789395 0.915328
0.343755 0.780545 0.932296
0.760983 0.750973 0.930388
0.997696 0.726268 0.92784
1 0.726665 0.923674
1 0.790082 0.916167
0.00805676 0.955016 0.913741
0.0110018 0.954208 0.913664
0.032639 0.95314 0.913603
0.197604 0.950271 0.913405
0.429526 0.942504 0.912886
0.684001 0.927199 0.911757
0.908949 0.908568 0.908888
1 0.893477 0.907729
1 0.909255 0.904189
0.59678 1 0.89781
0.600168 1 0.897795
0.604135 1 0.89778
0.615869 1 0.897719
0.650858 1 0.897505
0.733013 1 0.897078
0.866087 1 0.896071
0.999069 1 0.894606
1 1 0.892744
0.893248 1 0.89659
0.893751 1 0.896574
0.894347 1 0.896574
0.896147 1 0.896559
0.901946 1 0.896468
0.919066 1 0.896345
0.961746 1 0.895918
1 1 0.895125
1 1 0.893584
0.0356298 0.0356298 0.723125
0.0356298 0.0356298 0.723125
0.0356298 0.0356298 0.723125
0.0356298 0.0356298 0.723125
0.491493 0.0659648 0.830594
0.900618 0.0699168 0.900618
0.900618 0.0699168 0.900618
0.939971 0.194476 0.939971
1 0.605554 1
0.0356298 0.0356298 0.723125
0.0356298 0.0356298 0.723125
0.0356298 0.0356298 0.723125
0.0356298 0.0356298 0.723125
0.478294 0.065507 0.827893
0.900603 0.0699168 0.900618
0.900618 0.0699168 0.900618
0.954665 0.234272 0.954665
1 0.610925 1
0.0356298 0.0356298 0.723125
0.0356298 0.0356298 0.723125
0.0356298 0.0356298 0.723125
0.0356298 0.0356298 0.723125
0.461295 0.0648966 0.824369
0.889723 0.0700389 0.899062
0.900618 0.0699168 0.900618
0.970092 0.272175 0.970092
1 0.617319 1
0.063508 0.249271 0.817243
0.0635538 0.249989 0.817517
0.0636606 0.251423 0.818082
0.0639506 0.255726 0.819791
0.433402 0.191684 0.864225
0.859358 0.0883955 0.899687
0.907256 0.0909895 0.907256
0.996109 0.354971 0.996109
1 0.635508 1
0.0674601 0.562158 0.919036
0.0674449 0.562463 0.919112
0.0674296 0.562768 0.919188
0.0675212 0.560769 0.918685
0.300175 0.530739 0.941894
0.853986 0.474678 1
1 0.454871 1
1 0.519249 1
1 0.68333 1
0.0190585 0.81268 0.986984
0.0199435 0.809674 0.986297
0.0210117 0.805982 0.985443
0.0243076 0.794614 0.982757
0.115694 0.772381 0.989029
0.727779 0.742885 1
0.994064 0.715724 1
1 0.714702 1
1 0.777462 1
0 0.948363 1
0 0.947387 1
0 0.946136 1
0 0.942657 1
0.353338 0.933806 1
0.658259 0.916884 1
0.902037 0.896071 1
1 0.881224 1
1 0.896773 1
0.572885 1 0.998764
0.576761 1 0.998764
0.581537 1 0.998749
0.594171 1 0.998718
0.632136 1 0.998611
0.719799 1 0.998352
0.85864 1 0.997833
0.995697 0.996277 0.996628
1 0.997589 0.996826
0.886717 1 0.997406
0.887221 1 0.997391
0.887816 1 0.997391
0.889632 1 0.997391
0.895659 1 0.99736
0.913207 1 0.997299
0.956725 1 0.997101
1 1 0.996872
1 1 0.996735
0.0628977 0.240864 0.813886
0.062974 0.242054 0.814359
0.0630808 0.243503 0.814939
0.0633707 0.247578 0.816556
0.0643626 0.261479 0.822065
0.763882 0.0953841 0.887083
0.907683 0.0916915 0.907683
0.995895 0.351934 0.995895
1 0.634028 1
0.0664988 0.291707 0.834043
0.0665904 0.292897 0.834516
0.0666667 0.294072 0.834974
0.0668193 0.297627 0.836271
0.0673381 0.308995 0.840421
0.776425 0.182803 0.913985
0.930526 0.16347 0.930526
0.997238 0.370489 0.997238
1 0.638483 1
0.0688792 0.343084 0.852857
0.068925 0.343969 0.853178
0.0689708 0.345083 0.85359
0.0691081 0.348211 0.854734
0.0693828 0.357458 0.857923
0.779614 0.253391 0.932723
0.953506 0.231144 0.953506
0.998825 0.392264 0.998825
1 0.6439 1
0.0705272 0.450584 0.888182
0.0705119 0.450919 0.888289
0.0705119 0.451621 0.888487
0.0704814 0.45333 0.888991
0.0704051 0.459022 0.890654
0.774289 0.376303 0.971817
0.992325 0.338415 0.992325
1 0.447883 1
1 0.659464 1
0.0633555 0.62623 0.934737
0.0633555 0.626368 0.934768
0.0633249 0.626657 0.934844
0.0632486 0.627359 0.935012
0.0630045 0.629877 0.935653
0.711269 0.56524 1
1 0.527565 1
1 0.565454 1
1 0.700893 1
0.0121004 0.835889 0.992111
0.0120699 0.836011 0.992142
0.0120699 0.836011 0.992142
0.0119631 0.836347 0.992218
0.0158541 0.823453 0.98941
0.606119 0.769848 1
0.974914 0.734859 1
1 0.729763 1
1 0.785916 1
0 0.975662 1
0 0.973449 1
0 0.970916 1
0 0.964294 1
0 0.949111 1
0.577508 0.925444 1
0.883619 0.900908 1
1 0.884749 1
1 0.89926 1
0.501869 1 1
0.507179 1 1
0.513832 1 1
0.53167 1 1
0.581811 1 1
0.68983 1 1
0.846998 1 1
0.995514 0.996139 1
1 0.997848 1
0.878523 1 1
0.879057 1 1
0.879759 1 1
0.881666 1 1
0.887892 1 1
0.906722 1 1
0.952453 1 1
1 1 1
1 1 1
