Luts/Fujifilm/FLog2C_to_Velvia_VLog.cube
TITLE "Generated by Resolve"
LUT_3D_SIZE 9
0 0 0
0.000762951 0 0
0.362905 0 0
0.999222 0.0207065 0.251392
0.999893 0.286793 0.492287
0.999893 0.286793 0.492287
0.99971 0.291905 0.490394
0.999634 0.417914 0.351995
0.99942 0.570703 0.106096
0.00062562 0.00062562 0.00062562
0.000335698 7.62951e-05 0
0.217166 0 0.00158694
0.862913 0.000289921 0.0798352
0.999313 0.161791 0.488472
0.999893 0.286793 0.492287
0.999527 0.319493 0.462104
0.999603 0.430076 0.336187
0.999451 0.575143 0.0960861
0 0.140169 0
0.000122072 0.0636301 0.000640879
0.0587015 0.036286 0.000671397
0.60209 0.0161898 0
0.999496 0.112993 0.347341
0.999954 0.311971 0.469322
0.999069 0.350591 0.429313
0.999771 0.443687 0.316304
0.999496 0.580438 0.0842451
0.000137331 0.577081 0.000564584
0 0.423056 0
3.0518e-05 0.355688 0.000488289
0.390524 0.299596 3.0518e-05
0.996948 0.337697 0.000381476
0.999435 0.427955 0.326726
0.999466 0.428473 0.338109
0.999619 0.480735 0.264698
0.999634 0.595605 0.0502174
0 0.85095 0.000915541
0 0.818219 0.000961318
0 0.790829 1.5259e-05
0.00988785 0.745525 0.00030518
0.776196 0.635737 4.57771e-05
0.999039 0.63299 0
0.999405 0.577417 0.0917372
0.999146 0.574578 0.0961013
0.999237 0.643198 0
0 1 0.000289921
0 1 0.000289921
0 1 0.000289921
0 1 0.000289921
0.383169 0.976165 1.5259e-05
0.998642 0.858595 0.000106813
0.999115 0.743389 0.000396735
0.999268 0.713558 0.000106813
0.999786 0.712947 0.000442512
0 1 0.000289921
0 1 0.000289921
0 1 0.000289921
0 1 0.000289921
0 1 0.000289921
0.742504 0.999054 0.000213626
0.999649 0.948394 0
0.999222 0.900755 0.000366217
0.999542 0.862699 0
0 1 0.000289921
0 1 0.000289921
0 1 0.000289921
0 1 0.000289921
0 1 0.000289921
0.319768 0.999481 0.000289921
0.988525 0.974227 0
0.998886 0.969207 0
0.998871 0.968048 0.00015259
0.4542 0.999649 0.000503548
0.458061 0.999634 0.000488289
0.462699 0.999634 0.000488289
0.476677 0.999634 0.000442512
0.521553 0.999649 0.000335698
0.633875 0.999741 0.000106813
0.887037 0.988342 0.000320439
0.998627 0.968948 0
0.998627 0.968948 0
0 0 0
0.000244144 6.10361e-05 0
0.324514 0.000122072 0.000381476
0.999649 0.0101167 0.216297
0.999893 0.286793 0.492287
0.999893 0.286793 0.492287
0.99971 0.291981 0.490364
0.999619 0.418006 0.351873
0.99942 0.570809 0.105837
0.000442512 0.0018616 0.000228885
0 0 0
0.185168 6.10361e-05 0.00164797
0.816602 1.5259e-05 0.0588693
0.999908 0.143389 0.48661
0.999893 0.286793 0.492287
0.999649 0.320775 0.461311
0.999603 0.430167 0.336049
0.999451 0.575143 0.0960861
0.000106813 0.162844 0.0009308
3.0518e-05 0.0722972 0.000274662
0.0385748 0.0413519 0.000335698
0.565316 0.0225834 4.57771e-05
0.999847 0.11519 0.298741
0.99939 0.319783 0.461723
0.999176 0.35108 0.429328
0.999771 0.443687 0.316304
0.999496 0.580438 0.0842451
0 0.614954 3.0518e-05
0.000228885 0.447959 0
0.000198367 0.373541 0.000640879
0.33846 0.316884 7.62951e-05
0.980789 0.347784 1.5259e-05
0.999435 0.432258 0.306508
0.999664 0.429129 0.336263
0.999619 0.480735 0.264698
0.999634 0.595605 0.0502174
0 0.866941 0.000442512
6.10361e-05 0.835157 0.000442512
1.5259e-05 0.806729 0.000869764
1.5259e-05 0.760845 0.000122072
0.732494 0.649851 0.000122072
0.999237 0.639399 1.5259e-05
0.999054 0.579278 0.090547
0.999146 0.574578 0.0961013
0.999237 0.643198 0
0 1 0.000289921
0 1 0.000289921
0 1 0.000289921
0 1 0.000289921
0.235584 0.996078 0.000961318
0.999374 0.86981 0
0.998932 0.748135 3.0518e-05
0.999268 0.713619 0.000106813
0.999786 0.712947 0.000442512
0 1 0.000289921
0 1 0.000289921
0 1 0.000289921
0 1 0.000289921
0 1 0.000289921
0.640146 0.999313 0.000228885
0.99968 0.955428 0.000198367
0.999222 0.900755 0.000366217
0.999542 0.862699 0
0 1 0.000289921
0 1 0.000289921
0 1 0.000289921
0 1 0.000289921
0 1 0.000289921
0.0805982 0.999939 0.000289921
0.916991 0.984512 0
0.998627 0.968948 0
0.998871 0.968048 0.00015259
0.427466 0.999557 1.5259e-05
0.431525 0.999573 1.5259e-05
0.436362 0.999573 1.5259e-05
0.450904 0.999588 1.5259e-05
0.497734 0.999634 1.5259e-05
0.612284 0.999771 1.5259e-05
0.868315 0.990814 0.000289921
0.998627 0.968948 0
0.998627 0.968948 0
0 0.000289921 0.0344854
1.5259e-05 1.5259e-05 0.0124361
0.277928 4.57771e-05 0.00486763
0.986435 4.57771e-05 0.166339
0.999893 0.284092 0.492256
0.999893 0.286793 0.492287
0.999786 0.303014 0.478706
0.999344 0.429084 0.338537
0.99942 0.570809 0.105837
4.57771e-05 0 0.0966964
0 0.000167849 0.0411536
0.163577 0.000213626 0.0264744
0.760418 0.00015259 0.0717937
0.999695 0.112688 0.485267
0.999893 0.286793 0.492287
0.999252 0.336721 0.444282
0.999283 0.441001 0.322805
0.999451 0.575143 0.0960861
6.10361e-05 0.179278 0.198947
0.00062562 0.0800031 0.0758831
0.0402991 0.0413214 0.040116
0.542473 0.0174411 0.0463722
0.999191 0.104463 0.300618
0.99968 0.332738 0.44715
0.999664 0.369863 0.407218
0.999588 0.454597 0.303029
0.999496 0.580438 0.0842451
0.000183108 0.636149 0.0205386
3.0518e-05 0.495537 0.000350958
0 0.422538 0.000137331
0.32166 0.342077 0.000411994
0.947555 0.338293 0.00183108
0.999695 0.437888 0.333074
0.999527 0.448341 0.310643
0.999512 0.493385 0.243977
0.999634 0.595605 0.0502174
0 0.898116 0.000671397
0.000106813 0.8663 0.000183108
0.000411994 0.839582 0.000579843
0.000427253 0.790494 0.000244144
0.692805 0.668528 1.5259e-05
0.999573 0.656382 0.00639353
0.999451 0.598367 0.113863
0.999252 0.591608 0.0629129
0.999237 0.643198 0
0 1 0.000289921
0 1 0.000289921
0 1 0.000289921
0 1 0.000289921
0.020676 0.998734 0.000259403
0.99852 0.884962 1.5259e-05
0.999023 0.787259 0.00015259
0.999146 0.723461 0.000259403
0.999786 0.712947 0.000442512
0 1 0.000289921
0 1 0.000289921
0 1 0.000289921
0 1 0.000289921
0 1 0.000289921
0.537331 0.999466 4.57771e-05
0.999451 0.963668 0.000106813
0.999237 0.915831 9.15541e-05
0.999542 0.862699 0
0 1 0.000289921
0 1 0.000289921
0 1 0.000289921
0 1 0.000289921
0 1 0.000289921
0.052079 0.999954 0.000289921
0.861936 0.990768 0.000183108
0.998627 0.968948 0
0.998871 0.968048 0.00015259
0.407111 0.999481 0.000106813
0.411246 0.999481 0.000106813
0.416236 0.999481 0.000106813
0.431189 0.999466 9.15541e-05
0.479438 0.999435 7.62951e-05
0.59678 0.999542 0.000167849
0.850416 0.992462 7.62951e-05
0.998627 0.968948 0
0.998627 0.968948 0
0.000503548 0 0.25449
0.00047303 1.5259e-05 0.188006
0.282139 0.000259403 0.132448
0.971847 0.000167849 0.311162
0.999939 0.2748 0.508629
1 0.287724 0.528206
0.999588 0.320821 0.529625
0.99968 0.449409 0.39382
0.999176 0.60206 0.0412604
0.00909438 3.0518e-05 0.43093
0.00183108 9.15541e-05 0.309667
0.17499 6.10361e-05 0.220081
0.740246 0.000259403 0.324437
0.999695 0.0402533 0.650446
0.999863 0.293141 0.582483
0.999847 0.353323 0.518257
0.999619 0.461341 0.38584
0.999237 0.606683 0.0348363
0.000488289 0.156558 0.726253
0.000213626 0.0610361 0.516808
0.0564584 0.019089 0.366049
0.554345 4.57771e-05 0.373129
0.999878 0.0400854 0.560494
0.999222 0.35108 0.574823
0.999741 0.384573 0.50692
0.999725 0.475319 0.376242
0.999313 0.612222 0.0271611
0.000259403 0.625681 0.64686
0.000106813 0.494087 0.492012
0.000183108 0.42179 0.415183
0.327611 0.328267 0.328038
0.924697 0.305913 0.365423
0.999969 0.432135 0.523537
0.999619 0.458351 0.472404
0.999146 0.510826 0.348974
0.999512 0.628092 0.00508125
0 0.889326 0.275334
4.57771e-05 0.853284 0.234089
1.5259e-05 0.823758 0.201785
7.62951e-05 0.775067 0.155612
0.653101 0.671977 0.119997
0.999573 0.63624 0.321233
0.99942 0.594644 0.385519
0.999268 0.599893 0.270588
0.999298 0.674907 0.000106813
0 1 0.000289921
0 1 0.000289921
0 1 0.000289921
0 1 0.000289921
0.0118715 0.999939 0.000274662
0.978012 0.934813 1.5259e-05
0.999069 0.815625 0.127245
0.999207 0.773144 0.0352941
0.999542 0.740185 0.000106813
0 1 0.000289921
0 1 0.000289921
0 1 0.000289921
0 1 0.000289921
0 1 0.000289921
0.408759 0.99968 0.000396735
0.999008 0.965682 0.000137331
0.999023 0.922362 0.000137331
0.999039 0.887572 0
0 1 0.000289921
0 1 0.000289921
0 1 0.000289921
0 1 0.000289921
0 1 0.000289921
0.0143893 0.999893 0.000244144
0.783551 0.996963 0.000442512
0.999512 0.969833 0
0.999084 0.969268 9.15541e-05
0.376287 0.999573 0.000335698
0.380438 0.999573 0.000335698
0.385443 0.999573 0.000335698
0.400412 0.999557 0.000350958
0.448676 0.999512 0.000381476
0.566827 0.999664 0.00030518
0.815671 0.995392 0.000183108
0.998627 0.968612 0.000228885
0.998627 0.968948 0
0.0361028 0.000366217 0.712566
0.029221 1.5259e-05 0.671473
0.288518 0.000274662 0.49633
0.943725 0 0.631434
0.999908 0.24329 0.651438
0.999893 0.287282 0.664088
0.999863 0.331991 0.667811
0.999512 0.462425 0.591058
0.999374 0.596994 0.431067
0.0985733 0 0.867338
0.0702373 0.000137331 0.833692
0.209567 6.10361e-05 0.670146
0.732631 0.000259403 0.714733
0.99942 1.5259e-05 0.904097
0.999512 0.268727 0.719829
0.999817 0.367391 0.662455
0.999481 0.472999 0.588083
0.999405 0.600855 0.428031
0.081651 0.0657969 0.999664
0.053315 0.0112917 0.905425
0.124941 3.0518e-05 0.858488
0.593622 0.000259403 0.846723
0.999756 0.000320439 0.876692
0.999954 0.332494 0.718013
0.999969 0.402487 0.660578
0.999832 0.484749 0.585855
0.999435 0.605493 0.424475
0.000289921 0.587686 0.999969
0.000427253 0.463294 0.997818
0.000671397 0.392737 0.933104
0.377295 0.283803 0.82678
0.917433 0.247333 0.764111
0.999878 0.409018 0.729198
0.999664 0.473411 0.651728
0.999786 0.516915 0.57319
0.999542 0.618891 0.413855
0.000732433 0.854154 0.870802
7.62951e-05 0.827146 0.82623
0.000274662 0.796902 0.788357
0.00077821 0.746731 0.733211
0.638682 0.639109 0.639124
0.999878 0.606897 0.652079
0.999435 0.592691 0.614862
0.99942 0.595117 0.537194
0.999725 0.659434 0.380743
0.000183108 0.999603 0.48275
0 0.99939 0.475471
0 0.999649 0.468589
0 0.99968 0.450599
0.00726329 0.999451 0.423804
0.911177 0.932616 0.37554
0.999588 0.793713 0.480858
0.999619 0.750759 0.423972
0.999268 0.764691 0.270024
0 1 0.00376898
0 0.999985 0.00381476
0 0.999985 0.00386053
0 0.999969 0.00401312
0 0.999985 0.00360113
0.234058 0.99968 0.000595102
0.998871 0.999802 0.0423896
0.999146 0.991333 0.0679637
0.998962 0.956832 0.000427253
0 1 0.000289921
0 1 0.000289921
0 1 0.000289921
0 1 0.000289921
0 1 0.000289921
0.00543221 1 0.00030518
0.694408 0.999084 9.15541e-05
0.998627 0.968612 0.000228885
0.999039 0.968399 0.000228885
0.337118 0.999588 0.0162966
0.340841 0.999588 0.0159457
0.345312 0.999588 0.0151217
0.358724 0.999603 0.0138399
0.401968 0.999649 0.00868238
0.511757 0.999481 0.00155642
0.750134 0.999908 3.0518e-05
0.999405 0.992996 0.0111391
0.998627 0.968612 0.000228885
0.198398 0.000411994 0.966522
0.198398 0.000411994 0.966522
0.257786 0 0.958785
0.902876 7.62951e-05 0.956176
0.999512 0.0572213 0.919692
0.999939 0.192874 0.856092
0.999603 0.271809 0.839109
0.999786 0.445731 0.761852
0.999313 0.597742 0.679103
0.374884 4.57771e-05 0.999176
0.380697 3.0518e-05 0.99913
0.254994 3.0518e-05 0.990997
0.717693 0.000350958 0.999802
1 0 0.99971
0.999619 0.190021 0.913481
0.999481 0.309804 0.836393
0.999832 0.458061 0.760815
0.999374 0.6009 0.678203
0.469184 0.000259403 0.999741
0.457038 4.57771e-05 0.999863
0.311543 0.000137331 0.999908
0.6383 0.000274662 0.999985
1 0 0.99971
0.999664 0.215396 0.956786
0.999634 0.347875 0.832975
0.999924 0.472862 0.758984
0.999466 0.604715 0.677104
0.138018 0.43064 1
0.171221 0.361746 0.999924
0.119265 0.28423 0.999954
0.476905 0.146105 0.999527
0.931685 0.0980087 0.999207
0.999985 0.307088 0.998337
0.999359 0.431708 0.824887
0.999542 0.509194 0.755886
0.99971 0.615564 0.673961
0.00030518 0.754955 0.999908
0.000289921 0.735744 0.999725
0.000854505 0.716579 0.999985
0.031281 0.672084 0.99968
0.659236 0.576425 1
0.999802 0.535027 0.999664
0.999924 0.574807 0.81384
0.999527 0.595193 0.748623
0.999603 0.650629 0.660807
0.00062562 0.948425 0.999939
0.000900282 0.94696 0.999985
0.000549325 0.944732 1
4.57771e-05 0.939529 0.990097
0.00772107 0.956878 0.954742
0.855451 0.856703 0.856275
0.99939 0.769451 0.786877
0.999954 0.730724 0.710079
0.999557 0.740658 0.611978
4.57771e-05 0.999985 0.631357
1.5259e-05 0.999878 0.630259
4.57771e-05 0.999664 0.629084
0.000106813 0.999222 0.625208
0.000381476 0.999435 0.614038
0.0319677 0.999969 0.581476
0.992096 0.999298 0.506859
0.99939 0.952499 0.521645
0.999359 0.927138 0.442039
0.000122072 0.999741 0.493217
0.000137331 0.999741 0.491814
0.00015259 0.999756 0.490043
0.000183108 0.999786 0.484703
0.00015259 0.999863 0.470573
0.0229038 0.999771 0.439872
0.604685 0.999481 0.295552
0.999222 0.999756 0.16878
0.998871 0.999695 0.0535286
0.341207 0.999573 0.6
0.344778 0.999588 0.599634
0.34905 0.999588 0.599207
0.361883 0.999619 0.59791
0.403311 0.999695 0.593545
0.498695 0.999725 0.576547
0.689952 0.999786 0.517525
0.997711 0.999817 0.378439
0.998962 0.999451 0.117708
0.493523 0.000244144 0.999664
0.493843 0.000167849 0.999405
0.494163 7.62951e-05 0.999146
0.718868 0.000106813 0.999222
1 0 0.99971
1 0 0.99971
0.999985 0.144564 0.999329
0.999756 0.366873 0.990906
0.999969 0.556832 0.893721
0.515999 1.5259e-05 0.999268
0.516289 1.5259e-05 0.999222
0.516945 3.0518e-05 0.999115
0.652094 0.000106813 0.999237
1 0 0.99971
1 0 0.99971
0.999924 0.186816 0.999725
0.999878 0.380316 0.989273
0.999969 0.560555 0.893477
0.530877 0.000167849 0.999481
0.531136 0.00015259 0.999527
0.531334 0.00015259 0.999573
0.648203 0.000198367 0.99939
1 0 0.99971
1 0 0.99971
0.999603 0.231037 0.999908
0.999939 0.395682 0.987839
0.999954 0.565072 0.893187
0.456245 0.0314488 0.999344
0.455558 0.0324712 0.999329
0.459541 0.0191653 0.999252
0.56025 9.15541e-05 0.99971
0.970275 0.000106813 0.999634
0.999802 0.0388952 0.999039
0.999985 0.328771 0.999817
0.999481 0.436545 0.987137
0.999924 0.57821 0.892287
0.000350958 0.687816 0.999893
0.0381323 0.551339 1
0.0537881 0.528023 1
0.243442 0.484154 0.999847
0.675196 0.424872 0.999496
0.999954 0.381521 0.999695
0.999939 0.491066 0.999451
0.999466 0.528313 0.979675
0.999847 0.617746 0.889189
0.00030518 0.844511 0.999863
0.000198367 0.840391 0.999969
0.000564584 0.836912 0.999985
0.000167849 0.828305 1
0.22121 0.807599 0.999664
0.818952 0.729854 0.999359
0.999878 0.688457 0.999405
0.999817 0.683162 0.959838
0.999802 0.712612 0.876997
0.000442512 0.983581 0.999725
0.000289921 0.983337 0.999634
0.000183108 0.982986 0.999588
0.000289921 0.981735 0.999908
0.000167849 0.98027 0.999466
0.132738 0.998581 0.999908
0.948882 0.95491 0.953826
0.999649 0.901061 0.893019
0.999969 0.879789 0.817884
7.62951e-05 0.992065 0.995087
7.62951e-05 0.992233 0.994125
9.15541e-05 0.992432 0.993011
0.000122072 0.993011 0.9897
0.000198367 0.994675 0.979156
0.00326543 0.998444 0.939635
0.559991 0.999771 0.817319
0.999496 0.999481 0.678355
0.999191 0.999634 0.576898
0.195834 0.999802 0.997787
0.200061 0.999802 0.997681
0.205142 0.999802 0.997559
0.220371 0.999786 0.997147
0.269505 0.999756 0.99585
0.390982 0.999634 0.988083
0.625925 0.999756 0.951782
0.973663 0.999603 0.871305
0.99942 0.999756 0.687404
0.520241 7.62951e-05 0.999466
0.520546 7.62951e-05 0.999542
0.520928 9.15541e-05 0.999634
0.521981 0.000106813 0.999802
0.915602 0.000122072 0.999054
1 0 0.99971
1 0 0.99971
0.999832 0.181643 0.99913
0.999802 0.448188 0.999573
0.53048 0 1
0.530785 0 1
0.531167 0 1
0.532265 0 1
0.854353 0.000167849 0.999619
1 0 0.99971
1 0 0.99971
0.999847 0.199268 0.999329
0.999832 0.452781 0.999542
0.531456 0.000274662 0.999527
0.531182 0.000274662 0.999512
0.530831 0.000289921 0.999496
0.528664 0.000274662 0.999451
0.810422 6.10361e-05 0.999542
1 0 0.99971
1 0.00677501 0.999451
0.999908 0.219486 0.99968
0.999878 0.458244 0.999512
0.326986 0.289281 0.999985
0.325963 0.29073 0.999985
0.323903 0.293599 0.999985
0.317739 0.302205 0.999985
0.745098 4.57771e-05 0.998947
1 0 0.99971
0.999985 0.0875257 0.999268
0.999832 0.272877 0.999313
0.999924 0.474189 0.99939
0.000366217 0.807538 0.999939
0.000366217 0.807904 0.999939
0.000350958 0.80827 0.999939
0.0317998 0.572824 0.999939
0.612757 0.135149 0.999344
0.998138 0.144183 0.998901
0.999939 0.310323 0.999908
0.999771 0.391409 0.999207
0.999893 0.518441 0.999222
0.000396735 0.915434 0.999756
7.62951e-05 0.888808 0.999664
0.000259403 0.863905 0.999954
0.000335698 0.80798 1
0.236774 0.682109 0.999817
0.745296 0.583215 0.999939
0.999542 0.559487 0.999557
0.999863 0.571649 0.999649
0.999603 0.618418 0.999603
0.000350958 0.982528 0.99968
0.000534066 0.981598 0.999802
0.000747692 0.980484 0.999969
0.000503548 0.977264 0.999863
0.000167849 0.964187 1
0.245197 0.963104 0.999893
0.899992 0.854597 0.99942
0.999893 0.809934 0.999847
0.999619 0.803342 0.999573
0.000579843 0.986419 1
0.000579843 0.986419 1
0.000579843 0.986419 1
0.000579843 0.986419 1
0.000579843 0.986419 1
0.000579843 0.98674 0.99968
0.458473 0.999924 0.99942
0.994904 0.998947 0.99884
0.999832 0.989868 0.973632
0.0910506 0.999847 0.999893
0.0946059 0.999847 0.999893
0.0988632 0.999847 0.999878
0.11165 0.999863 0.999847
0.154284 0.999893 0.999771
0.280552 0.999863 0.999771
0.550774 0.999756 0.999832
0.93402 0.999924 0.999008
1 1 1
0.28574 0.349416 1
0.283848 0.351446 1
0.281575 0.353872 1
0.275151 0.360769 1
0.253223 0.384268 1
0.983719 4.57771e-05 0.999802
1 0 0.99971
1 0 0.99971
0.999985 0.188296 0.999619
0.205585 0.435309 1
0.203693 0.437339 1
0.201587 0.439261 1
0.193774 0.445014 1
0.168872 0.46334 1
0.977722 0.000167849 0.99971
1 0 0.99971
1 0 0.99971
0.999969 0.195422 0.999649
0.0941482 0.518288 1
0.092195 0.519722 1
0.0897536 0.521523 1
0.0829175 0.526558 1
0.0673228 0.542092 1
0.965057 0.000137331 0.99971
1 0 0.99971
1 0 0.99971
0.999969 0.204059 0.999695
0.000717174 0.694652 0.999985
0.000717174 0.695155 0.999985
0.000717174 0.696178 0.999969
0.000717174 0.698726 0.999954
0.000717174 0.707149 0.999893
0.927413 0.000244144 0.999329
1 0 0.99971
1 0 0.99971
0.999924 0.228885 0.999817
0.000442512 0.903883 0.999817
0.000442512 0.904036 0.999817
0.000442512 0.904311 0.999817
0.000427253 0.905028 0.999802
0.000381476 0.907607 0.999771
0.785351 0.134661 0.999237
0.999847 0.00820935 0.999634
0.999954 0.047013 0.999664
0.999924 0.296239 0.999146
0.000579843 0.986755 0.999649
0.000579843 0.986755 0.999649
0.000579843 0.986755 0.999649
0.000579843 0.986755 0.999649
0.000228885 0.906218 0.999542
0.552193 0.642267 0.999741
0.999573 0.50013 0.999283
0.999969 0.389075 0.999573
0.999878 0.439399 0.999725
0.000579843 0.986755 0.999649
0.000579843 0.986755 0.999649
0.000579843 0.986755 0.999649
0.000579843 0.986755 0.999649
0.000549325 0.986328 0.999878
0.000350958 0.961868 0.999908
0.786252 0.881254 0.999741
0.999969 0.757702 0.999329
0.999619 0.675975 0.999619
0.000579843 0.98645 0.999969
0.000579843 0.986435 0.999985
0.000579843 0.986435 0.999985
0.000579843 0.986419 1
0.000579843 0.986419 1
0.000579843 0.98645 0.999969
0.300664 0.999725 0.999817
0.9682 0.999634 0.998718
0.998795 0.977707 0.999649
0.00479133 0.991699 0.999893
0.00515755 0.991806 0.999893
0.00721752 0.992035 0.999908
0.0128328 0.99263 0.999908
0.0311589 0.994583 0.999924
0.0987564 0.999817 0.999985
0.455543 0.999847 0.999924
0.881193 0.99971 0.999756
1 1 1
