Luts/Fujifilm/FLog2C_to_ASTIA_VLog.cube
TITLE "Generated by Resolve"
LUT_3D_SIZE 33
0 0 0
0 0 0
0 0 0
0 0 0
0.017258 0.000946059 3.0518e-05
0.0659342 0.00242618 0.00318914
0.122683 0.00303655 0.0028687
0.220066 0.00453193 0.00383001
0.346517 0.00360113 0.00854505
0.497551 0.000717174 0.0158846
0.658366 3.0518e-05 0.0476844
0.815198 0.000228885 0.11162
0.959915 9.15541e-05 0.239887
0.999496 0.000442512 0.407446
0.999451 0 0.513481
0.999725 0.0608072 0.538293
0.999466 0.0997177 0.540078
0.999466 0.0997177 0.540078
0.999466 0.0997177 0.540078
0.999466 0.0997177 0.540078
0.999466 0.0997177 0.540078
0.999466 0.0997177 0.540078
0.999466 0.0997177 0.540078
0.999466 0.0997177 0.540078
0.999329 0.10486 0.536904
0.999863 0.136584 0.518181
0.999878 0.182376 0.48661
0.999847 0.230198 0.455955
0.999527 0.281651 0.419669
0.999512 0.334569 0.378378
0.999588 0.388754 0.336294
0.999603 0.44445 0.283207
0.999786 0.502617 0.226413
0 0 0
0 0 0
0 0 0
0 0 0
0.0234836 0.000808728 9.15541e-05
0.0758221 0.00256352 0.00320439
0.135698 0.00318914 0.00355535
0.233921 0.00471504 0.00238041
0.359319 0.00349432 0.00849927
0.508736 0.000518807 0.0165103
0.665995 1.5259e-05 0.0496376
0.820584 0.000198367 0.114519
0.962386 7.62951e-05 0.242618
0.999466 0.00047303 0.411719
0.999466 0 0.514092
0.999725 0.062211 0.538537
0.999466 0.0996109 0.540078
0.999466 0.0997177 0.540078
0.999466 0.0997177 0.540078
0.999466 0.0997177 0.540078
0.999466 0.0997177 0.540078
0.999466 0.0997177 0.540078
0.999466 0.0997177 0.540078
0.999466 0.0997177 0.540078
0.999466 0.111131 0.53312
0.999847 0.146258 0.511391
0.999771 0.189502 0.482033
0.999832 0.236316 0.451621
0.999466 0.285954 0.41622
0.999557 0.337881 0.375753
0.999588 0.391379 0.334142
0.999603 0.446418 0.281437
0.999771 0.504173 0.224582
0 0 0
0 0 0
0 0 0
0 0 0
0.0305028 0.000915541 0.000350958
0.0857252 0.00273136 0.00288396
0.150652 0.0034638 0.00517281
0.246143 0.00450141 0.00395209
0.366522 0.00337224 0.00846876
0.508873 0.000671397 0.0157321
0.658564 1.5259e-05 0.0466163
0.80322 9.15541e-05 0.10518
0.942031 0.000366217 0.219104
0.999176 1.5259e-05 0.364782
0.999939 0.00015259 0.496483
0.999268 0.00192264 0.522011
0.999527 0.0823835 0.537789
0.999451 0.0995193 0.540169
0.999466 0.0997177 0.540078
0.999466 0.0997177 0.540078
0.999466 0.0997177 0.540078
0.999466 0.0997177 0.540078
0.999466 0.0997177 0.540078
0.999466 0.0997177 0.540078
0.999786 0.120027 0.527779
0.999832 0.155184 0.505119
0.99968 0.196277 0.477668
0.999832 0.242206 0.447471
0.99942 0.290272 0.412757
0.999603 0.341314 0.373022
0.999603 0.394034 0.33196
0.999588 0.448463 0.279377
0.999756 0.50573 0.222751
0 0 0
0 0 0
0 0 0
0 0 0
0.0194705 0.0012665 0.000183108
0.0579843 0.002533 0.00262455
0.111208 0.00283818 0.00282292
0.183627 0.00479133 0.00640879
0.292638 0.00390631 0.00634775
0.421164 0.00224308 0.0135653
0.566308 0.000244144 0.0221714
0.712093 0 0.0611887
0.851789 0.000244144 0.136858
0.979492 1.5259e-05 0.261463
0.999741 0.000564584 0.408667
0.999954 7.62951e-05 0.507683
0.999344 0.014313 0.525063
0.999634 0.0914931 0.539956
0.999466 0.0997177 0.540078
0.999466 0.0997177 0.540078
0.999466 0.0997177 0.540078
0.999466 0.0997177 0.540078
0.999466 0.0997177 0.540078
0.999542 0.10338 0.537209
1 0.128786 0.522347
0.999817 0.163882 0.499046
0.999603 0.203052 0.473304
0.999832 0.248173 0.44329
0.999374 0.294606 0.409384
0.999634 0.344808 0.370291
0.999603 0.396857 0.329397
0.999588 0.450507 0.277302
0.999741 0.507301 0.22092
0.000122072 0.011902 7.62951e-05
0.000122072 0.0127108 6.10361e-05
0.000350958 0.0125124 0.000122072
0.000381476 0.00512703 7.62951e-05
0.00880446 0.000350958 0.000213626
0.0412604 0.00169375 0.00103761
0.0779583 0.00323491 0.00292973
0.140063 0.00325017 0.00636301
0.22974 0.00459297 0.00650034
0.344671 0.00415045 0.00563058
0.477958 0.00222782 0.0146029
0.620401 0.00015259 0.035996
0.762722 0.00015259 0.0827802
0.895598 0 0.174884
0.997574 0.000396735 0.308644
0.999939 6.10361e-05 0.462501
0.999557 0.000122072 0.514611
1 0.0489052 0.534279
0.999466 0.0995804 0.540063
0.999466 0.0997177 0.540078
0.999466 0.0997177 0.540078
0.999466 0.0997177 0.540078
0.999435 0.100313 0.539651
0.999741 0.111803 0.530587
1 0.139116 0.515435
0.999725 0.171832 0.493919
0.999573 0.210452 0.468574
0.999771 0.25417 0.439231
0.999374 0.299245 0.405936
0.999664 0.348241 0.367605
0.999619 0.399512 0.326986
0.999573 0.45272 0.275059
0.999725 0.508812 0.219165
0.000122072 0.0438392 0
0.000106813 0.0445563 0
0.000167849 0.0372931 9.15541e-05
9.15541e-05 0.0273899 4.57771e-05
0.00277714 0.0183261 0.000457771
0.0269474 0.0139162 0.000518807
0.0604105 0.00860609 0.000701915
0.104738 0.00596628 0.00254826
0.177172 0.00476081 0.00466926
0.282673 0.004654 0.00576791
0.405661 0.00288396 0.00968948
0.544945 0.000579843 0.0220188
0.690349 1.5259e-05 0.0547036
0.8309 0 0.125307
0.962905 6.10361e-05 0.240772
0.999985 0.000259403 0.39176
0.999939 0 0.505974
0.999939 0.012192 0.525826
0.999466 0.0997177 0.540078
0.999466 0.0997177 0.540078
0.999466 0.0997177 0.540078
0.999573 0.100481 0.539406
0.99913 0.105882 0.535744
0.999878 0.121386 0.523796
1 0.148501 0.509163
0.999634 0.179309 0.489097
0.999542 0.217716 0.46392
0.999725 0.260029 0.435279
0.999374 0.303761 0.402609
0.999695 0.351827 0.364813
0.999634 0.402335 0.324437
0.999557 0.454704 0.27303
0.99971 0.510216 0.217517
0.000503548 0.0747082 0
0.000488289 0.075639 1.5259e-05
4.57771e-05 0.066041 0.000320439
0.000427253 0.0517586 6.10361e-05
0.000411994 0.0413214 0
0.0144198 0.0344396 3.0518e-05
0.0461738 0.0299077 3.0518e-05
0.0845045 0.0266117 0
0.149935 0.0223392 0.000366217
0.239643 0.0174105 0.00177005
0.356649 0.01149 0.00485237
0.492592 0.00363165 0.0131533
0.637797 0.000183108 0.0371099
0.782147 0.000213626 0.0947585
0.915297 0 0.192691
0.999634 0.000366217 0.337194
0.999542 0 0.487007
1 9.15541e-05 0.521096
0.999878 0.0791791 0.537346
0.999466 0.0997177 0.540078
0.999466 0.0997177 0.540078
0.999893 0.102708 0.537438
0.9991 0.114061 0.529931
0.999954 0.133486 0.515938
0.999863 0.157977 0.50277
0.999557 0.186938 0.484184
0.999512 0.224857 0.459342
0.999664 0.265873 0.431327
0.999374 0.308263 0.399268
0.999725 0.355276 0.362127
0.999634 0.404959 0.322042
0.999542 0.456748 0.270939
0.999695 0.511772 0.215686
0.00047303 0.117784 0
0.000488289 0.118883 0
0.000427253 0.10631 0.00103761
0.00015259 0.0842756 0.000198367
6.10361e-05 0.0681773 0.000167849
0.0059968 0.0584573 9.15541e-05
0.0327306 0.053727 0.000411994
0.0702373 0.0484932 0.00030518
0.12462 0.0441291 0.000244144
0.209125 0.041886 0.000106813
0.321416 0.0346227 0.000167849
0.449775 0.027985 0.000793469
0.594675 0.0159152 0.0139315
0.734096 0.00447089 0.0594797
0.874495 6.10361e-05 0.150057
0.995117 0.000106813 0.285176
0.999237 0 0.44097
0.999664 0.000228885 0.509957
0.999985 0.0539864 0.532143
0.99971 0.107073 0.535866
0.999786 0.108537 0.534401
0.999893 0.11664 0.527382
0.999527 0.127749 0.52015
0.999969 0.146853 0.507881
0.999619 0.168566 0.495552
0.999603 0.19678 0.477592
0.999481 0.23328 0.453971
0.999603 0.272816 0.426612
0.999374 0.313603 0.395331
0.999771 0.359426 0.358892
0.999649 0.408255 0.319066
0.999527 0.459113 0.268544
0.99968 0.513634 0.213489
0.000198367 0.178988 6.10361e-05
0.000289921 0.178729 4.57771e-05
0 0.151995 0
0.000640879 0.127459 0.000518807
0.000396735 0.108598 0.000946059
0.000503548 0.0925154 0.000701915
0.0247807 0.0862898 0.000427253
0.0569467 0.0790265 0.000350958
0.107149 0.0729076 0.000488289
0.180606 0.0682689 0.000503548
0.287327 0.0632944 1.5259e-05
0.41207 0.0560311 3.0518e-05
0.553048 0.0471962 0.000244144
0.694926 0.0350805 0.0157778
0.831327 0.0194247 0.0852064
0.958526 0.00173953 0.209995
0.999969 0.0015259 0.369909
0.999832 0.000534066 0.484611
0.999634 0.055314 0.506767
0.999969 0.126635 0.523079
0.999649 0.130175 0.519249
0.999893 0.13724 0.513954
0.999863 0.147768 0.507744
0.999878 0.163729 0.499382
0.999405 0.182727 0.486137
0.999802 0.210819 0.467979
0.999542 0.24387 0.446799
0.999512 0.281956 0.420447
0.999374 0.320729 0.390051
0.999817 0.36495 0.354589
0.999664 0.412634 0.315084
0.999512 0.462577 0.265019
0.999664 0.516136 0.210575
0.000320439 0.271565 0.000167849
0.000106813 0.253147 0.000396735
0.000320439 0.216892 0.000259403
0.000106813 0.183383 1.5259e-05
0.000488289 0.158145 0.000244144
0.000259403 0.142748 0.000259403
0.0113527 0.131609 0.000411994
0.0415961 0.123491 1.5259e-05
0.0887312 0.115206 4.57771e-05
0.157824 0.106798 1.5259e-05
0.254414 0.100282 1.5259e-05
0.374853 0.0931563 1.5259e-05
0.510155 0.0851606 6.10361e-05
0.654536 0.0751812 1.5259e-05
0.788144 0.0635233 0.0281224
0.915404 0.0506447 0.129656
0.999954 0.0303349 0.280369
0.999924 0.0128939 0.439872
0.999207 0.0679332 0.474937
0.999832 0.153719 0.500755
0.999451 0.1608 0.501198
0.999802 0.164614 0.497642
0.999985 0.172854 0.492775
0.999924 0.186465 0.484428
0.999588 0.202686 0.473564
0.999924 0.228092 0.456428
0.99968 0.257343 0.437552
0.999466 0.29279 0.412238
0.999374 0.330037 0.383169
0.999878 0.372274 0.348867
0.99968 0.418448 0.309834
0.999481 0.467002 0.260548
0.999634 0.519402 0.206744
0.000183108 0.384512 0.00062562
3.0518e-05 0.336583 0.000244144
1.5259e-05 0.292332 4.57771e-05
0.000320439 0.258381 0.000823987
0.000442512 0.229419 0.000671397
0.000885023 0.207797 0.000518807
0.00509651 0.195087 0.000579843
0.0295415 0.183047 0.000381476
0.0727398 0.173632 0.000122072
0.136278 0.163394 0.000610361
0.224781 0.155001 1.5259e-05
0.341543 0.145403 0.000228885
0.47245 0.137362 0.000350958
0.614282 0.128481 0.000137331
0.745892 0.117922 0.000869764
0.871443 0.110246 0.0468757
0.990463 0.0949264 0.183932
0.999893 0.0749981 0.353094
0.999725 0.097322 0.4318
0.999268 0.171176 0.463691
0.999893 0.199985 0.476356
0.999847 0.201053 0.476646
0.999939 0.205417 0.473548
1 0.215366 0.464927
0.999725 0.227848 0.456657
0.999435 0.249775 0.443153
0.999786 0.274815 0.424933
0.999435 0.306432 0.401709
0.99939 0.341619 0.373709
0.999939 0.381689 0.341451
0.999695 0.426123 0.302876
0.999451 0.472831 0.254627
0.999588 0.523781 0.201617
6.10361e-05 0.472068 0.000137331
0.000137331 0.420172 0.000518807
0.000137331 0.3776 0.000961318
0 0.34168 0.000274662
0.00030518 0.315557 0.000488289
0.000274662 0.296162 0.00015259
0.000183108 0.27924 0.000350958
0.00869764 0.265568 0
0.0500649 0.253605 0.000167849
0.110033 0.239811 9.15541e-05
0.20116 0.22565 0.000488289
0.311696 0.21593 0.000167849
0.435859 0.206668 0.000122072
0.573754 0.19498 0.000228885
0.703532 0.188449 0.000564584
0.828885 0.181353 0.00177005
0.950149 0.172274 0.0758068
0.999695 0.153826 0.242985
0.999176 0.149798 0.372122
0.999481 0.201816 0.414405
0.999847 0.248585 0.443702
0.999237 0.244236 0.4448
0.999313 0.244953 0.443992
0.999985 0.250889 0.441733
0.999878 0.259037 0.434607
0.999374 0.276127 0.42388
0.999786 0.297978 0.406622
0.999451 0.324208 0.388144
0.99942 0.356405 0.361624
0.999832 0.393729 0.330892
0.999741 0.436027 0.293706
0.999405 0.480537 0.246784
0.999527 0.529549 0.194858
4.57771e-05 0.549889 0.000228885
0 0.503197 1.5259e-05
1.5259e-05 0.463249 0.000488289
0.000244144 0.433845 0
6.10361e-05 0.409461 0.000366217
1.5259e-05 0.392508 0.000198367
0 0.378363 9.15541e-05
0.00257877 0.36289 0.000503548
0.0308995 0.349355 0.000534066
0.0860914 0.335363 0.000183108
0.170291 0.322011 0.000167849
0.280903 0.308049 6.10361e-05
0.403342 0.294606 3.0518e-05
0.535744 0.286305 0.000137331
0.66424 0.27837 0
0.78735 0.269795 3.0518e-05
0.90837 0.264439 0.00613413
0.999481 0.250294 0.113741
0.999802 0.232715 0.287526
0.999908 0.254658 0.350637
0.999634 0.297917 0.399695
0.999146 0.295415 0.409827
0.999893 0.289876 0.415106
0.999222 0.292042 0.413031
0.999481 0.297475 0.407401
0.999634 0.309071 0.399741
0.999832 0.326024 0.385153
0.999649 0.347341 0.370779
0.999557 0.375219 0.345861
0.999695 0.409354 0.317205
0.999832 0.448096 0.28159
0.999359 0.490562 0.236652
0.999451 0.537179 0.185916
0.000259403 0.617472 0.000442512
0 0.57966 0.000442512
0 0.551492 0.000183108
0 0.526604 0.000183108
4.57771e-05 0.508049 0.000381476
0.000228885 0.492439 0.00015259
3.0518e-05 0.480247 6.10361e-05
1.5259e-05 0.46804 1.5259e-05
0.0110475 0.454963 0.00015259
0.0603952 0.43917 0.000717174
0.140276 0.422919 9.15541e-05
0.248325 0.407813 9.15541e-05
0.370718 0.395483 0.000122072
0.500862 0.382483 0
0.628992 0.375677 4.57771e-05
0.748638 0.367468 0
0.865156 0.361135 0.00047303
0.97789 0.351064 0.0138094
0.99971 0.33286 0.157946
0.99968 0.324544 0.267155
0.999878 0.350423 0.333486
0.999908 0.34992 0.36611
0.999741 0.344305 0.373144
0.999557 0.340444 0.376638
0.999649 0.340063 0.375708
0.999908 0.347311 0.369375
0.999802 0.359365 0.360571
0.999588 0.376959 0.345861
0.999832 0.398917 0.32546
0.999634 0.429023 0.298985
0.999939 0.46363 0.266041
0.999298 0.503777 0.223453
0.999344 0.547295 0.173587
3.0518e-05 0.682551 0.000396735
0.000381476 0.658274 0.000564584
4.57771e-05 0.639231 0.000320439
0 0.621897 0.000106813
0 0.607767 0.000350958
9.15541e-05 0.595926 0.000518807
0.000198367 0.586206 0.000579843
9.15541e-05 0.574441 0.000808728
0.00361639 0.561379 0.000289921
0.0394446 0.546944 0.000411994
0.110826 0.532097 0.000228885
0.222339 0.514153 0.000244144
0.340688 0.499184 7.62951e-05
0.466453 0.485374 0
0.595728 0.475654 0
0.714839 0.466728 0
0.825895 0.459571 0
0.940322 0.450568 0
0.999313 0.432959 0.0275578
0.999512 0.412787 0.165209
0.999329 0.414359 0.246494
0.999924 0.412619 0.311299
0.999786 0.401679 0.325582
0.999237 0.394903 0.32752
0.99942 0.390234 0.334691
0.999496 0.391653 0.332341
0.999329 0.399619 0.326894
0.999557 0.411902 0.313558
0.999329 0.429664 0.297719
0.999664 0.453635 0.275212
1 0.484627 0.244526
0.999237 0.52076 0.206455
0.999207 0.560525 0.156817
0.000183108 0.748547 0.000823987
0.000137331 0.733089 0.000213626
9.15541e-05 0.719829 0.000656138
3.0518e-05 0.709392 0.000442512
0 0.699947 0.000350958
0 0.691173 0.000396735
0 0.68455 0.000350958
9.15541e-05 0.67686 0.000259403
0.00114443 0.665064 0.000183108
0.0239719 0.652873 0.000610361
0.0900282 0.640772 0.000518807
0.195377 0.624994 3.0518e-05
0.314717 0.608377 0.000198367
0.440528 0.592905 0.000244144
0.566674 0.580453 0.000488289
0.682963 0.568261 0.000122072
0.792508 0.561059 0.000213626
0.898573 0.551537 0.000366217
0.992462 0.53576 0.000335698
0.999313 0.514214 0.0395361
0.999466 0.49456 0.134356
0.999695 0.483497 0.227726
0.999863 0.468925 0.260121
0.999527 0.455268 0.272999
0.999649 0.447456 0.280568
0.999115 0.444053 0.285359
0.999069 0.446021 0.281163
0.999634 0.45362 0.274022
0.99939 0.466575 0.26099
0.999023 0.485161 0.243244
1 0.51191 0.216251
0.999374 0.542428 0.180804
0.999023 0.577462 0.135348
1.5259e-05 0.813153 0.000396735
0 0.803998 0.00062562
0 0.796124 0.000991836
1.5259e-05 0.788479 0.000656138
3.0518e-05 0.78175 0.000274662
1.5259e-05 0.775326 0.000244144
0 0.769741 0.000213626
4.57771e-05 0.762905 0.000549325
0.000274662 0.754574 0.00103761
0.0104829 0.744747 0.000289921
0.0686351 0.734325 1.5259e-05
0.165911 0.722316 7.62951e-05
0.286839 0.708278 0
0.412573 0.695781 9.15541e-05
0.538277 0.681285 6.10361e-05
0.654261 0.668208 1.5259e-05
0.760586 0.652003 0.000442512
0.862989 0.636271 1.5259e-05
0.972793 0.627466 0.000198367
0.999268 0.615366 4.57771e-05
0.999527 0.58822 0.0149233
0.998962 0.564126 0.109987
0.999435 0.539422 0.183993
0.999222 0.525383 0.200977
0.99942 0.513542 0.213809
0.999573 0.505028 0.223865
0.999634 0.501625 0.227054
0.999161 0.502297 0.22475
0.999817 0.510262 0.215625
0.999451 0.523049 0.202869
0.999557 0.543328 0.179309
0.999725 0.569635 0.145998
0.999268 0.59881 0.105989
3.0518e-05 0.875212 0.000396735
0.000137331 0.870222 0.00077821
0.000244144 0.865568 0.00115969
0.00015259 0.860471 0.000961318
6.10361e-05 0.855848 0.000762951
0 0.851347 0.000549325
0 0.846815 0.000350958
0 0.84152 9.15541e-05
0.00198367 0.835889 0.000228885
0.00570687 0.829221 0.000595102
0.0551308 0.819257 0.000213626
0.145144 0.807843 7.62951e-05
0.262684 0.796918 0.000198367
0.384771 0.782849 0.000183108
0.509361 0.76408 0
0.62536 0.742901 0
0.7308 0.723934 0.000213626
0.831891 0.706966 3.0518e-05
0.935149 0.690333 0.000396735
0.998703 0.687831 0
0.998993 0.67921 9.15541e-05
0.99884 0.652461 0.0071107
0.999527 0.615061 0.0762493
0.999771 0.595941 0.110048
0.999054 0.581369 0.132403
0.999741 0.570306 0.14519
0.999237 0.562158 0.155566
0.999359 0.558755 0.161395
0.999466 0.560952 0.157137
0.999542 0.567864 0.14902
0.999359 0.581628 0.131029
0.999298 0.600275 0.103029
0.999771 0.625391 0.0682689
0 0.936294 0.000976577
0 0.932647 0.0010071
0 0.928847 0.00102235
0 0.924956 0.000854505
0 0.921233 0.000686656
0 0.917647 0.000534066
0 0.914168 0.000381476
0 0.91043 0.000244144
0 0.905547 6.10361e-05
0.0127108 0.899916 0.000137331
0.0346838 0.893156 0.000366217
0.124315 0.883818 0.000167849
0.236072 0.870878 3.0518e-05
0.359197 0.853162 0
0.482444 0.833432 0.000610361
0.598184 0.813138 0
0.702983 0.793118 0
0.800427 0.775479 0
0.899794 0.756832 3.0518e-05
0.991806 0.740902 0.000442512
0.999176 0.738598 1.5259e-05
0.998978 0.724681 0.000122072
0.998978 0.692851 0
0.999283 0.66804 0.0123598
0.99939 0.651835 0.0250095
0.999527 0.63798 0.045594
0.999176 0.62681 0.0631113
0.999512 0.618952 0.0748608
0.999329 0.616297 0.0814679
0.999527 0.616922 0.0794995
0.999222 0.623941 0.0683299
0.998993 0.63714 0.0455329
0.999222 0.656229 0.0179751
0 0.992615 0.000137331
0 0.991608 9.15541e-05
0 0.990463 6.10361e-05
0 0.987915 9.15541e-05
0 0.98529 0.000137331
0 0.982727 0.000167849
0 0.980194 0.000213626
0.00108339 0.977554 0.000228885
0.00360113 0.974075 0.000244144
0.00695811 0.969451 0.000244144
0.0451362 0.961425 0.000167849
0.108064 0.950484 3.0518e-05
0.218738 0.933425 0.00047303
0.337041 0.915236 0.000183108
0.458869 0.896681 0.000183108
0.573892 0.876585 4.57771e-05
0.67631 0.858625 0.000350958
0.772442 0.839368 1.5259e-05
0.868238 0.821988 0
0.969894 0.803906 0.000289921
0.998642 0.791287 0
0.99942 0.774014 0.000167849
0.999207 0.75201 0
0.998932 0.734813 3.0518e-05
0.999573 0.721645 4.57771e-05
0.999054 0.705989 0.000122072
0.999283 0.692348 0.000793469
0.999603 0.681147 0.000579843
0.998932 0.673564 0.00921645
0.998917 0.670985 0.00537118
0.99852 0.672129 0.00320439
0.999023 0.679423 0.00614939
0.999588 0.691569 0.00125124
0 1 0.000289921
0 1 0.000289921
0 1 0.000289921
0 0.999969 0.000274662
0 0.999939 0.000274662
0 0.999893 0.000274662
0 0.999863 0.000259403
0 0.999832 0.000259403
0.00485237 0.999542 0.000289921
0.0203098 0.998718 0.000396735
0.0391546 0.997757 0.000534066
0.102983 0.996262 0.000442512
0.205783 0.994141 0.000183108
0.314656 0.977096 4.57771e-05
0.433005 0.957855 0
0.548074 0.938964 0
0.652399 0.920378 0
0.746517 0.901579 1.5259e-05
0.838346 0.883452 0
0.938048 0.865492 0
0.998993 0.849699 0.000122072
0.99971 0.82739 6.10361e-05
0.998978 0.798337 0.000228885
0.99942 0.774563 6.10361e-05
0.999481 0.76466 0.000122072
0.998871 0.757671 0.000198367
0.998962 0.748455 0
0.999527 0.742489 0
0.999451 0.731456 0.000289921
0.99942 0.727275 0
0.999512 0.722835 0.000335698
0.99884 0.726101 3.0518e-05
0.999512 0.731228 1.5259e-05
0 1 0.000289921
0 1 0.000289921
0.000350958 1 0.000289921
0.00123598 1 0.000289921
0.00207523 1 0.000289921
0.00292973 1 0.000289921
0.00357061 1 0.000289921
0.00454719 1 0.000289921
0.00579843 1 0.00030518
0.0243229 0.999969 0.000411994
0.0662547 0.999893 0.000686656
0.121019 0.999802 0.00105287
0.203082 0.999832 0.00112917
0.311162 0.999908 0.00102235
0.419974 0.998627 0.000259403
0.527001 0.997604 0.000137331
0.628717 0.985 0.000381476
0.723095 0.966918 0.000259403
0.812818 0.948104 9.15541e-05
0.90515 0.925795 0.000350958
0.981247 0.904173 0
0.995087 0.881666 0.00030518
0.998718 0.853315 0
0.999359 0.819272 0.000122072
0.999435 0.79913 0
0.999283 0.790234 0.000350958
0.998993 0.781628 0
0.999374 0.774365 0.000137331
0.999298 0.768261 0.000213626
0.999481 0.763622 7.62951e-05
0.999756 0.759258 0.000213626
0.998917 0.7579 0
0.999481 0.758907 0.000137331
0 1 0.000289921
0 1 0.000289921
0.00476081 0.999969 0.000274662
0.00953689 0.999939 0.000259403
0.0147097 0.999908 0.000228885
0.0192721 0.999878 0.000213626
0.0242313 0.999847 0.000198367
0.030045 0.999802 0.000183108
0.037705 0.999756 0.00015259
0.0478523 0.999695 0.000122072
0.0806744 0.99968 0.00015259
0.13994 0.999725 0.000244144
0.215335 0.999802 0.000366217
0.301793 0.999802 0.000244144
0.404303 0.999802 0
0.504997 0.999588 3.0518e-05
0.601907 0.999847 0.000671397
0.693996 0.999619 0.00103761
0.77937 0.999176 0.000793469
0.863539 0.979202 0.000122072
0.954803 0.956329 0
0.990478 0.931884 0.000396735
0.993378 0.905577 0.000167849
0.99678 0.874403 0
0.999039 0.845945 0.000122072
0.999084 0.833066 0
0.999405 0.8215 0
0.998749 0.810162 6.10361e-05
0.999313 0.800793 0
0.998901 0.791882 1.5259e-05
0.999008 0.788037 9.15541e-05
0.999084 0.784131 3.0518e-05
0.999466 0.782574 6.10361e-05
0.00209049 1 0.000289921
0.011017 0.999954 0.000289921
0.0239719 0.999893 0.000274662
0.035584 0.999832 0.000259403
0.0478676 0.999771 0.000244144
0.0594644 0.99971 0.000244144
0.0717632 0.999649 0.000228885
0.0860914 0.999573 0.000213626
0.104753 0.999481 0.000198367
0.130007 0.999344 0.000167849
0.163439 0.999176 0.000137331
0.206378 0.999268 0.000106813
0.260563 0.999542 6.10361e-05
0.330526 0.999908 1.5259e-05
0.404944 0.999924 0
0.49131 0.999817 0
0.577066 0.999695 0
0.659968 0.999481 0
0.742565 0.999695 0
0.825055 0.999985 0.000610361
0.90721 0.995712 0
0.982513 0.978012 0.00315862
0.987503 0.9561 0.000549325
0.992493 0.92607 4.57771e-05
0.99472 0.89073 0.000488289
0.996399 0.876631 0
0.996902 0.865309 6.10361e-05
0.998245 0.855131 0.000167849
0.999039 0.844205 9.15541e-05
0.9991 0.83476 6.10361e-05
0.99881 0.825162 3.0518e-05
0.999207 0.818647 0.000137331
0.999435 0.813489 0
0.117327 0.999985 0.000610361
0.126513 0.999985 0.000610361
0.136416 0.999969 0.000610361
0.145602 0.999969 0.00062562
0.154788 0.999954 0.00062562
0.163531 0.999954 0.00062562
0.172717 0.999939 0.00062562
0.184024 0.999924 0.000640879
0.198856 0.999908 0.000640879
0.218631 0.999893 0.000656138
0.245487 0.999878 0.000656138
0.280095 0.999832 0.000671397
0.318425 0.999863 0.000549325
0.365057 0.999924 0.000335698
0.425361 0.999985 6.10361e-05
0.488121 1 9.15541e-05
0.561257 0.999985 0.000259403
0.635874 0.999802 0.000717174
0.710277 0.999924 0.000167849
0.785992 0.999985 0
0.864088 0.999435 0.000167849
0.946471 0.99968 0.0104524
0.983566 0.99498 0.018555
0.98645 0.972885 0.00373846
0.988373 0.943023 7.62951e-05
0.992309 0.919753 0.000106813
0.992523 0.909041 0
0.993362 0.896788 4.57771e-05
0.994812 0.886213 0.000228885
0.996017 0.876051 0.000137331
0.99675 0.866484 6.10361e-05
0.999115 0.858763 0.000503548
0.99881 0.85214 6.10361e-05
0.235019 0.999939 0.000198367
0.240986 0.999924 0.000198367
0.246952 0.999908 0.000198367
0.252918 0.999893 0.000183108
0.258885 0.999878 0.000183108
0.264256 0.999863 0.000183108
0.270222 0.999847 0.000183108
0.277394 0.999832 0.000167849
0.286931 0.999802 0.000167849
0.299458 0.999771 0.00015259
0.316762 0.999725 0.000137331
0.339437 0.999664 0.000122072
0.368673 0.999588 0.000106813
0.401465 0.999603 7.62951e-05
0.444114 0.999634 4.57771e-05
0.497688 0.999664 0
0.553689 0.999496 1.5259e-05
0.618723 0.999374 3.0518e-05
0.68481 0.999695 0
0.752972 0.999512 3.0518e-05
0.825788 0.999908 3.0518e-05
0.902083 0.999893 0.00198367
0.968399 0.999985 0.0159457
0.983719 1 0.0220035
0.985489 0.984924 0.0105135
0.987701 0.963012 0.00105287
0.987121 0.952453 0.00015259
0.990188 0.93962 9.15541e-05
0.991104 0.929351 0.000350958
0.992126 0.917647 0
0.992401 0.907393 3.0518e-05
0.993545 0.897322 1.5259e-05
0.994751 0.890028 4.57771e-05
0.327184 0.999496 1.5259e-05
0.331029 0.999512 1.5259e-05
0.335409 0.999527 3.0518e-05
0.339254 0.999542 3.0518e-05
0.343084 0.999557 3.0518e-05
0.347478 0.999573 3.0518e-05
0.351308 0.999588 3.0518e-05
0.356252 0.999603 4.57771e-05
0.362829 0.999619 4.57771e-05
0.371603 0.999649 4.57771e-05
0.383108 0.999695 6.10361e-05
0.398474 0.999756 6.10361e-05
0.419303 0.999832 7.62951e-05
0.445335 0.999908 0.000106813
0.474327 0.999847 9.15541e-05
0.511467 0.999786 6.10361e-05
0.559075 0.999695 3.0518e-05
