Luts/Fujifilm/FLog2C_to_PROVIA_VLog.cube
TITLE "Generated by Resolve"
LUT_3D_SIZE 9
0 0 0
0.0204929 0.00183108 0.000656138
0.36141 0.0125887 0.0408179
0.986053 0.0437781 0.259068
1 0.25713 0.480659
1 0.25713 0.480659
0.999557 0.261616 0.476829
0.99942 0.378515 0.373953
0.999191 0.543175 0.193713
0.000732433 0.0125124 0.00030518
0.0112306 0.000961318 7.62951e-05
0.254871 0.0103151 0.0260166
0.789425 0.0219425 0.134463
0.999985 0.143633 0.454032
1 0.25713 0.480659
0.999771 0.284581 0.456443
0.999786 0.390951 0.362509
0.999298 0.548135 0.186435
0.00241093 0.181384 0
0.00117494 0.112123 7.62951e-05
0.112779 0.0838788 3.0518e-05
0.559609 0.0726635 0.0256352
0.999893 0.115816 0.33727
0.99942 0.278828 0.462196
0.999893 0.314702 0.432456
0.999939 0.405615 0.348135
0.999405 0.554009 0.177829
0 0.508858 9.15541e-05
0.000335698 0.378164 0.000686656
0.000579843 0.327916 1.5259e-05
0.375814 0.289952 0.000350958
0.95285 0.307927 0.00901808
0.999954 0.389746 0.357321
0.999725 0.389761 0.365469
0.999588 0.446983 0.307851
0.999725 0.570886 0.153109
1.5259e-05 0.799496 0.000396735
0.000106813 0.763775 0.000976577
0 0.733013 0.000183108
0.0711376 0.683665 3.0518e-05
0.770169 0.629419 0.000122072
0.999649 0.610285 0.00601205
0.999329 0.550896 0.183291
0.999252 0.549432 0.184665
0.9991 0.621683 0.073991
0 1 0.000289921
0 1 0.000289921
0 0.999908 0.000289921
0 0.99823 0.000259403
0.439429 0.93695 0
0.998795 0.852018 1.5259e-05
0.998795 0.763149 0.000122072
0.99939 0.73724 0.000106813
0.99968 0.734997 3.0518e-05
0 1 0.000289921
0 1 0.000289921
0 1 0.000289921
0 1 0.000289921
0.0154574 0.999985 0.000335698
0.780591 0.998886 4.57771e-05
0.998581 0.933516 0.000564584
0.999146 0.886702 0.00015259
0.999161 0.856123 0.000167849
0 1 0.000289921
0 1 0.000289921
0 1 0.000289921
0 1 0.000289921
0.0256199 0.999908 0.000198367
0.429541 0.999268 0.000396735
0.95201 0.988998 0.00823987
0.981186 0.98613 0.0157168
0.988922 0.979919 0.0142061
0.53254 0.999847 0.000366217
0.53579 0.999847 0.000350958
0.539696 0.999847 0.000350958
0.551492 0.999847 0.000320439
0.589349 0.999832 0.000213626
0.688243 0.999832 0.000106813
0.880522 0.995865 0.000106813
0.980819 0.986313 0.0157168
0.980819 0.986313 0.0157168
0 0 0
0.0102998 0.000869764 3.0518e-05
0.334188 0.0113375 0.0364996
0.96022 0.0386969 0.234028
1 0.25713 0.480659
1 0.25713 0.480659
0.999481 0.261738 0.476768
0.999435 0.378607 0.373861
0.999207 0.543297 0.19353
0.000122072 0.0136416 0.0163577
0.00047303 0.00030518 6.10361e-05
0.226917 0.00798047 0.0236362
0.749447 0.0203861 0.118379
0.999847 0.128115 0.448798
1 0.25713 0.480659
0.999649 0.285588 0.455406
0.999786 0.391058 0.362417
0.999298 0.548135 0.186435
0.00131228 0.197513 7.62951e-05
0.00181582 0.122423 0.000244144
0.0930648 0.0909743 0.000106813
0.524895 0.0793774 0.014786
0.999725 0.120012 0.30103
0.999451 0.284901 0.457374
0.999542 0.31545 0.431205
0.999939 0.405615 0.348135
0.999405 0.554009 0.177829
0 0.547311 0.000488289
3.0518e-05 0.39646 0.000732433
0 0.341482 0.000137331
0.336904 0.303731 1.5259e-05
0.925093 0.317067 0.000503548
0.999435 0.393057 0.340169
0.999542 0.391104 0.363256
0.999588 0.446983 0.307851
0.999725 0.570886 0.153109
0.000106813 0.817136 0.000564584
0 0.779156 0.000183108
1.5259e-05 0.748562 0.000167849
0.0154726 0.699184 4.57771e-05
0.73225 0.645335 0
0.999741 0.625803 0.000137331
0.999817 0.552819 0.179141
0.999252 0.549432 0.184665
0.9991 0.621683 0.073991
0 1 0.000289921
0 1 0.000289921
0 1 0.000289921
0 0.999542 0.000320439
0.329946 0.956527 7.62951e-05
0.998764 0.861372 6.10361e-05
0.999283 0.766751 6.10361e-05
0.99939 0.737316 0.000106813
0.99968 0.734997 3.0518e-05
0 1 0.000289921
0 1 0.000289921
0 1 0.000289921
0 1 0.000289921
0 1 0.000289921
0.69369 0.99968 1.5259e-05
0.999695 0.943801 0.00128176
0.999146 0.886702 0.00015259
0.999161 0.856123 0.000167849
0 1 0.000289921
0 1 0.000289921
0 1 0.000289921
0 1 0.000289921
0 1 0.000289921
0.241154 0.999649 4.57771e-05
0.899382 0.994247 0.00169375
0.980819 0.986313 0.0157168
0.988922 0.979919 0.0142061
0.509896 0.999802 0.000122072
0.513298 0.999802 0.000122072
0.517357 0.999802 0.000122072
0.529549 0.999786 0.000106813
0.568856 0.999725 6.10361e-05
0.66981 0.999771 1.5259e-05
0.868498 0.996857 3.0518e-05
0.980819 0.986313 0.0157168
0.980819 0.986313 0.0157168
0.00631724 0 0.0897688
0.0028687 0.000457771 0.0611429
0.298238 0.00810254 0.0467994
0.911528 0.0331884 0.200839
1 0.254292 0.479667
1 0.25713 0.480659
0.999664 0.271 0.469718
0.999741 0.390784 0.366064
0.999207 0.543297 0.19353
0.0108644 0.005066 0.154757
0.00648508 0.00015259 0.100038
0.207477 0.000213626 0.0813611
0.702281 0.0158083 0.125338
0.999985 0.10277 0.442924
1 0.25713 0.480659
0.999512 0.300404 0.444175
0.999634 0.403342 0.354223
0.999298 0.548135 0.186435
4.57771e-05 0.214374 0.227619
0.000335698 0.130877 0.124575
0.0889296 0.0904402 0.0885481
0.500481 0.0775311 0.101167
0.999619 0.117845 0.299718
0.999725 0.297307 0.447517
0.999817 0.332311 0.41561
0.999557 0.417807 0.337575
0.999405 0.554009 0.177829
9.15541e-05 0.588907 0.137133
6.10361e-05 0.438804 0.0339055
9.15541e-05 0.373693 0.00848402
0.320882 0.32108 0.00378424
0.895827 0.317861 0.0891127
0.999557 0.399802 0.360754
0.999344 0.411521 0.343267
0.999603 0.459953 0.292393
0.999725 0.570886 0.153109
0 0.852461 0.000534066
0.000183108 0.818219 0.000183108
6.10361e-05 0.788235 6.10361e-05
0.0062562 0.732799 0.000289921
0.691005 0.663111 0
0.999023 0.636713 0.0883497
0.999451 0.577646 0.19823
0.999207 0.565454 0.161273
0.9991 0.621683 0.073991
0 1 0.000289921
0 1 0.000289921
0 1 0.000289921
0 1 0.000289921
0.186236 0.983139 0.000991836
0.978042 0.876219 0.000244144
0.999313 0.80621 0
0.999023 0.747173 0.000106813
0.99968 0.734997 3.0518e-05
0 1 0.000289921
0 1 0.000289921
0 1 0.000289921
0 1 0.000289921
0 1 0.000289921
0.603586 0.999832 4.57771e-05
0.997772 0.959777 0.00633249
0.999512 0.898955 7.62951e-05
0.999161 0.856123 0.000167849
0 1 0.000289921
0 1 0.000289921
0 1 0.000289921
0 1 0.000289921
0 1 0.000289921
0.137697 0.999908 0.000366217
0.862776 0.996521 0.000122072
0.980819 0.986313 0.0157168
0.988922 0.979919 0.0142061
0.492348 0.999695 0.000106813
0.495735 0.999695 9.15541e-05
0.49984 0.999695 9.15541e-05
0.512108 0.99971 7.62951e-05
0.551705 0.999725 4.57771e-05
0.654521 0.999664 7.62951e-05
0.856031 0.997208 0.000106813
0.980819 0.986313 0.0157168
0.980819 0.986313 0.0157168
0.0234379 1.5259e-05 0.286412
0.0191348 9.15541e-05 0.236408
0.293965 0.000244144 0.181384
0.875547 0.0113527 0.287266
0.999634 0.246891 0.491661
0.999329 0.259541 0.510063
0.999756 0.290669 0.517189
0.999207 0.417853 0.412894
0.999252 0.576364 0.145205
0.0434119 6.10361e-05 0.407156
0.0330053 4.57771e-05 0.323384
0.207965 0.00030518 0.251652
0.680735 0.000335698 0.304372
0.999985 0.0573587 0.561715
0.999771 0.268406 0.563592
0.999664 0.32195 0.512688
0.999298 0.430884 0.407614
0.999222 0.581552 0.137591
0.00117494 0.221988 0.608667
0.000869764 0.132357 0.44271
0.100481 0.0831769 0.340337
0.504768 0.061677 0.32491
0.999985 0.0867323 0.483238
0.999268 0.324422 0.568399
0.999344 0.354925 0.507927
0.99968 0.445991 0.401846
0.999207 0.587762 0.128557
0.000274662 0.610834 0.63212
9.15541e-05 0.469032 0.46717
1.5259e-05 0.398276 0.387884
0.328542 0.328939 0.328466
0.879988 0.307469 0.362448
0.999893 0.405585 0.530266
0.999695 0.432761 0.486152
0.999481 0.487068 0.381445
0.999084 0.605539 0.102281
0.000228885 0.851545 0.341421
6.10361e-05 0.821561 0.299016
0.000320439 0.794965 0.269017
0.00108339 0.742382 0.227344
0.661784 0.660838 0.196948
0.999512 0.632685 0.365194
0.999557 0.587243 0.421881
0.998947 0.587488 0.320256
0.998993 0.656779 0.0273899
0 1 0.000289921
0 1 0.000289921
0 1 0.000289921
0 1 0.000289921
0.0713817 0.998154 0.000534066
0.939574 0.925292 0.000167849
0.999405 0.804028 0.229938
0.999435 0.765881 0.141451
0.999313 0.764736 1.5259e-05
0 1 0.000289921
0 1 0.000289921
0 1 0.000289921
0 1 0.000289921
0 1 0.000289921
0.488533 0.999817 9.15541e-05
0.997253 0.96585 0.00933852
0.999161 0.909072 0.00015259
0.999115 0.875563 0
0 1 0.000289921
0 1 0.000289921
0 1 0.000289921
0 1 0.000289921
0 1 0.000289921
0.0569924 1 0.000366217
0.808331 0.998688 4.57771e-05
0.981491 0.985977 0.0157168
0.983764 0.984741 0.0156558
0.464637 0.999359 0.000366217
0.467964 0.999359 0.000366217
0.471977 0.999359 0.000350958
0.483955 0.999359 0.000335698
0.522606 0.999359 0.000274662
0.625086 0.99939 0.00015259
0.832486 0.998383 4.57771e-05
0.98233 0.985641 0.0157626
0.980819 0.986313 0.0157168
0.070573 0.000411994 0.623301
0.0666209 0.000137331 0.589532
0.284977 0 0.43418
0.855711 0.000122072 0.506676
0.999924 0.227222 0.618448
0.999969 0.268833 0.637217
0.999542 0.312978 0.651942
0.999741 0.44654 0.601236
0.999466 0.593271 0.465599
0.114885 0.000427253 0.814542
0.095491 0.000259403 0.735363
0.218982 0.000244144 0.566796
0.670893 0.00015259 0.570138
0.999329 0.00015259 0.760662
0.999344 0.257099 0.685374
0.999908 0.348318 0.65153
0.999756 0.458808 0.598978
0.99939 0.597726 0.463355
0.0907607 0.181079 0.999359
0.0738537 0.11371 0.902907
0.143282 0.0538491 0.732174
0.533501 0.0208438 0.66685
0.99881 0.0401312 0.738109
0.999969 0.317494 0.701915
0.999939 0.385962 0.656596
0.999832 0.472511 0.596506
0.999298 0.603037 0.460746
3.0518e-05 0.61973 0.999954
0.000686656 0.478843 0.914473
0.000320439 0.407111 0.83328
0.36144 0.326009 0.740887
0.871855 0.282719 0.702174
0.999329 0.398123 0.722347
0.999512 0.4645 0.659815
0.999817 0.509651 0.590265
0.999039 0.618418 0.452888
0.000488289 0.847059 0.855543
0.000381476 0.81709 0.820066
1.5259e-05 0.790326 0.789303
0.00492866 0.739223 0.735363
0.651881 0.65275 0.652201
0.999878 0.619074 0.675868
0.99939 0.600641 0.641505
0.999908 0.598199 0.566644
0.999496 0.662425 0.426749
4.57771e-05 0.998886 0.597284
0.000106813 0.998703 0.590509
0.000198367 0.998215 0.58378
6.10361e-05 0.99585 0.565225
0.0141756 0.975662 0.528222
0.894499 0.896529 0.491463
0.999619 0.794308 0.555795
0.999603 0.756527 0.487633
0.999161 0.765469 0.343343
4.57771e-05 0.999222 0.119997
3.0518e-05 0.999222 0.121889
1.5259e-05 0.999222 0.124178
7.62951e-05 0.999313 0.12929
0.000106813 0.999527 0.140429
0.344198 0.999954 0.079057
0.996582 0.999329 0.167681
0.999344 0.943694 0.227985
0.999054 0.921645 0.0893111
0 0.999924 0.00349432
0 0.999924 0.00332647
0 0.999939 0.00311284
0 0.999954 0.0024567
0 0.999985 0.00105287
0.0467842 0.999939 0.000274662
0.737743 0.999603 0.000595102
0.986068 0.986252 0.0174411
0.985794 0.98526 0.0166934
0.434806 0.999832 0.163668
0.437827 0.999832 0.162814
0.441474 0.999832 0.161395
0.452384 0.999847 0.158328
0.487541 0.999878 0.147219
0.584222 0.999908 0.117296
0.789899 0.999435 0.0537575
0.983032 0.999695 0.0484321
0.984726 0.985794 0.0166934
0.177356 1.5259e-05 0.927535
0.177356 1.5259e-05 0.927535
0.240543 0.000335698 0.843763
0.829862 0.000228885 0.79173
0.999573 0.0902419 0.825467
0.999954 0.20145 0.799863
0.999649 0.272755 0.800183
0.999557 0.443854 0.75845
0.999557 0.610224 0.701823
0.292851 0.000198367 0.99881
0.297597 0.000183108 0.999115
0.220783 1.5259e-05 0.947692
0.6607 0.000228885 0.951003
1 0 0.999664
1 0.206394 0.850172
0.999924 0.307622 0.806119
0.999695 0.457969 0.758892
0.999573 0.613916 0.701289
0.362081 0.0730449 0.999985
0.352926 0.0707866 0.999969
0.250584 0.00328069 0.987152
0.576257 7.62951e-05 0.999908
0.990799 0 0.999756
0.999573 0.234928 0.892866
0.999969 0.344671 0.811154
0.999908 0.474723 0.758022
0.999603 0.618357 0.700648
0.0949111 0.522698 0.999527
0.117037 0.464134 0.999695
0.0999771 0.374029 0.999298
0.427466 0.27953 0.999908
0.877073 0.22536 0.999863
0.999374 0.327047 0.957397
0.999115 0.433234 0.812482
0.99968 0.515084 0.758236
0.999649 0.631022 0.698817
0.000808728 0.793271 1
0.000274662 0.775219 0.999954
0.000213626 0.756298 1
0.043946 0.716075 0.999985
0.668742 0.631357 0.998947
0.999588 0.577173 0.95964
0.999939 0.594812 0.809293
0.999756 0.612329 0.761135
0.999756 0.66891 0.691752
0.000381476 0.944381 0.975143
0.000869764 0.942763 0.96997
0.000747692 0.940139 0.964904
0.000717174 0.935409 0.953658
0.0664378 0.923079 0.92105
0.853681 0.854429 0.853956
0.999695 0.784421 0.802915
0.999649 0.749798 0.744259
0.999573 0.754513 0.663233
0 0.999924 0.712154
3.0518e-05 0.999863 0.71136
7.62951e-05 0.999695 0.710689
0.000183108 0.999329 0.708034
1.5259e-05 0.999908 0.698833
0.172686 0.999985 0.671077
0.971908 0.979248 0.649531
0.999512 0.91397 0.641917
0.999542 0.892119 0.559762
0.000137331 0.999619 0.603021
0.000183108 0.999634 0.601755
0.000228885 0.999664 0.600153
0.000350958 0.99971 0.5953
0.000427253 0.999664 0.583276
0.0978714 0.999878 0.553338
0.675761 0.999603 0.440375
0.978958 0.999725 0.361501
0.98143 0.999786 0.217456
0.438224 0.999649 0.695598
0.441321 0.999664 0.695399
0.445029 0.999664 0.695155
0.456168 0.99968 0.694453
0.492088 0.999725 0.692012
0.579736 0.999741 0.68249
0.75259 0.999741 0.642695
0.977829 0.999664 0.551247
0.979278 0.999954 0.314855
0.383291 1.5259e-05 0.999985
0.383413 3.0518e-05 0.999969
0.383551 6.10361e-05 0.999939
0.662501 0.000335698 0.999847
1 0 0.99971
1 0.0465095 0.999649
0.999786 0.195987 0.991943
0.999802 0.382788 0.933135
0.999847 0.581094 0.866453
0.40943 9.15541e-05 0.999512
0.409583 7.62951e-05 0.999496
0.409918 3.0518e-05 0.999481
0.580301 4.57771e-05 0.999527
1 0 0.99971
0.999924 0.0502022 0.999771
0.999908 0.231983 0.994247
0.999664 0.396811 0.932921
0.999832 0.585489 0.866163
0.426871 3.0518e-05 0.999512
0.427146 3.0518e-05 0.999573
0.427375 3.0518e-05 0.999603
0.568612 7.62951e-05 0.999908
0.965637 0.000259403 0.999527
1 0.0645304 0.999771
0.999985 0.269734 0.99559
0.999557 0.413016 0.932448
0.999817 0.590799 0.865827
0.353933 0.245975 0.999786
0.353353 0.247196 0.999786
0.354726 0.231983 0.9991
0.461906 0.163165 0.999329
0.885313 0.08748 0.999557
0.999939 0.175982 0.999695
0.999969 0.359274 0.992905
0.999954 0.457572 0.928466
0.999756 0.606256 0.86479
0.000335698 0.735119 0.999298
0.0278935 0.626749 0.999908
0.0360266 0.607889 0.999741
0.196628 0.578408 0.999985
0.661143 0.534707 0.999557
0.999985 0.477256 0.999603
0.999771 0.527291 0.979004
0.999405 0.558053 0.921416
0.999649 0.649332 0.859785
0.000793469 0.872435 0.999985
0.000289921 0.870481 0.999985
0.000579843 0.867689 1
0.000717174 0.860136 1
0.224796 0.83415 0.999985
0.813947 0.784726 0.999924
0.999847 0.737087 0.983581
0.999924 0.721492 0.903258
0.999573 0.743069 0.85452
0.00157168 0.987411 0.999969
0.00149538 0.986831 0.999969
0.00131228 0.986145 0.999969
0.000366217 0.984451 1
0.000762951 0.979644 1
0.195804 0.994827 0.989258
0.931746 0.933776 0.932204
0.999786 0.887694 0.885557
0.999664 0.866972 0.834714
0.000350958 0.995895 0.965408
0.000350958 0.996002 0.96434
0.000366217 0.996124 0.963073
0.000381476 0.99646 0.959335
0.000350958 0.997559 0.947829
0.0183413 0.998978 0.916991
0.639353 0.999832 0.835401
0.985672 0.999771 0.772885
0.986328 0.999924 0.706813
0.294453 0.999817 0.979828
0.298054 0.999817 0.979461
0.302373 0.999802 0.979019
0.315328 0.999802 0.977691
0.357168 0.999756 0.973312
0.468727 0.99968 0.959838
0.700694 0.999664 0.927016
0.962432 0.999634 0.883406
0.985443 0.999832 0.777661
0.414252 1.5259e-05 0.999512
0.414664 1.5259e-05 0.999557
0.415167 1.5259e-05 0.999588
0.41651 0 0.999634
0.838895 0.000335698 0.999634
1 0 0.99971
0.999802 0.0554208 0.999527
0.999924 0.265736 0.999863
0.999756 0.494224 0.999405
0.425498 4.57771e-05 0.999954
0.425834 4.57771e-05 0.999954
0.42623 6.10361e-05 0.999969
0.42742 7.62951e-05 0.999985
0.788754 0.000274662 0.999634
1 0 0.99971
0.999908 0.0873579 0.999634
0.999954 0.279774 0.999863
0.999649 0.499092 0.999329
0.429862 0.0347906 1
0.429618 0.0361639 1
0.429343 0.0378424 1
0.42678 0.0474098 0.999985
0.748089 4.57771e-05 0.999512
1 0 0.99971
0.999954 0.124178 0.999405
0.999985 0.296254 0.999832
0.999542 0.50486 0.999252
0.251957 0.419104 0.999634
0.251118 0.420142 0.999634
0.249439 0.422248 0.999649
0.244419 0.42855 0.999649
0.68011 3.0518e-05 0.999756
0.999985 0.00201419 0.999649
0.999771 0.213153 0.999649
0.999969 0.340658 0.999481
0.999451 0.521508 0.999283
0.000717174 0.842817 0.999741
0.000717174 0.843168 0.999741
0.000717174 0.843519 0.999741
0.0236515 0.644373 0.999893
0.551766 0.321263 0.999435
0.943542 0.333654 0.999344
0.999924 0.392538 0.999847
0.999786 0.450065 0.999405
0.999573 0.567742 0.999817
0.000183108 0.921294 0.999985
0.000564584 0.903807 0.999847
0.000564584 0.886717 0.999939
7.62951e-05 0.843458 0.999878
0.220371 0.743023 0.999832
0.744335 0.667018 0.999344
0.99968 0.642039 0.999405
0.999496 0.635172 0.999374
0.999695 0.674052 0.999649
0.00108339 0.985107 0.999771
0.000961318 0.983474 0.999832
0.000808728 0.981491 0.999908
0.000442512 0.976699 0.999924
0.000122072 0.96173 0.999893
0.281361 0.93785 0.999664
0.882383 0.869963 0.999176
0.999863 0.836988 0.999725
0.999863 0.827466 0.991623
0.00213626 0.990723 1
0.00213626 0.990723 1
0.00213626 0.990723 1
0.00244144 0.99057 1
0.00344854 0.990051 1
0.00274662 0.989273 0.999908
0.526162 0.999695 0.997589
0.9897 0.996201 0.995727
0.996948 0.978866 0.960464
0.16289 0.999725 0.999496
0.16672 0.999725 0.999512
0.171313 0.999741 0.999512
0.185107 0.999756 0.999542
0.231067 0.999802 0.999634
0.357259 0.999863 0.998886
0.619318 0.999878 0.993912
0.92755 0.999878 0.992981
0.999619 0.999878 0.99826
0.219059 0.461524 0.999542
0.217533 0.463188 0.999557
0.215702 0.465187 0.999573
0.210529 0.470863 0.999603
0.192889 0.490196 0.999725
0.896361 1.5259e-05 0.999496
1 0 0.99971
0.999969 0.0335393 0.999832
1 0.318166 1
0.154543 0.532204 0.999985
0.153017 0.533867 1
0.151354 0.53547 1
0.145357 0.540246 0.999985
0.126253 0.555489 0.999954
0.886046 7.62951e-05 0.999252
1 0 0.99971
0.999908 0.0475319 0.999802
1 0.323415 1
0.068925 0.601205 0.999878
0.0674144 0.602396 0.999878
0.0655528 0.603891 0.999878
0.0603037 0.608072 0.999863
0.0487678 0.620523 0.999847
0.876188 0.000167849 0.999542
1 0 0.99971
0.999817 0.0639811 0.999741
1 0.329763 1
0.000106813 0.742184 0.999878
0.000122072 0.742596 0.999878
0.000122072 0.743435 0.999878
0.000122072 0.74551 0.999863
0.000137331 0.752377 0.999847
0.847028 9.15541e-05 0.999466
1 0 0.99971
0.999924 0.111055 0.999588
1 0.348058 0.999985
0.000701915 0.91371 1
0.000701915 0.913802 1
0.000701915 0.914 1
0.000686656 0.914504 1
0.000656138 0.916274 1
0.747234 0.322972 0.999512
0.999908 0.180026 0.999283
0.999725 0.235584 0.99971
0.999893 0.403174 0.999237
0.00213626 0.990723 1
0.00213626 0.990723 1
0.00213626 0.990723 1
0.00213626 0.990723 1
0.000228885 0.914687 0.999985
0.546334 0.715236 0.999786
0.986679 0.597833 0.999634
0.999634 0.490166 0.999786
0.999939 0.529778 0.999466
0.00213626 0.990723 1
0.00213626 0.990723 1
0.00213626 0.990723 1
0.00213626 0.990967 0.999344
0.00209049 0.990585 0.999725
0.00177005 0.95906 0.999908
0.802976 0.885695 0.99942
0.999802 0.806638 0.999405
0.999725 0.747494 0.99942
0.00213626 0.990723 1
0.00213626 0.990723 1
0.00213626 0.990723 1
0.00213626 0.990723 1
0.00213626 0.990723 1
0.00350958 0.990021 1
0.377691 0.999817 0.998505
0.956603 0.999664 0.994659
0.996521 0.965774 0.999847
0.0194095 0.996643 0.999969
0.020325 0.99678 0.999969
0.0248875 0.996857 0.999969
0.0372778 0.997086 0.999969
0.0777142 0.997833 0.999969
0.201862 0.999847 1
0.523598 0.999924 0.997024
0.888426 0.999725 0.991257
1 1 1
