Luts/Fujifilm/FLog2C_to_CLASSIC-Neg._VLog.cube
TITLE "Generated by Resolve"
LUT_3D_SIZE 33
0 0 0
0 0 0
0 0 0
0 0 0
0.0109102 0.000900282 0
0.059678 0.00442512 0.000732433
0.0987716 0.00849927 0.000137331
0.157015 0.0113527 0
0.254383 0.0201114 0.000228885
0.412329 0.0339971 0.000183108
0.636713 0.0557107 0.000411994
0.802274 0.0788891 0
0.891905 0.10663 0.0340581
0.93872 0.140703 0.11075
0.944915 0.187381 0.189319
0.949462 0.257084 0.254917
0.951064 0.281895 0.277256
0.951064 0.281895 0.277256
0.951064 0.281895 0.277256
0.951064 0.281895 0.277256
0.951064 0.281895 0.277256
0.951064 0.281895 0.277256
0.951064 0.281895 0.277256
0.951064 0.281895 0.277256
0.951186 0.285237 0.27689
0.952728 0.303059 0.274083
0.951949 0.329534 0.270985
0.952773 0.355703 0.267048
0.953323 0.388205 0.260685
0.954543 0.423407 0.254551
0.954818 0.462928 0.246464
0.955306 0.505089 0.23714
0.955749 0.552056 0.22446
0 0 0
0 0 0
0 0 0
0 0 0
0.0165103 0.00106813 0
0.0676432 0.00509651 0.000701915
0.106493 0.00909438 0
0.165621 0.011902 0
0.265126 0.0213321 0.000274662
0.426184 0.0351415 0.000122072
0.647639 0.0568856 0.00047303
0.806729 0.0797742 0
0.893126 0.107149 0.0350805
0.939315 0.141573 0.113008
0.944945 0.188449 0.190387
0.949493 0.257969 0.255741
0.951064 0.281819 0.277195
0.951064 0.281895 0.277256
0.951064 0.281895 0.277256
0.951064 0.281895 0.277256
0.951064 0.281895 0.277256
0.951064 0.281895 0.277256
0.951064 0.281895 0.277256
0.951064 0.281895 0.277256
0.951308 0.288716 0.276158
0.952453 0.3084 0.273655
0.952087 0.333242 0.270497
0.953002 0.358892 0.266438
0.953384 0.391058 0.260243
0.954696 0.42565 0.254078
0.954879 0.464912 0.24596
0.955291 0.506584 0.23682
0.955795 0.553353 0.224033
0 0 0
0 0 0
0 0 0
0 0 0
0.0233768 0.00149538 0.000106813
0.0750591 0.00584421 0.000656138
0.115129 0.00932326 0
0.17496 0.012604 0
0.271244 0.0219425 0.000411994
0.42652 0.0348516 0.000350958
0.635752 0.0551919 0.000259403
0.794553 0.0765087 0
0.882811 0.102098 0.0261997
0.936141 0.133089 0.0899214
0.943648 0.16556 0.167239
0.946548 0.214847 0.213733
0.950393 0.270054 0.266453
0.951034 0.281788 0.27718
0.951064 0.281895 0.277256
0.951064 0.281895 0.277256
0.951064 0.281895 0.277256
0.951064 0.281895 0.277256
0.951064 0.281895 0.277256
0.951064 0.281895 0.277256
0.951446 0.293416 0.274983
0.952209 0.313344 0.273243
0.952224 0.336782 0.270039
0.953216 0.361959 0.265873
0.953429 0.393896 0.259815
0.954864 0.427985 0.253574
0.954925 0.466896 0.245472
0.955322 0.508217 0.236332
0.955825 0.55465 0.22359
0 0 0
0 0 0
0 0 0
0 0 0
0.0126192 0.00134279 7.62951e-05
0.0498054 0.00451667 0.000122072
0.0929427 0.00657664 0.000137331
0.137011 0.0109407 4.57771e-05
0.20827 0.0164187 3.0518e-05
0.325917 0.0257267 0.000518807
0.50454 0.0412451 0.000671397
0.704097 0.0628367 0
0.830854 0.0830854 0.000228885
0.901488 0.111177 0.0416876
0.939437 0.140841 0.111284
0.944305 0.176242 0.178775
0.947951 0.22681 0.225391
0.950805 0.276692 0.273396
0.951064 0.281895 0.277256
0.951064 0.281895 0.277256
0.951064 0.281895 0.277256
0.951064 0.281895 0.277256
0.951064 0.281895 0.277256
0.950866 0.284245 0.276616
0.951614 0.298146 0.273991
0.951965 0.318151 0.272816
0.952346 0.340368 0.269535
0.953384 0.365225 0.265293
0.953475 0.396765 0.259342
0.954925 0.430411 0.253086
0.954894 0.469017 0.245075
0.955352 0.50985 0.235843
0.955871 0.555947 0.223163
0.000366217 0.00585946 0.000366217
0.00030518 0.00633249 0.00030518
0.000228885 0.00578317 0.00047303
0.000320439 0.002121 0.000427253
0.00433356 0.000701915 3.0518e-05
0.0377356 0.00239567 0.000320439
0.0699474 0.00605783 0.000198367
0.110552 0.0089723 6.10361e-05
0.165347 0.0133211 0.000335698
0.251438 0.0202945 0.00062562
0.389746 0.0313878 0
0.582284 0.0483558 0
0.759335 0.0685435 0
0.860273 0.0928054 0.010956
0.918486 0.121462 0.0630808
0.942214 0.151019 0.143862
0.946044 0.193286 0.195392
0.949828 0.250507 0.247562
0.951049 0.281804 0.277165
0.951064 0.281895 0.277256
0.951064 0.281895 0.277256
0.951064 0.281895 0.277256
0.951064 0.282216 0.277119
0.950408 0.289677 0.275166
0.951934 0.304036 0.273243
0.951904 0.322393 0.271717
0.952468 0.344732 0.268818
0.953384 0.369146 0.264775
0.953521 0.399847 0.258793
0.954955 0.432837 0.252598
0.954879 0.471015 0.244709
0.955398 0.511604 0.235309
0.955917 0.557214 0.222736
0.000228885 0.0371557 0.00515755
0.000274662 0.0377508 0.00520333
0.000320439 0.0285801 0.00384527
0 0.0177615 0.00158694
0 0.0107118 0.00062562
0.0188144 0.00820935 0.000137331
0.0539254 0.00743114 0.000213626
0.0882582 0.0078584 7.62951e-05
0.13283 0.0112917 0.000259403
0.201129 0.0165255 0.000396735
0.308232 0.0242008 0.00047303
0.477501 0.0410315 0.000167849
0.677958 0.0576181 0.000244144
0.816846 0.0809186 0.000244144
0.89395 0.106905 0.0329747
0.9393 0.136812 0.101549
0.943725 0.173205 0.175051
0.948394 0.22678 0.225467
0.951064 0.281895 0.277256
0.951064 0.281895 0.277256
0.951064 0.281895 0.277256
0.950896 0.282658 0.277302
0.951125 0.285222 0.275959
0.950378 0.295079 0.27396
0.952224 0.309392 0.272572
0.951843 0.32639 0.270665
0.95259 0.34902 0.268116
0.953384 0.372976 0.264271
0.953567 0.402838 0.258244
0.954971 0.43537 0.252079
0.954849 0.473136 0.244312
0.955428 0.513191 0.234836
0.955947 0.558373 0.222339
0.00163272 0.0666819 0.0107881
0.00158694 0.0674449 0.0108949
0.000961318 0.0585946 0.00909438
0.00030518 0.0445258 0.00645457
3.0518e-05 0.033463 0.00448615
0.00389105 0.0262455 0.00224308
0.0345769 0.0233005 0.000503548
0.0711376 0.0231022 0.000488289
0.112367 0.0216831 6.10361e-05
0.169329 0.0237736 7.62951e-05
0.261769 0.0281376 0.00015259
0.406302 0.037171 0
0.608988 0.0515602 1.5259e-05
0.778286 0.0737011 0
0.871122 0.0977646 0.0170901
0.927672 0.127092 0.0762951
0.943481 0.157824 0.158877
0.947234 0.209262 0.208362
0.950469 0.268925 0.265415
0.951064 0.281895 0.277256
0.951064 0.281895 0.277256
0.950423 0.284886 0.277424
0.95137 0.289815 0.275013
0.95082 0.301122 0.272892
0.952163 0.314977 0.271992
0.951782 0.330449 0.269612
0.952697 0.353231 0.267414
0.953384 0.376806 0.263752
0.953613 0.405814 0.25771
0.955001 0.437797 0.251591
0.954818 0.47509 0.243946
0.955459 0.514824 0.234348
0.955978 0.559686 0.221897
0.002533 0.0989242 0.0162661
0.00260929 0.0997024 0.0164187
0.00218204 0.0902571 0.0140078
0.00120546 0.075349 0.0120546
0.00164797 0.0600443 0.0087129
0.00180056 0.0513924 0.00668345
0.0184482 0.0476692 0.00514229
0.0565652 0.0447089 0.000595102
0.096376 0.0430915 6.10361e-05
0.146334 0.0435645 6.10361e-05
0.226291 0.0467384 0.000244144
0.350607 0.0543221 3.0518e-05
0.541711 0.0660716 0.00015259
0.730175 0.0840009 0
0.847974 0.101534 0.00399786
0.91194 0.123796 0.0537881
0.942763 0.152514 0.133654
0.945144 0.197543 0.194034
0.950149 0.253437 0.249012
0.951827 0.286122 0.276387
0.950759 0.287297 0.276036
0.951171 0.292699 0.275303
0.95198 0.297673 0.274327
0.951308 0.308415 0.272129
0.951812 0.321386 0.271412
0.951858 0.336019 0.268681
0.952834 0.35819 0.26659
0.953384 0.381369 0.263142
0.953674 0.409354 0.257069
0.955032 0.440726 0.251011
0.954787 0.477562 0.243503
0.955489 0.516701 0.233768
0.956024 0.561242 0.221378
0.00357061 0.136782 0.0213931
0.00363165 0.136431 0.0214084
0.00280766 0.121431 0.0195926
0.00234989 0.105394 0.0158083
0.00238041 0.0918441 0.0143282
0.00132753 0.0823682 0.0132753
0.00561532 0.0775006 0.0112459
0.0371557 0.072755 0.00648508
0.0813916 0.0702983 0.000640879
0.125917 0.0694438 9.15541e-05
0.194888 0.0713817 1.5259e-05
0.305028 0.0769513 0.00015259
0.475517 0.0900587 0.000106813
0.674739 0.106661 3.0518e-05
0.817578 0.124422 0.0010071
0.895003 0.143587 0.0336004
0.940429 0.167437 0.101778
0.945388 0.200229 0.175692
0.948669 0.252186 0.230228
0.952163 0.298192 0.274464
0.95172 0.299641 0.27425
0.952117 0.304036 0.272694
0.952285 0.309697 0.272801
0.951949 0.319341 0.272267
0.951614 0.329778 0.270512
0.952102 0.344198 0.267735
0.953079 0.364569 0.265354
0.953368 0.387335 0.262348
0.95375 0.414069 0.256229
0.955062 0.444633 0.250217
0.954742 0.480858 0.242893
0.95555 0.519463 0.232929
0.956085 0.563317 0.220676
0.00494392 0.189395 0.0304723
0.00547799 0.178439 0.0283818
0.00393683 0.158572 0.0246738
0.0037232 0.139178 0.0228428
0.00280766 0.123323 0.0187076
0.00242618 0.114839 0.0180362
0.00239567 0.108522 0.0173648
0.0154726 0.103258 0.0149386
0.060853 0.101656 0.00714122
0.106996 0.0999313 0.00144961
0.165728 0.100084 6.10361e-05
0.260777 0.103609 3.0518e-05
0.410697 0.113329 1.5259e-05
0.613901 0.130251 7.62951e-05
0.779492 0.147738 0
0.873686 0.166613 0.01561
0.929763 0.188907 0.0745098
0.944167 0.215335 0.155825
0.948409 0.257969 0.20914
0.952377 0.311391 0.268284
0.951751 0.317693 0.272343
0.952117 0.319127 0.270619
0.95201 0.324163 0.271031
0.951949 0.331029 0.270085
0.952285 0.34107 0.268696
0.95256 0.354299 0.266423
0.953429 0.372747 0.263676
0.953475 0.394629 0.260578
0.953841 0.420233 0.255116
0.955108 0.449805 0.24918
0.954696 0.485222 0.242084
0.955627 0.522988 0.231876
0.956176 0.566049 0.21976
0.00767529 0.262852 0.0432746
0.00646983 0.228702 0.0377356
0.00560006 0.201572 0.0327611
0.00483711 0.18114 0.029221
0.00454719 0.164782 0.0255436
0.00366217 0.153399 0.024918
0.00383001 0.146227 0.0230259
0.00701915 0.139239 0.0222019
0.0394598 0.135592 0.0166629
0.0886702 0.13257 0.00875868
0.143145 0.131823 0.000671397
0.225238 0.133028 9.15541e-05
0.357153 0.141238 0.000366217
0.546288 0.154208 3.0518e-05
0.733532 0.172274 0.00015259
0.849088 0.192111 0.0039826
0.914855 0.214618 0.0502022
0.943847 0.241657 0.126925
0.947936 0.271916 0.186618
0.95108 0.319387 0.244724
0.95227 0.338674 0.267247
0.952605 0.339513 0.268711
0.952163 0.341802 0.269291
0.952224 0.346578 0.267308
0.953155 0.355123 0.266377
0.953979 0.367239 0.264118
0.95378 0.383459 0.261585
0.953628 0.403861 0.258183
0.954147 0.428336 0.253697
0.955154 0.456535 0.247837
0.954635 0.49099 0.241032
0.955734 0.527626 0.230457
0.956283 0.569696 0.218555
0.0102846 0.332479 0.0552377
0.00857557 0.28986 0.0479133
0.00772107 0.25771 0.0417029
0.00622568 0.232059 0.0383917
0.00630198 0.214603 0.0350347
0.00596628 0.202792 0.0332189
0.00488289 0.194537 0.031754
0.00576791 0.186252 0.0303655
0.0161135 0.179828 0.0276036
0.0626841 0.175143 0.02121
0.122469 0.172076 0.0111238
0.194064 0.172625 0.00242618
0.307073 0.177249 0.000137331
0.481209 0.187366 1.5259e-05
0.680552 0.204532 7.62951e-05
0.819638 0.224414 0
0.897398 0.247044 0.0283055
0.942428 0.273884 0.094728
0.947295 0.298665 0.16347
0.950652 0.334539 0.219867
0.952895 0.366888 0.264103
0.953902 0.364218 0.265126
0.953597 0.363775 0.265309
0.953063 0.367803 0.264088
0.95378 0.373342 0.263569
0.954086 0.383459 0.261128
0.953948 0.39794 0.259052
0.953841 0.415961 0.255344
0.954543 0.438697 0.251911
0.955123 0.466255 0.246159
0.954681 0.498543 0.239445
0.955856 0.533776 0.228595
0.95642 0.574502 0.216938
0.0125582 0.4038 0.0668498
0.0106813 0.360327 0.0590524
0.00881972 0.325307 0.0537575
0.00839246 0.30016 0.0486915
0.00799573 0.280812 0.0457618
0.00787366 0.267781 0.0435798
0.00808728 0.257816 0.042298
0.00779736 0.248478 0.0400702
0.00753796 0.239765 0.0387732
0.0318456 0.230625 0.0340581
0.096376 0.226474 0.0239872
0.164797 0.223102 0.0137484
0.264958 0.223957 0.00242618
0.42327 0.232151 1.5259e-05
0.623499 0.247364 4.57771e-05
0.784222 0.265843 9.15541e-05
0.876448 0.287846 0.00961318
0.932097 0.315511 0.0657816
0.947295 0.342031 0.140932
0.949111 0.363073 0.191394
0.954055 0.395758 0.251423
0.95346 0.396887 0.259968
0.953841 0.394446 0.26041
0.953582 0.393744 0.259983
0.953323 0.398093 0.259892
0.953521 0.405493 0.258244
0.953994 0.416358 0.25594
0.954116 0.431815 0.252201
0.954711 0.452384 0.249073
0.955093 0.478874 0.243992
0.955337 0.508324 0.236606
0.955962 0.541878 0.226307
0.956603 0.580865 0.214801
0.014023 0.473716 0.0782635
0.0135805 0.43386 0.0714275
0.0123903 0.405432 0.0670634
0.0119631 0.381048 0.0623178
0.0110475 0.363714 0.059556
0.0105745 0.350973 0.0579232
0.0110933 0.341375 0.0557717
0.010132 0.330755 0.0534524
0.00920119 0.318791 0.0526436
0.0122835 0.306325 0.0501869
0.0621653 0.297581 0.041825
0.13434 0.291463 0.0307774
0.226093 0.29015 0.01738
0.366278 0.293904 0.000167849
0.566995 0.30547 0.000534066
0.745007 0.320882 9.15541e-05
0.85417 0.342046 0.00155642
0.9187 0.367941 0.0394293
0.948089 0.39556 0.109056
0.949844 0.405173 0.165759
0.953765 0.429541 0.226047
0.95494 0.433951 0.252171
0.953521 0.429557 0.253559
0.954574 0.42652 0.256153
0.953567 0.427314 0.25452
0.953964 0.432181 0.254093
0.954482 0.439811 0.251759
0.954849 0.452918 0.248585
0.954452 0.47039 0.244678
0.955367 0.494224 0.240497
0.956161 0.520882 0.232975
0.955962 0.552819 0.223606
0.956695 0.589319 0.212146
0.016907 0.54815 0.0902266
0.0158694 0.519661 0.0868391
0.0162356 0.497704 0.0832074
0.0145266 0.478035 0.0799268
0.0147097 0.463142 0.0770275
0.0144198 0.451102 0.0745708
0.0136873 0.441489 0.0726482
0.0136568 0.430655 0.0706645
0.0130159 0.417731 0.0688334
0.0117342 0.40444 0.0661631
0.021622 0.391928 0.0626535
0.102541 0.381979 0.0498512
0.187961 0.376135 0.0362249
0.31667 0.375494 0.0191043
0.506218 0.384527 0.000198367
0.703212 0.39678 1.5259e-05
0.829801 0.41268 0.000427253
0.901091 0.434012 0.0124056
0.943709 0.45951 0.0775464
0.950561 0.466758 0.138415
0.952544 0.473884 0.193484
0.955459 0.480568 0.242725
0.954482 0.472404 0.244144
0.954803 0.467521 0.245945
0.954772 0.463249 0.247349
0.954543 0.465126 0.247272
0.955077 0.469993 0.24564
0.955215 0.47924 0.243503
0.954971 0.493568 0.239307
0.956054 0.512856 0.235264
0.956405 0.537606 0.228153
0.955962 0.566888 0.220096
0.956603 0.600443 0.208835
0.019913 0.631006 0.104906
0.0187533 0.611292 0.101091
0.0182193 0.595636 0.0998703
0.0185245 0.582422 0.0968338
0.0182956 0.571328 0.0944686
0.0174105 0.562112 0.0929122
0.0172732 0.553338 0.0916152
0.0172274 0.542779 0.090074
0.0163729 0.531182 0.0878157
0.0159609 0.517693 0.085481
0.017792 0.503349 0.0832532
0.0594339 0.489906 0.0751812
0.148913 0.481453 0.0613413
0.267247 0.476493 0.0440986
0.445258 0.479927 0.0190433
0.653498 0.48957 3.0518e-05
0.804288 0.500542 4.57771e-05
0.88513 0.515572 0.00320439
0.935225 0.532525 0.0426032
0.951843 0.543862 0.109468
0.954025 0.534432 0.159976
0.954818 0.534218 0.217258
0.956222 0.523598 0.23209
0.955795 0.513726 0.234287
0.955581 0.507897 0.236362
0.955947 0.505257 0.237278
0.955871 0.506569 0.237812
0.955337 0.511742 0.234607
0.955764 0.52253 0.232471
0.955917 0.537697 0.228611
0.956008 0.559106 0.221942
0.956527 0.584649 0.214679
0.956497 0.614679 0.204623
0.0226902 0.709194 0.118654
0.0222477 0.699077 0.117021
0.0214084 0.690272 0.115526
0.0213931 0.681575 0.114
0.0214542 0.673945 0.112657
0.0214847 0.666636 0.111543
0.0215457 0.660319 0.110613
0.0211337 0.652705 0.109346
0.0204776 0.643427 0.107729
0.0193179 0.632074 0.105333
0.0199893 0.619898 0.103166
0.0260929 0.606775 0.100252
0.101549 0.597818 0.0879835
0.214969 0.590524 0.0707408
0.379843 0.588113 0.0462043
0.594903 0.594156 0.0184482
0.774151 0.600122 7.62951e-05
0.86772 0.607584 0.000534066
0.923705 0.61735 0.0268101
0.952636 0.624964 0.074403
0.953582 0.608789 0.123415
0.956268 0.595361 0.180331
0.957305 0.582406 0.21561
0.956207 0.569299 0.219471
0.955856 0.559335 0.222293
0.955688 0.553124 0.223362
0.956039 0.54992 0.22533
0.956313 0.551812 0.224216
0.956542 0.557977 0.222721
0.95613 0.568765 0.219409
0.957397 0.584939 0.21384
0.957641 0.606806 0.207248
0.956756 0.633158 0.197696
0.0233616 0.775708 0.129915
0.0233158 0.770306 0.129137
0.02327 0.76527 0.12845
0.0237278 0.760433 0.127306
0.0241855 0.756069 0.126238
0.0243229 0.751827 0.125246
0.0239261 0.747585 0.124285
0.0234684 0.742657 0.123171
0.0230564 0.736507 0.121965
0.0226139 0.728801 0.120562
0.0226749 0.719905 0.120256
0.0229801 0.710033 0.118074
0.0508278 0.700603 0.113436
0.152728 0.694697 0.0959029
0.307088 0.691951 0.0743572
0.521981 0.695506 0.0455024
0.728038 0.699367 0.0177462
0.847501 0.702785 0.00247196
0.910109 0.705318 0.0159609
0.948882 0.706752 0.0541848
0.954513 0.691768 0.0851759
0.95581 0.669032 0.135424
0.957244 0.646052 0.189349
0.956817 0.630472 0.198306
0.957626 0.618173 0.203586
0.957885 0.608438 0.206577
0.957443 0.601389 0.208896
0.957412 0.597864 0.210544
0.957183 0.599924 0.209339
0.956863 0.605982 0.207691
0.957397 0.616922 0.203235
0.957046 0.634333 0.197421
0.957244 0.656443 0.188296
0.026566 0.829541 0.138003
0.0268406 0.82623 0.137743
0.0270848 0.822828 0.137469
0.0265965 0.820157 0.136797
0.0260929 0.817639 0.136156
0.0256352 0.815183 0.135531
0.0254063 0.812619 0.135149
0.0253605 0.809674 0.134936
0.0252995 0.805859 0.134691
0.0254978 0.8009 0.133684
0.0258793 0.794644 0.132082
0.0256046 0.787396 0.131609
0.030518 0.780194 0.129824
0.0937667 0.775677 0.120867
0.224094 0.77438 0.0999313
0.430259 0.776318 0.0721294
0.663844 0.782818 0.0409094
0.815991 0.783719 0.0203708
0.894942 0.782956 0.0108949
0.94052 0.781552 0.0336767
0.955825 0.77113 0.0659648
0.955673 0.744442 0.0848859
0.957397 0.714321 0.145235
0.95787 0.694224 0.169741
0.957626 0.680568 0.17734
0.957626 0.668147 0.182879
0.957382 0.657237 0.18677
0.957229 0.650843 0.191379
0.957061 0.647211 0.192203
0.957885 0.648936 0.192691
0.957336 0.65536 0.187884
0.957229 0.666789 0.183032
0.957366 0.683345 0.175143
0.0282444 0.873137 0.145144
0.0283513 0.871138 0.144839
0.0284276 0.869139 0.144518
0.0283055 0.867506 0.144213
0.0281834 0.865812 0.143908
0.0280613 0.864149 0.143603
0.0279393 0.862501 0.143297
0.0277714 0.860761 0.142977
0.0275425 0.858396 0.142535
0.0272221 0.855268 0.141955
0.0267796 0.851377 0.141283
0.026215 0.846601 0.140475
0.0266728 0.840208 0.139376
0.0360418 0.83447 0.137469
0.14136 0.833677 0.123186
0.320882 0.836683 0.097734
0.568215 0.842924 0.0651102
0.770748 0.847852 0.0370947
0.872099 0.846113 0.0238956
0.926162 0.84361 0.0169375
0.956054 0.837034 0.0484779
0.956634 0.813993 0.0568856
0.956909 0.782437 0.0844587
0.958556 0.755734 0.133562
0.958251 0.740841 0.143954
0.958206 0.72726 0.151446
0.95906 0.715038 0.159609
0.957809 0.706065 0.165011
0.958526 0.699229 0.168368
0.957488 0.696559 0.169024
0.958144 0.697536 0.169467
0.957137 0.703822 0.164446
0.958526 0.714382 0.158572
0.0287327 0.908278 0.152407
0.0285649 0.907225 0.152285
0.028397 0.906126 0.152148
0.0284123 0.905058 0.151812
0.0284276 0.904005 0.151461
0.0284276 0.902983 0.151141
0.0284428 0.901915 0.150805
0.0284581 0.900801 0.150423
0.0284886 0.899199 0.14992
0.0284886 0.897154 0.149279
0.0285191 0.894728 0.148501
0.0281834 0.891539 0.148562
0.0275273 0.887495 0.149248
0.0285649 0.882643 0.147601
0.0675517 0.87924 0.140581
0.207691 0.881041 0.121416
0.444358 0.888853 0.0901045
0.692683 0.896284 0.0567636
0.838788 0.89865 0.0350195
0.909255 0.89572 0.0262455
0.94902 0.890318 0.0211032
0.957168 0.871275 0.0367285
0.956588 0.843168 0.047303
0.957626 0.813382 0.077821
0.95848 0.796887 0.0990616
0.958099 0.784115 0.112383
0.958541 0.771572 0.121355
0.958755 0.76144 0.131395
0.958297 0.751888 0.135668
0.958816 0.745708 0.140932
0.958816 0.742443 0.141787
0.958144 0.744427 0.140993
0.958648 0.749615 0.136477
0.0299382 0.935485 0.156054
0.0299229 0.93489 0.155688
0.0299382 0.93434 0.15555
0.0300145 0.933806 0.155734
0.0300908 0.933288 0.155886
0.0301671 0.932769 0.156054
0.0302434 0.932357 0.156222
0.0303349 0.931731 0.15642
0.030457 0.930938 0.15668
0.0303655 0.929686 0.156558
0.0300145 0.927993 0.155886
0.0295262 0.925673 0.154986
0.0293431 0.923186 0.154299
0.0293889 0.920226 0.153613
0.0343175 0.916365 0.152071
0.115496 0.915801 0.141588
0.304021 0.921798 0.115816
0.581491 0.932204 0.0786145
0.786618 0.938643 0.0509041
0.885725 0.93611 0.0374304
0.934966 0.931197 0.0295109
0.954391 0.917647 0.0240635
0.955978 0.895659 0.0262913
0.956802 0.866499 0.0373083
0.957107 0.846052 0.0457618
0.957229 0.834577 0.0592203
0.957839 0.823072 0.0704967
0.957763 0.811597 0.0834974
0.957748 0.802716 0.0957809
0.958007 0.794125 0.102098
0.95816 0.788006 0.107774
0.95819 0.786282 0.110216
0.958129 0.786496 0.108339
0.0293584 0.944396 0.157168
0.0292668 0.944305 0.157092
0.0292668 0.944274 0.157076
0.0292668 0.944259 0.157076
0.0292668 0.944244 0.157076
0.0292821 0.944228 0.157076
0.0292821 0.944213 0.157076
0.0292821 0.944183 0.157076
0.0292973 0.944152 0.157076
0.0292973 0.944121 0.157061
0.0292973 0.944091 0.157061
0.0292973 0.94403 0.157046
0.0292973 0.943984 0.157031
0.0294347 0.943099 0.157321
0.0299077 0.941756 0.157671
0.0344549 0.939437 0.155657
0.168536 0.943374 0.136843
0.416388 0.954025 0.10457
0.697444 0.965042 0.0675364
0.842451 0.966964 0.0470741
0.912779 0.963439 0.0380407
0.947005 0.953063 0.03093
0.952773 0.936248 0.027924
0.95581 0.913222 0.0232853
0.956252 0.890684 0.0286259
0.95697 0.879103 0.0334936
0.957015 0.867964 0.0377203
0.957 0.857588 0.041886
0.957153 0.848005 0.0470283
0.956954 0.838987 0.0510109
0.957168 0.831693 0.0621805
0.957885 0.826917 0.065156
0.957244 0.824735 0.0679637
0.0292973 0.944442 0.157092
0.0292973 0.944442 0.157092
0.0292973 0.944442 0.157092
0.0292973 0.944442 0.157092
0.0292973 0.944442 0.157092
0.0292973 0.944442 0.157092
0.0292973 0.944442 0.157092
0.0292973 0.944442 0.157092
0.0292973 0.944442 0.157092
0.0292973 0.944442 0.157092
0.0292973 0.944442 0.157092
0.0292973 0.944442 0.157092
0.0292973 0.944442 0.157092
0.0292973 0.944442 0.157092
0.0298924 0.943999 0.157824
0.0365301 0.943725 0.15787
0.104219 0.947372 0.146899
0.276768 0.958297 0.126146
0.544518 0.973068 0.0891432
0.77348 0.984939 0.0604257
0.876341 0.985962 0.0450599
0.932509 0.981292 0.0363012
0.943938 0.968551 0.0330968
0.948455 0.950896 0.0302281
0.953246 0.926299 0.0237736
0.955215 0.916304 0.0233616
0.954543 0.907622 0.023621
0.955901 0.898131 0.0256046
0.95613 0.888701 0.027863
0.956725 0.879942 0.0325017
0.956619 0.872328 0.0357214
0.957015 0.865415 0.0385138
0.957305 0.860685 0.0397498
0.0292973 0.944442 0.157092
0.0292973 0.944442 0.157092
0.0292973 0.944442 0.157092
0.0292973 0.944442 0.157092
0.0292973 0.944442 0.157092
0.0292973 0.944442 0.157092
0.0292973 0.944442 0.157092
0.0292973 0.944442 0.157092
0.0292973 0.944442 0.157092
0.0292973 0.944442 0.157092
0.0292973 0.944442 0.157092
0.0292973 0.944442 0.157092
0.0292973 0.944442 0.157092
0.0292973 0.944442 0.157092
0.0292973 0.944442 0.157092
0.0315557 0.944091 0.156771
0.0536049 0.944854 0.153994
0.21416 0.954818 0.133989
0.438834 0.967041 0.10309
0.684993 0.98114 0.0720226
0.833814 0.990463 0.0518196
0.903075 0.99472 0.0427405
0.935027 0.991791 0.0391852
0.940322 0.979477 0.0361944
0.94725 0.961074 0.0330358
0.950393 0.94699 0.0293736
0.95137 0.939025 0.0276646
0.95317 0.931899 0.0266423
0.95378 0.923171 0.025391
0.954742 0.915328 0.0235599
0.955123 0.907713 0.0231937
0.955886 0.900938 0.0239109
0.956847 0.895598 0.0263218
0.0292973 0.944442 0.157092
0.0292973 0.944442 0.157092
0.0292973 0.944442 0.157092
0.0292973 0.944442 0.157092
0.0292973 0.944442 0.157092
0.0292973 0.944442 0.157092
0.0292973 0.944442 0.157092
0.0292973 0.944442 0.157092
0.0292973 0.944442 0.157092
0.0292973 0.944442 0.157092
0.0292973 0.944442 0.157092
0.0292973 0.944442 0.157092
0.0292973 0.944442 0.157092
0.0296025 0.944213 0.157473
0.0300145 0.943893 0.158007
0.0305486 0.943496 0.158679
0.0899977 0.947036 0.150546
0.180514 0.952544 0.138231
0.354055 0.963287 0.115206
0.586175 0.97612 0.0850843
0.773693 0.987564 0.0599527
0.871336 0.992233 0.0466011
0.920699 0.994949 0.0412299
0.934203 0.994217 0.0384222
0.938933 0.98555 0.0363928
0.94287 0.972122 0.0342107
0.944793 0.966934 0.0328069
0.947448 0.959258 0.0318761
0.948684 0.95285 0.0306859
0.949798 0.945312 0.0291295
0.951782 0.938842 0.0276341
0.952361 0.932067 0.0268711
0.952972 0.926345 0.0253147
0.0292973 0.944442 0.157092
0.0292973 0.944442 0.157092
0.0292973 0.944442 0.157092
0.0292973 0.944442 0.157092
0.0292973 0.944442 0.157092
0.0292973 0.944442 0.157092
0.0292973 0.944442 0.157092
0.0292973 0.944442 0.157092
0.0292973 0.944442 0.157092
0.0292973 0.944442 0.157092
0.0292973 0.944442 0.157092
0.0292973 0.944442 0.157092
0.0292973 0.944442 0.157092
0.0297551 0.944457 0.157046
0.0356603 0.94461 0.156497
0.0432288 0.944808 0.155779
0.0535897 0.945098 0.154803
0.15584 0.951171 0.14226
0.290364 0.959106 0.124956
