Luts/Fujifilm/FLog2C_to_ETERNA-BB_VLog.cube
TITLE "Generated by Resolve"
LUT_3D_SIZE 5
0 0 0
0.18468 0.0350805 0.0466773
0.753506 0.376837 0.375051
0.756634 0.381567 0.377935
0.884153 0.660166 0.438041
0.0255436 0.122728 0.0303044
0.0907301 0.0821088 0.0330205
0.658488 0.215305 0.2336
0.78616 0.438025 0.398169
0.886534 0.669367 0.437781
0.191745 0.643992 0.211368
0.233661 0.59852 0.20795
0.707378 0.648508 0.341512
0.885725 0.666346 0.43772
0.901106 0.724865 0.433234
0.482094 0.889235 0.329
0.514763 0.897475 0.335836
0.703746 0.938293 0.373205
0.941131 0.949767 0.416876
0.938338 0.910567 0.414572
0.835187 0.959976 0.394598
0.836683 0.960128 0.394965
0.847044 0.96112 0.397559
0.912291 0.967666 0.41265
0.938537 0.969635 0.418128
0.00730907 0.00401312 0.0468605
0.147921 0.027985 0.0460212
0.75198 0.373831 0.372992
0.761471 0.391257 0.38114
0.884184 0.660273 0.438041
0.0465858 0.157015 0.151476
0.090837 0.0917525 0.0910506
0.632273 0.199893 0.225574
0.794858 0.458091 0.403006
0.886534 0.669367 0.437781
0.219211 0.697551 0.301076
0.243885 0.653483 0.277562
0.682338 0.672312 0.367514
0.896468 0.692576 0.455711
0.901106 0.724865 0.433234
0.400961 0.868391 0.313268
0.429953 0.87657 0.318807
0.615808 0.920424 0.355184
0.941421 0.960967 0.417639
0.938338 0.910567 0.414572
0.825803 0.958923 0.392569
0.827359 0.959091 0.392935
0.838132 0.960235 0.395499
0.905669 0.967193 0.410544
0.938537 0.969635 0.418128
0.0690166 0.0248875 0.296208
0.144778 0.0267185 0.193057
0.760952 0.371084 0.451453
0.815122 0.467323 0.542962
0.931334 0.723186 0.590051
0.166735 0.190387 0.553231
0.132769 0.101503 0.386343
0.646616 0.199252 0.437186
0.85745 0.545022 0.602533
0.933562 0.731304 0.592126
0.302281 0.77174 0.719265
0.333516 0.737423 0.694026
0.731899 0.732341 0.731762
0.946105 0.738674 0.710842
0.940642 0.779461 0.598093
0.436133 0.899138 0.611444
0.458213 0.904448 0.616129
0.603433 0.933471 0.64593
0.958434 0.969589 0.647807
0.949096 0.927169 0.549004
0.840772 0.967605 0.701167
0.842039 0.967712 0.700374
0.850813 0.968505 0.695506
0.910674 0.973144 0.650477
0.940749 0.969497 0.422156
0.192889 0.037583 0.609842
0.193286 0.037583 0.609751
0.672755 0.101778 0.608789
0.808377 0.393393 0.690135
0.947005 0.73817 0.840696
0.218936 0.0420233 0.61149
0.219181 0.0419471 0.611521
0.616053 0.0919509 0.637568
0.842924 0.468879 0.741512
0.949126 0.74609 0.844343
0.40824 0.727855 0.787686
0.385748 0.612207 0.747066
0.682826 0.630243 0.837858
0.941695 0.70106 0.873381
0.958343 0.792248 0.864256
0.446433 0.917739 0.853315
0.460365 0.919188 0.857694
0.564569 0.934569 0.887404
0.961227 0.962081 0.960845
0.980102 0.931044 0.91548
0.834333 0.978286 0.954726
0.835859 0.978469 0.954986
0.846372 0.979767 0.956802
0.92192 0.988266 0.965927
0.989563 0.99472 0.93695
0.363012 0.4795 0.707088
0.363882 0.482979 0.708217
0.369879 0.506706 0.715908
0.702754 0.139727 0.680949
0.891875 0.539345 0.87422
0.394232 0.611292 0.749111
0.394781 0.613825 0.749905
0.397696 0.628748 0.754833
0.722118 0.179904 0.699748
0.896452 0.550134 0.878889
0.387396 0.856672 0.823743
0.387304 0.85684 0.823789
0.386633 0.858183 0.824094
0.823941 0.401404 0.806683
0.921813 0.611719 0.906569
0.345937 0.901289 0.825193
0.345937 0.901289 0.825193
0.411429 0.914336 0.844297
0.910201 0.936309 0.965377
0.973068 0.87451 0.969604
0.770993 0.970214 0.942733
0.772961 0.970459 0.943206
0.785901 0.972091 0.946273
0.883223 0.984649 0.970123
1 1 1
