Luts/Fujifilm/FLog2C_to_CLASSIC-CHROME_VLog.cube
TITLE "Generated by Resolve"
LUT_3D_SIZE 33
0 0 0
0 0 0
0 0 0
0 0 0
0.00642405 0.00106813 0.000183108
0.0477455 0.00187686 0.00236515
0.099382 0.00361639 0.00280766
0.183948 0.00598154 0.00762951
0.306386 0.00924697 0.0177462
0.460609 0.0168612 0.0331273
0.634791 0.0344701 0.0669566
0.786358 0.0658274 0.11693
0.90277 0.116793 0.20029
0.964752 0.194858 0.313619
0.962066 0.27155 0.387732
0.958495 0.349645 0.432654
0.95877 0.374456 0.4486
0.95877 0.374456 0.4486
0.95877 0.374456 0.4486
0.95877 0.374456 0.4486
0.95877 0.374456 0.4486
0.95877 0.374456 0.4486
0.95877 0.374456 0.4486
0.95877 0.374456 0.4486
0.958907 0.378058 0.446876
0.957824 0.397879 0.440635
0.957855 0.423056 0.430869
0.957488 0.448432 0.42063
0.957702 0.477607 0.409033
0.957107 0.508919 0.394507
0.9552 0.54229 0.378149
0.954101 0.57673 0.359808
0.95259 0.611719 0.334829
0 0 0
0 0 0
0 0 0
0 0 0
0.0102998 0.00143435 7.62951e-05
0.0576333 0.00196841 0.002533
0.110506 0.00399786 0.00341802
0.195544 0.00654612 0.00807202
0.319493 0.00975052 0.018555
0.472816 0.0173342 0.0348211
0.64303 0.0356451 0.068925
0.79115 0.0672007 0.119036
0.904646 0.117739 0.201892
0.96495 0.196902 0.316518
0.962051 0.272709 0.388434
0.95848 0.350561 0.433158
0.958785 0.37438 0.448554
0.95877 0.374456 0.4486
0.95877 0.374456 0.4486
0.95877 0.374456 0.4486
0.95877 0.374456 0.4486
0.95877 0.374456 0.4486
0.95877 0.374456 0.4486
0.95877 0.374456 0.4486
0.958724 0.381842 0.44535
0.958404 0.403159 0.438315
0.957946 0.426657 0.428962
0.957351 0.451453 0.419196
0.957732 0.480171 0.407965
0.957046 0.511025 0.393439
0.955108 0.543969 0.37731
0.95407 0.577935 0.359106
0.95256 0.61268 0.334066
0 0 0
0 0 0
0 0 0
0 0 0
0.015198 0.00175479 0
0.0675364 0.00213626 0.00221256
0.124025 0.00410468 0.00442512
0.207385 0.00662242 0.00946059
0.326513 0.00994888 0.0187076
0.472984 0.0171206 0.0346075
0.632654 0.0337377 0.0656443
0.77705 0.0622568 0.113161
0.888243 0.109911 0.185718
0.962661 0.17525 0.286091
0.962875 0.24448 0.369909
0.960739 0.301869 0.405081
0.958236 0.363592 0.441367
0.958801 0.374304 0.448585
0.95877 0.374456 0.4486
0.95877 0.374456 0.4486
0.95877 0.374456 0.4486
0.95877 0.374456 0.4486
0.95877 0.374456 0.4486
0.95877 0.374456 0.4486
0.958358 0.386954 0.443397
0.958938 0.408042 0.436164
0.958022 0.430091 0.427146
0.957214 0.454368 0.417807
0.957748 0.482719 0.406897
0.956985 0.513222 0.39234
0.955016 0.545663 0.376486
0.95404 0.579187 0.358297
0.952529 0.613657 0.333288
0 0 0
0 0 0
0 0 0
0 0 0
0.00857557 0.000640879 0.000289921
0.0391852 0.00132753 0.00128176
0.0891737 0.00276188 0.00386053
0.153521 0.00433356 0.00724804
0.249348 0.0077821 0.0133211
0.381979 0.011902 0.0247654
0.533303 0.022446 0.0452735
0.69044 0.0419776 0.0793011
0.817929 0.0760967 0.133425
0.915785 0.12636 0.214618
0.963912 0.195178 0.313756
0.962951 0.256992 0.381109
0.958907 0.314946 0.41149
0.958923 0.369497 0.44538
0.95877 0.374456 0.4486
0.95877 0.374456 0.4486
0.95877 0.374456 0.4486
0.95877 0.374456 0.4486
0.95877 0.374456 0.4486
0.958862 0.376684 0.447608
0.958053 0.391959 0.441444
0.959396 0.412787 0.434089
0.958099 0.433555 0.425437
0.957122 0.457404 0.416449
0.957763 0.485237 0.405722
0.956878 0.515282 0.391302
0.954955 0.547372 0.375677
0.954025 0.580468 0.357488
0.952499 0.614633 0.332525
0.000854505 0.00541695 0.000366217
0.000839246 0.00584421 0.00030518
0.000518807 0.0047303 0.000228885
0.000610361 0.00178531 0.000427253
0.0033875 0.000579843 0
0.0251469 0.00129702 1.5259e-05
0.0596933 0.00263981 0.00228885
0.114397 0.00280766 0.00546273
0.192828 0.0056611 0.0083772
0.304067 0.00892653 0.0164034
0.438895 0.0165103 0.0300603
0.593851 0.027512 0.0563821
0.740291 0.053254 0.0954299
0.853117 0.0914931 0.161654
0.945006 0.149676 0.248554
0.964279 0.221912 0.348653
0.961761 0.278019 0.39173
0.958556 0.34136 0.427146
0.95877 0.374365 0.448539
0.95877 0.374456 0.4486
0.95877 0.374456 0.4486
0.95877 0.374456 0.4486
0.958785 0.374792 0.448371
0.959045 0.381842 0.445304
0.957794 0.397818 0.438956
0.958709 0.416922 0.432609
0.958144 0.437675 0.424323
0.957244 0.460853 0.415244
0.957732 0.487816 0.404257
0.956725 0.51725 0.390326
0.954894 0.548989 0.374899
0.953994 0.581827 0.356603
0.952483 0.615564 0.331777
0.000579843 0.0222324 6.10361e-05
0.000534066 0.0227207 7.62951e-05
3.0518e-05 0.0172274 0.000106813
0.000167849 0.0112917 0.000198367
0.000991836 0.00759899 0.000122072
0.0137484 0.00526436 7.62951e-05
0.0432136 0.00442512 0.000686656
0.0839246 0.00325017 0.00300603
0.148211 0.00428779 0.00590524
0.241154 0.00758373 0.0113985
0.363989 0.0112764 0.0219272
0.513039 0.0216678 0.0404669
0.667506 0.037171 0.0738384
0.799222 0.0715038 0.12575
0.904845 0.117906 0.200504
0.965972 0.184298 0.302937
0.963821 0.253223 0.377691
0.959869 0.316075 0.412284
0.95877 0.374456 0.4486
0.95877 0.374456 0.4486
0.95877 0.374456 0.4486
0.958892 0.375143 0.44828
0.958923 0.377951 0.446189
0.958724 0.387991 0.442573
0.95758 0.403143 0.436683
0.958083 0.420829 0.431205
0.95819 0.441703 0.423239
0.957366 0.46421 0.414069
0.957702 0.490318 0.402838
0.956558 0.519295 0.389303
0.954818 0.550713 0.37409
0.953964 0.583062 0.35581
0.952453 0.616449 0.331075
4.57771e-05 0.0453346 0
7.62951e-05 0.0462348 0
0.00030518 0.0387579 9.15541e-05
0 0.0271916 0
0.000122072 0.0204929 0.000244144
0.00483711 0.0159457 1.5259e-05
0.0282139 0.0138247 0.000137331
0.0644388 0.0131533 0.00030518
0.122103 0.0124971 0.00195315
0.202243 0.0131838 0.00708019
0.316426 0.0144808 0.0165255
0.453895 0.0200961 0.0301213
0.610864 0.0297398 0.0594797
0.757565 0.0582742 0.103151
0.869932 0.0992142 0.170123
0.96022 0.16112 0.26685
0.963989 0.23505 0.365438
0.960021 0.297032 0.39968
0.958633 0.363027 0.440986
0.95877 0.374456 0.4486
0.95877 0.374456 0.4486
0.959243 0.377157 0.447364
0.958648 0.382971 0.444236
0.957794 0.396094 0.438956
0.957656 0.408606 0.434745
0.957427 0.424796 0.42977
0.958221 0.44567 0.422171
0.957488 0.467567 0.412909
0.957687 0.492836 0.401419
0.956405 0.521248 0.388327
0.954757 0.552285 0.373342
0.953948 0.584344 0.355001
0.952422 0.617411 0.330312
0.000335698 0.0784466 0.000137331
0.000335698 0.0791638 0.00015259
0.000808728 0.0701762 0.000396735
0.000198367 0.0552377 0.000198367
7.62951e-05 0.0400854 4.57771e-05
0.00149538 0.0335699 0.00015259
0.016968 0.0292973 0.000137331
0.0529641 0.0270542 0
0.100237 0.0267796 7.62951e-05
0.174029 0.0269322 0.00143435
0.281621 0.0283818 0.00891127
0.409628 0.0342107 0.0194705
0.56733 0.043183 0.0449073
0.713497 0.0638285 0.0820478
0.836973 0.0961166 0.143038
0.933791 0.145617 0.232212
0.963928 0.218372 0.33576
0.961563 0.281971 0.389502
0.959655 0.346395 0.430304
0.958892 0.378256 0.44593
0.958999 0.380789 0.445853
0.958755 0.384787 0.444297
0.95761 0.391775 0.44242
0.957382 0.404486 0.43563
0.957977 0.414832 0.432822
0.957473 0.43003 0.427634
0.958282 0.450355 0.420905
0.957641 0.471565 0.411521
0.957656 0.495796 0.399725
0.956222 0.523613 0.387137
0.954681 0.554284 0.372396
0.953918 0.585809 0.354055
0.952377 0.618585 0.329381
0.000122072 0.128313 0.000213626
0.000137331 0.128145 0.000183108
0.000503548 0.106737 1.5259e-05
0.00015259 0.0854658 0.000228885
0.000732433 0.0715496 0.000366217
0.000595102 0.0630503 0.000350958
0.0106355 0.0584115 0.000640879
0.0386511 0.052491 0
0.0850385 0.0496834 0
0.151461 0.0495613 6.10361e-05
0.2495 0.051194 0.000793469
0.372976 0.055436 0.00979629
0.519509 0.0662394 0.0250248
0.670924 0.0817731 0.0576638
0.800076 0.113359 0.108324
0.900862 0.160128 0.187518
0.964309 0.227558 0.292576
0.961715 0.289281 0.371389
0.959182 0.346349 0.411032
0.95787 0.391058 0.441657
0.958038 0.394247 0.441474
0.957961 0.397543 0.440009
0.958282 0.403433 0.43714
0.958511 0.413581 0.433173
0.958267 0.42298 0.430243
0.958251 0.437552 0.424338
0.95819 0.456306 0.418463
0.957824 0.476814 0.409689
0.95761 0.499748 0.397482
0.955978 0.526772 0.385565
0.954574 0.556954 0.37113
0.953872 0.587945 0.352682
0.952331 0.620142 0.328145
0.000640879 0.201755 0
0.000228885 0.185504 0.000869764
3.0518e-05 0.157305 0.000564584
0.000442512 0.132357 0.000396735
1.5259e-05 0.111147 3.0518e-05
0.000259403 0.098909 0.000122072
0.00419623 0.0928359 0.000183108
0.0239261 0.0864576 4.57771e-05
0.069276 0.0831464 0
0.132357 0.0797131 0.000167849
0.218387 0.0796979 4.57771e-05
0.337026 0.0834516 0.000488289
0.474403 0.0922103 0.0103151
0.626566 0.108949 0.0335699
0.761196 0.139086 0.0800946
0.866911 0.18352 0.147601
0.957427 0.244236 0.243351
0.960311 0.30959 0.346761
0.958709 0.353414 0.38938
0.957534 0.406806 0.432898
0.95816 0.411505 0.433677
0.957458 0.413458 0.434226
0.958221 0.417273 0.431754
0.958038 0.425147 0.429129
0.958175 0.433967 0.426535
0.958816 0.446815 0.420325
0.958007 0.46389 0.414984
0.957839 0.483223 0.406653
0.957565 0.504921 0.394537
0.955642 0.530938 0.38349
0.954421 0.560479 0.369467
0.953826 0.590677 0.350927
0.95227 0.622171 0.326528
0.000137331 0.301976 0.00114443
0.00015259 0.260517 0.000564584
0.000396735 0.220768 0.00015259
0.000350958 0.1897 0
0.000259403 0.166445 0.000106813
0.000106813 0.150851 6.10361e-05
0.00143435 0.143145 4.57771e-05
0.0147402 0.135515 0.000244144
0.0543679 0.128664 0.000274662
0.112886 0.123339 0
0.192477 0.121981 0
0.306401 0.12343 0.000244144
0.437095 0.130541 0.00231937
0.583337 0.14522 0.0126955
0.720638 0.171664 0.0499886
0.833707 0.213657 0.107317
0.929534 0.269795 0.193149
0.959335 0.332708 0.304677
0.959258 0.36965 0.364706
0.958343 0.415763 0.40914
0.95787 0.431403 0.425605
0.957351 0.433326 0.42707
0.957504 0.434409 0.426444
0.957809 0.440467 0.424247
0.957885 0.447227 0.421683
0.957687 0.458457 0.415503
0.957855 0.47364 0.410666
0.957794 0.491325 0.40264
0.956634 0.512306 0.391775
0.955261 0.536385 0.380804
0.954238 0.565133 0.367254
0.95375 0.594293 0.348608
0.952193 0.624903 0.324376
0.000442512 0.384131 0.000259403
0.000213626 0.335302 0.00030518
0.000274662 0.29546 0.000518807
0.000427253 0.264164 0.000900282
0.000579843 0.239673 0.000610361
0.000671397 0.224811 0.000793469
0.000122072 0.213779 0.000976577
0.00511177 0.201266 0.000244144
0.0374609 0.194003 0.000244144
0.0927138 0.185092 1.5259e-05
0.175937 0.180117 3.0518e-05
0.28072 0.178027 0
0.401953 0.181689 0.00015259
0.544091 0.19411 0.00166323
0.681559 0.219791 0.0215915
0.798291 0.254902 0.0688487
0.898085 0.303029 0.144076
0.959243 0.35996 0.248264
0.959167 0.398932 0.332586
0.958633 0.431632 0.381521
0.957763 0.458396 0.417029
0.957992 0.455528 0.418219
0.957656 0.456016 0.417029
0.958343 0.459892 0.417487
0.957473 0.464622 0.414786
0.957183 0.473396 0.409491
0.957931 0.486336 0.405356
0.957351 0.502174 0.397543
0.955444 0.521767 0.388296
0.955306 0.544305 0.37734
0.954025 0.571191 0.364172
0.953674 0.599069 0.345525
0.952071 0.628489 0.321523
0.00148013 0.461784 0.000671397
0.000274662 0.415335 0.000396735
7.62951e-05 0.376806 0.000396735
0.00015259 0.347356 1.5259e-05
0.000488289 0.325002 0.000564584
0.000686656 0.310399 0.000259403
0.000167849 0.29897 4.57771e-05
0.00172427 0.287205 7.62951e-05
0.0244144 0.277134 0.00077821
0.0746319 0.266789 1.5259e-05
0.151583 0.2589 3.0518e-05
0.253498 0.253574 0
0.374899 0.254673 0.000564584
0.510445 0.262547 0.00187686
0.645594 0.281422 0.00892653
0.764202 0.306371 0.0332799
0.866361 0.346639 0.0951247
0.949401 0.396857 0.189822
0.957809 0.442069 0.29398
0.958373 0.459373 0.346807
0.957168 0.486397 0.399008
0.957687 0.484565 0.405661
0.958404 0.483024 0.407599
0.957549 0.482506 0.407507
0.957702 0.486717 0.404715
0.957198 0.492973 0.40177
0.957778 0.502464 0.39704
0.956085 0.516823 0.391165
0.95462 0.533913 0.382788
0.955352 0.554574 0.372839
0.953918 0.578729 0.35938
0.95346 0.605173 0.341268
0.951934 0.633265 0.317739
0.00349432 0.527932 6.10361e-05
0.00192264 0.490288 0.000213626
0.000732433 0.462608 0.000228885
0.000183108 0.438849 0.000366217
0.000289921 0.421302 0.000320439
0.000213626 0.406897 0.000488289
0.000518807 0.39675 0.000289921
0.000640879 0.386191 9.15541e-05
0.0116426 0.374533 0.000198367
0.0558785 0.361929 0
0.129671 0.350881 0.000183108
0.230182 0.343755 6.10361e-05
0.347539 0.340673 0.000457771
0.480919 0.342199 0.00636301
0.614588 0.352529 0.0139925
0.733303 0.369207 0.0205539
0.835325 0.399542 0.050309
0.924727 0.441337 0.129
0.956405 0.484993 0.23183
0.956863 0.497353 0.305791
0.957458 0.517021 0.363989
0.955734 0.518746 0.390066
0.95671 0.514946 0.391379
0.95787 0.511635 0.391775
0.956298 0.512016 0.3935
0.956588 0.516487 0.391211
0.956695 0.522652 0.386709
0.955581 0.534401 0.383093
0.954604 0.549401 0.374304
0.954833 0.567041 0.366323
0.953765 0.588434 0.353231
0.953002 0.612985 0.335073
0.951858 0.639429 0.312383
0.00889601 0.592157 0.000167849
0.00607309 0.5691 0.000732433
0.00517281 0.549325 9.15541e-05
0.00436408 0.53283 0.000274662
0.00387579 0.519341 0.000167849
0.00354009 0.508125 9.15541e-05
0.00309758 0.499245 9.15541e-05
0.00131228 0.48983 0.000228885
0.0053254 0.478492 0.000106813
0.0401923 0.46595 0.000228885
0.108583 0.454856 0.000137331
0.209598 0.4421 0.000579843
0.325765 0.435111 0.0033875
0.452781 0.431281 0.00888075
0.586374 0.434714 0.0156252
0.705013 0.444099 0.0250401
0.807324 0.464515 0.0339666
0.897826 0.496529 0.0703441
0.956451 0.53286 0.163607
0.956313 0.549233 0.255665
0.954955 0.555047 0.319844
0.954467 0.55668 0.370016
0.954513 0.551019 0.374395
0.955581 0.545861 0.376486
0.955779 0.542168 0.377905
0.9552 0.544625 0.378866
0.955184 0.547784 0.375341
0.954391 0.555734 0.371923
0.953307 0.567559 0.364553
0.953582 0.582132 0.357275
0.953384 0.601297 0.344137
0.952422 0.623026 0.327108
0.951888 0.647334 0.304921
0.0130617 0.659098 0.0037232
0.0125277 0.64387 0.00309758
0.0112917 0.631434 0.00224308
0.0101472 0.620996 0.00077821
0.00955215 0.611734 0.000213626
0.00955215 0.603403 0.000656138
0.00894179 0.596872 0.000457771
0.00814832 0.589364 0.000122072
0.00886549 0.579705 0.000534066
0.0300908 0.568521 0.000320439
0.0924544 0.558038 0.00170901
0.188571 0.545205 0.00387579
0.303243 0.5346 0.00910964
0.429557 0.527276 0.0149081
0.559533 0.525048 0.0242618
0.680095 0.528984 0.0328679
0.78436 0.539788 0.0399939
0.873503 0.560357 0.0498054
0.944442 0.585779 0.0963455
0.952102 0.609476 0.197024
0.953338 0.60293 0.263111
0.953643 0.599207 0.33135
0.953811 0.590539 0.351797
0.954131 0.583398 0.354574
0.95433 0.578485 0.358877
0.953063 0.576883 0.3608
0.953399 0.57702 0.360204
0.953552 0.581292 0.356481
0.952834 0.589792 0.350942
0.953658 0.601511 0.342931
0.952743 0.617777 0.331716
0.952193 0.635691 0.316426
0.951949 0.65745 0.295384
0.0184329 0.722255 0.00825513
0.0177462 0.713741 0.00720226
0.0179904 0.706325 0.00637827
0.017258 0.700221 0.00602731
0.0165103 0.694987 0.00579843
0.0159457 0.688899 0.00527962
0.0154574 0.683574 0.00482185
0.0148013 0.678035 0.00404364
0.0141451 0.671534 0.00308232
0.0239872 0.662577 0.00387579
0.0755322 0.652415 0.00624094
0.163226 0.642008 0.00991836
0.279835 0.632074 0.0158541
0.407568 0.624323 0.0226444
0.535851 0.618158 0.0310369
0.658091 0.616831 0.0390936
0.762463 0.620081 0.0497292
0.850233 0.630579 0.0607614
0.927062 0.644144 0.0752575
0.950683 0.66305 0.125978
0.951705 0.656718 0.194659
0.952941 0.645991 0.270161
0.952651 0.63415 0.317449
0.952728 0.625757 0.326238
0.952361 0.617365 0.330632
0.952819 0.61294 0.334874
0.953902 0.611231 0.337179
0.953094 0.611551 0.336263
0.953033 0.616327 0.331197
0.953246 0.624475 0.326284
0.952605 0.636606 0.315404
0.952224 0.65153 0.302708
0.951904 0.669993 0.280308
0.0251621 0.779782 0.014435
0.0244144 0.77557 0.0140383
0.0236973 0.771664 0.0136873
0.0235752 0.767239 0.0127718
0.0234989 0.76321 0.011902
0.0231785 0.759472 0.0111238
0.0224308 0.756024 0.0104524
0.0215457 0.752041 0.0096437
0.0224002 0.747143 0.00984207
0.0246586 0.741054 0.010605
0.0649577 0.733394 0.0107576
0.145769 0.724804 0.0150759
0.259709 0.716213 0.0217899
0.38323 0.708095 0.0294804
0.513039 0.701091 0.037705
0.636744 0.697444 0.0477913
0.740932 0.695338 0.0587625
0.827878 0.696712 0.073167
0.903624 0.704402 0.0892653
0.950057 0.715785 0.0999619
0.950622 0.712016 0.127123
0.950851 0.69778 0.192752
0.951995 0.679149 0.266911
0.951598 0.66833 0.28336
0.951858 0.659754 0.293629
0.952102 0.651637 0.300359
0.952117 0.647181 0.305211
0.952361 0.645258 0.308354
0.952407 0.646708 0.306127
0.95259 0.650675 0.303319
0.952361 0.658839 0.292668
0.952071 0.670161 0.280598
0.951797 0.685527 0.26009
0.0304875 0.831785 0.0184634
0.0297398 0.828687 0.0179904
0.0289921 0.825483 0.0175174
0.0287633 0.822599 0.0172732
0.0285344 0.819852 0.0170291
0.0283207 0.817197 0.0168002
0.027863 0.814817 0.0162051
0.0271153 0.812482 0.015198
0.0261082 0.809461 0.0138247
0.0331579 0.804791 0.0141299
0.0458839 0.79852 0.0155337
0.125353 0.791913 0.0212863
0.232258 0.784756 0.0276341
0.35903 0.778988 0.0358892
0.48835 0.772045 0.0440833
0.613565 0.765789 0.0598611
0.719142 0.76144 0.0757458
0.80734 0.760616 0.0885176
0.883238 0.7617 0.104967
0.945418 0.767239 0.117021
0.95198 0.767575 0.117739
0.95024 0.750088 0.123857
0.950805 0.726177 0.188983
0.951293 0.710918 0.228336
0.951034 0.702037 0.240574
0.951644 0.692485 0.251637
0.951049 0.686488 0.260517
0.952483 0.681804 0.265949
0.952087 0.679683 0.268467
0.952239 0.680476 0.267643
0.952071 0.684779 0.262043
0.951873 0.692454 0.25301
0.951034 0.704402 0.237659
0.036286 0.876341 0.0237888
0.0361944 0.874022 0.0239719
0.0361028 0.871733 0.0241245
0.035996 0.870085 0.0238193
0.035874 0.868391 0.0234989
0.0357519 0.866728 0.0231937
0.0356298 0.865095 0.0229038
0.0358282 0.863416 0.0225834
0.0364385 0.861219 0.0221866
0.037232 0.858289 0.0216526
0.0627451 0.854444 0.0229801
0.105486 0.849607 0.0255283
0.20882 0.843473 0.0320745
0.331289 0.83798 0.0415808
0.46334 0.831037 0.0543679
0.591333 0.825208 0.0714427
0.699123 0.820218 0.0902876
0.787228 0.816281 0.106371
0.865385 0.815885 0.120607
0.931548 0.818219 0.133669
0.952743 0.818738 0.137331
0.951308 0.801938 0.132555
0.951308 0.776226 0.127657
0.9514 0.754269 0.161868
0.95082 0.744045 0.1785
0.950347 0.734646 0.193286
0.951034 0.725322 0.206744
0.950271 0.719661 0.216098
0.951003 0.714931 0.223209
0.95053 0.713039 0.225528
0.950134 0.713741 0.224872
0.950912 0.718044 0.218402
0.950973 0.725887 0.207813
0.0424353 0.919219 0.0282597
0.0421759 0.917693 0.0279393
0.0419318 0.916152 0.0276341
0.0419013 0.914992 0.0277714
0.0418555 0.913817 0.0279088
0.041825 0.912703 0.0280461
0.0417945 0.911543 0.0281834
0.0417792 0.910323 0.0283665
0.0425727 0.908629 0.028275
0.0451972 0.90663 0.0275731
0.0481727 0.904265 0.0267033
0.0969253 0.900053 0.0299382
0.184451 0.894072 0.0365911
0.305257 0.889448 0.0476997
0.435813 0.882811 0.0646983
0.564157 0.87686 0.0842145
0.680354 0.871687 0.100816
0.769924 0.868147 0.120302
0.848951 0.866178 0.132189
0.917372 0.866056 0.148806
0.955215 0.865171 0.156909
0.954925 0.849073 0.149187
0.953216 0.824201 0.139147
0.951995 0.798184 0.130358
0.951217 0.785168 0.128557
0.951507 0.774975 0.135546
0.951293 0.766522 0.141619
0.950439 0.758495 0.154635
0.950942 0.75198 0.164645
0.950683 0.747555 0.173159
0.950317 0.745602 0.174884
0.951553 0.746456 0.174487
0.950744 0.75108 0.166827
0.0489204 0.958694 0.0348363
0.0488899 0.957809 0.0347753
0.0488441 0.957061 0.034638
0.0487984 0.956374 0.0344091
0.0487526 0.955749 0.0341802
0.0487068 0.955093 0.0339513
0.0486305 0.954589 0.033753
0.0485542 0.953811 0.0334783
0.0484627 0.952804 0.0331273
0.0570077 0.951156 0.0335241
0.0772564 0.948821 0.0349584
0.103655 0.945647 0.03682
0.178424 0.941421 0.0438697
0.290852 0.935988 0.0549325
0.417929 0.929107 0.0725414
0.542626 0.923476 0.092958
0.660014 0.919127 0.115541
0.753979 0.916274 0.131319
0.832502 0.912367 0.148989
0.899428 0.909789 0.162707
0.950545 0.904814 0.173007
0.956481 0.891615 0.169497
0.955444 0.868971 0.158862
0.953231 0.842954 0.145937
0.953063 0.825376 0.139422
0.952026 0.815915 0.13698
0.952499 0.805676 0.134279
0.951568 0.796994 0.129946
0.951339 0.789075 0.126726
0.951659 0.782635 0.128862
0.951171 0.778759 0.130251
0.951156 0.776883 0.132677
0.951171 0.777966 0.12694
0.0478676 0.967224 0.0339208
0.0478676 0.967224 0.0339208
0.0482948 0.967208 0.0339513
0.0487221 0.967193 0.0339666
0.0491798 0.967163 0.0339971
0.0495918 0.967147 0.0340276
0.0500343 0.967132 0.0340429
0.0505531 0.967117 0.0340734
0.0512398 0.967086 0.0341192
0.0521553 0.967056 0.0341802
0.0732433 0.967056 0.0359503
0.117418 0.967071 0.0396582
0.173388 0.967163 0.0443427
0.269108 0.964828 0.0586404
0.394842 0.961151 0.0792248
0.514153 0.957671 0.100679
0.630289 0.955154 0.121508
0.728695 0.951232 0.141222
0.809277 0.947707 0.15491
0.876753 0.942855 0.171328
0.936782 0.938155 0.182101
0.959487 0.927962 0.185321
0.958434 0.909361 0.174456
0.95581 0.884794 0.165255
0.955077 0.863783 0.155306
0.954345 0.852888 0.151171
0.953521 0.84387 0.147265
0.95317 0.835081 0.144503
0.953063 0.826291 0.14107
0.952651 0.819409 0.137423
0.95256 0.812818 0.135622
0.951919 0.808606 0.133684
0.951827 0.807248 0.132998
0.0482795 0.967224 0.0339513
0.0523079 0.967224 0.0341955
0.0581674 0.967208 0.0345464
0.0634012 0.967208 0.0348516
0.0689555 0.967193 0.0351873
0.0741894 0.967178 0.0355077
0.0797436 0.967178 0.0358282
0.0862135 0.967163 0.0362249
0.0945144 0.967163 0.0366979
0.105867 0.967147 0.0373693
0.120897 0.967117 0.0382544
0.1608 0.966293 0.0437476
0.222446 0.964782 0.0530251
0.301991 0.96286 0.0650034
0.390494 0.962234 0.0797894
0.494423 0.96199 0.0977798
0.597192 0.962234 0.117556
0.692699 0.964141 0.139025
0.778302 0.966064 0.159854
0.848585 0.967895 0.172168
0.910262 0.96434 0.189715
0.959136 0.959915 0.197864
0.962173 0.944167 0.191333
0.959854 0.92401 0.182071
0.957595 0.897826 0.170779
0.956344 0.888304 0.167025
0.95668 0.87895 0.1617
0.955291 0.870207 0.157702
0.955032 0.862089 0.154757
0.954864 0.854078 0.151751
0.953674 0.847669 0.149615
0.953216 0.84155 0.147478
0.953826 0.838346 0.145464
0.0771496 0.96762 0.0381323
0.0861372 0.967483 0.0390021
0.0958267 0.96733 0.0399481
0.104814 0.967193 0.0408179
0.113817 0.967056 0.0417029
0.122606 0.966934 0.0425422
0.131579 0.966796 0.0434119
0.142611 0.966628 0.0444953
0.157107 0.966415 0.0458991
0.17644 0.966125 0.0477913
0.20267 0.965728 0.0503395
0.236484 0.965225 0.0536355
0.281117 0.964675 0.0604562
0.337957 0.964004 0.0698711
0.411353 0.963149 0.082002
0.489693 0.961959 0.0968338
0.580545 0.960861 0.114748
0.667521 0.962234 0.134279
0.746929 0.965164 0.150469
0.816464 0.967575 0.164385
0.879698 0.970428 0.181827
0.936843 0.972457 0.200565
0.962509 0.971344 0.210544
0.963241 0.957107 0.196902
0.960281 0.935302 0.188067
0.958511 0.921309 0.17995
0.958434 0.912535 0.176898
0.957732 0.903578 0.172229
0.957183 0.895125 0.170581
0.956313 0.887297 0.167346
0.955505 0.879957 0.162997
0.955779 0.873228 0.159609
0.955261 0.86833 0.157626
0.18706 0.966232 0.0471199
0.194217 0.966049 0.048249
0.201373 0.965866 0.0493935
0.20853 0.965682 0.0505226
0.215686 0.965515 0.051667
0.222126 0.965347 0.0526894
0.229282 0.965164 0.0538186
0.237873 0.96495 0.0551919
0.249332 0.96466 0.0570077
0.264363 0.964279 0.0593881
0.28513 0.96376 0.0626993
0.312322 0.963058 0.0670176
0.347402 0.962173 0.0725872
0.387076 0.961929 0.078996
0.438727 0.961669 0.0873579
0.503639 0.961349 0.0978714
0.56997 0.96202 0.11104
0.64622 0.96286 0.126864
0.720546 0.963607 0.144579
0.78674 0.96698 0.158709
0.848905 0.968048 0.174624
0.90631 0.970962 0.187411
0.951797 0.97322 0.204364
0.964553 0.973037 0.21236
0.9635 0.96556 0.20412
0.962356 0.950118 0.194018
0.961624 0.942657 0.190021
0.960632 0.934646 0.187045
0.959731 0.926726 0.182803
0.959548 0.918532 0.178759
0.958297 0.911437 0.176745
0.95761 0.904677 0.17258
0.957626 0.897993 0.170489
0.299077 0.9635 0.0644541
0.30367 0.963439 0.0652018
0.308904 0.963378 0.0660563
0.313481 0.963317 0.066804
0.318059 0.963256 0.0675517
0.323293 0.96318 0.0684062
0.327886 0.963119 0.0691386
0.333776 0.963043 0.0700999
0.341619 0.962936 0.0713817
0.352102 0.962798 0.0730907
0.36585 0.962615 0.0753185
0.384176 0.962371 0.0783093
0.409049 0.962051 0.0823529
0.440131 0.9617 0.08748
0.474952 0.961944 0.0939345
0.519554 0.962249 0.10222
0.576745 0.962646 0.112825
0.633677 0.962921 0.124956
