Luts/Fujifilm/FLog2C_to_PRO-Neg.Std_VLog.cube
TITLE "Generated by Resolve"
LUT_3D_SIZE 5
0 0 0
0.25771 0.0313726 0.0727855
0.966094 0.257221 0.484733
0.966232 0.261021 0.482063
0.973831 0.53315 0.243366
0.0205844 0.162722 0.00062562
0.105577 0.0883192 0.00280766
0.943801 0.133486 0.353872
0.968688 0.313054 0.446357
0.974136 0.543648 0.230304
0.007187 0.753689 0
0.00946059 0.690486 0.000228885
0.710399 0.622812 4.57771e-05
0.97406 0.539925 0.235172
0.972137 0.6103 0.142046
0.0213931 0.999741 0.000747692
0.0970016 0.999863 0.00102235
0.469963 0.999374 1.5259e-05
0.954955 0.960021 1.5259e-05
0.957321 0.88072 0.000198367
0.70782 0.999664 1.5259e-05
0.710811 0.99968 1.5259e-05
0.731548 0.999756 0
0.881849 0.999863 0.000122072
0.9505 0.999695 0.000671397
0.00453193 0.00111391 0.0700999
0.206546 0.0248417 0.069337
0.965713 0.25449 0.484092
0.966796 0.270436 0.475395
0.973831 0.533272 0.243214
0.0327916 0.209049 0.205661
0.0979629 0.0992599 0.0975967
0.903136 0.143496 0.327657
0.971069 0.328511 0.432837
0.974136 0.543648 0.230304
0.00807202 0.804318 0.000595102
0.011017 0.742275 0.000549325
0.659861 0.653254 0.000534066
0.974929 0.566796 0.249302
0.972137 0.6103 0.142046
0 1 0.000289921
0 1 0.000289921
0.305455 0.999939 0.000808728
0.953536 0.985275 0
0.957321 0.88072 0.000198367
0.687556 0.999435 0.000228885
0.690608 0.999435 0.000228885
0.71165 0.999435 0.000183108
0.864988 0.999756 0.000411994
0.9505 0.999695 0.000671397
0.0451057 0.00749218 0.465644
0.210025 0.00509651 0.353491
0.971054 0.232792 0.605585
0.978958 0.315587 0.642756
0.987121 0.585443 0.488029
0.0522774 0.229068 0.87512
0.125399 0.0991379 0.599695
0.883299 0.0894636 0.705577
0.98378 0.385824 0.654856
0.986999 0.595102 0.484642
0.0290074 0.816159 0.770367
0.0315404 0.760021 0.71043
0.653117 0.653712 0.653254
0.993729 0.5935 0.652964
0.987442 0.654292 0.458091
0.000122072 0.999985 0.257679
0.000122072 0.999954 0.258412
0.214069 0.999588 0.269215
0.970092 0.998062 0.309682
0.973892 0.918242 0.202426
0.666743 0.99968 0.305196
0.669566 0.99968 0.303792
0.688991 0.999725 0.295216
0.838224 0.999756 0.229191
0.950698 0.999619 0.005066
0.135134 0.0838483 0.927321
0.135393 0.0838788 0.927428
0.972869 0.000183108 0.999756
0.989837 0.220295 0.957656
0.999741 0.579324 0.864317
0.186618 0.0801099 0.957855
0.187152 0.0800336 0.957977
0.838682 0.000183108 0.999496
0.995102 0.289219 0.966613
0.99971 0.589288 0.863844
0.0421149 0.725902 0.999939
0.0500801 0.616205 0.999985
0.585931 0.57319 0.999359
0.999603 0.532952 0.970291
0.999878 0.649409 0.860731
0.0137331 0.998718 0.924712
0.0133516 0.99855 0.925658
0.0136416 0.992828 0.924681
0.930968 0.932769 0.930846
0.992706 0.867155 0.845899
0.553887 0.999741 0.938384
0.557794 0.999741 0.938125
0.584848 0.999725 0.936141
0.78529 0.999741 0.914336
0.988037 0.999802 0.799832
0.119341 0.502266 0.999985
0.117723 0.505089 0.999985
0.106706 0.524361 0.999939
0.985412 0.000915541 0.999207
0.999893 0.369802 0.999481
0.0545815 0.612222 0.999771
0.0532692 0.614389 0.999771
0.049134 0.628031 0.999771
0.989761 0.0237888 0.99942
0.999817 0.38024 0.99942
0.0235142 0.902953 0.970031
0.0234836 0.903334 0.969879
0.0233005 0.906264 0.968719
0.999817 0.271595 0.999527
0.999832 0.443519 0.999557
0.0134737 0.999268 0.918547
0.0134737 0.999268 0.918547
0.0141756 0.999481 0.92166
0.807584 0.884932 0.99968
0.999527 0.75346 0.99942
0.401495 0.999542 0.949981
0.406073 0.999542 0.950225
0.43566 0.999649 0.951614
0.672419 0.999725 0.965805
1 1 1
