Luts/Fujifilm/FLog2C_to_WDR_VLog.cube
TITLE "Generated by Resolve"
LUT_3D_SIZE 5
0 0 0
0.129946 0.0155489 0.0155489
0.653132 0.0610361 0.0610361
0.84152 0.0675975 0.0675975
1 0.703182 0
0.0260166 0.123537 0.0260166
0.122362 0.121904 0.0350347
0.638254 0.0603494 0.0603494
0.84152 0.0675975 0.0675975
1 0.713787 0
0.0704967 0.608331 0.0704967
0.0705425 0.601007 0.0705425
0.587472 0.600702 0.0497139
0.999176 0.562417 0.00137331
1 0.773953 0
0.16524 0.999908 0.00015259
0.232776 0.999939 0.000106813
0.493919 0.999741 0
0.93312 0.969329 0
1 0.970871 0
0.913314 1 0
0.914382 1 0
0.921813 1 0
0.980179 1 0
1 1 0
0.00477607 0.00477607 0.0970016
0.130907 0.0198367 0.111421
0.659327 0.0627146 0.148318
0.841749 0.067628 0.0703441
1 0.703304 0
0.0282902 0.11812 0.11165
0.116716 0.116747 0.116976
0.643061 0.0618143 0.133104
0.84152 0.0675975 0.0675975
1 0.713787 0
0.0705119 0.605234 0.0705119
0.0705425 0.598062 0.0705425
0.58587 0.597528 0.0506905
0.998718 0.560311 0.002121
1 0.773953 0
0.160372 0.999893 0.000167849
0.229358 0.999924 0.000106813
0.492119 0.998245 0
0.932509 0.967422 0
1 0.970871 0
0.912093 1 0
0.913176 1 0
0.920623 1 0
0.979049 1 0
1 1 0
0.0220645 0.0220645 0.447913
0.0877241 0.0299229 0.455634
0.676646 0.0679942 0.546029
0.878294 0.0705425 0.552026
1 0.674022 0.471656
0.021973 0.0219883 0.445853
0.0456703 0.0247807 0.44828
0.660121 0.0675669 0.54049
0.877943 0.0705425 0.546761
1 0.684977 0.470024
0.0690929 0.590845 0.553872
0.0693217 0.583246 0.552254
0.569589 0.569451 0.569619
1 0.518746 0.555474
1 0.7476 0.459403
0.109667 0.988418 0.504326
0.188907 0.986694 0.504097
0.476417 0.977111 0.502342
0.924971 0.944778 0.492638
1 0.949905 0.420661
0.90547 1 0.508568
0.906569 1 0.5084
0.914061 1 0.507866
0.972778 1 0.503029
1 1 0.451118
0.0349584 0.0349584 0.709682
0.0349584 0.0349584 0.709682
0.645335 0.0695048 0.84239
0.898985 0.0700389 0.873472
1 0.616434 0.930251
0.0348516 0.0348516 0.707393
0.0348516 0.0348516 0.707347
0.61944 0.0690318 0.83473
0.898787 0.0700542 0.870207
1 0.628229 0.929397
0.0680247 0.557931 0.878599
0.0683146 0.551019 0.876616
0.501869 0.518547 0.926604
1 0.453864 0.946029
1 0.695399 0.924361
0.00805676 0.955016 0.913741
0.032639 0.95314 0.913603
0.429526 0.942504 0.912886
0.908949 0.908568 0.908888
1 0.909255 0.904189
0.893248 1 0.89659
0.894347 1 0.896574
0.901946 1 0.896468
0.961746 1 0.895918
1 1 0.893584
0.0628977 0.240864 0.813886
0.0630808 0.243503 0.814939
0.0643626 0.261479 0.822065
0.907683 0.0916915 0.907683
1 0.634028 1
0.0688792 0.343084 0.852857
0.0689708 0.345083 0.85359
0.0693828 0.357458 0.857923
0.953506 0.231144 0.953506
1 0.6439 1
0.0633555 0.62623 0.934737
0.0633249 0.626657 0.934844
0.0630045 0.629877 0.935653
1 0.527565 1
1 0.700893 1
0 0.975662 1
0 0.970916 1
0 0.949111 1
0.883619 0.900908 1
1 0.89926 1
0.878523 1 1
0.879759 1 1
0.887892 1 1
0.952453 1 1
1 1 1
