Luts/Fujifilm/FLog2C_to_ACROS_VLog.cube
TITLE "Generated by Resolve"
LUT_3D_SIZE 9
0 0 0
0.00373846 0.00373846 0.00373846
0.084947 0.084947 0.084947
0.314229 0.314229 0.314229
0.558587 0.558587 0.558587
0.558587 0.558587 0.558587
0.561334 0.561334 0.561334
0.623392 0.623392 0.623392
0.694774 0.694774 0.694774
0.00468452 0.00468452 0.00468452
0.00164797 0.00164797 0.00164797
0.0541848 0.0541848 0.0541848
0.220295 0.220295 0.220295
0.4822 0.4822 0.4822
0.558587 0.558587 0.558587
0.574731 0.574731 0.574731
0.629007 0.629007 0.629007
0.696651 0.696651 0.696651
0.0851453 0.0851453 0.0851453
0.0523537 0.0523537 0.0523537
0.0648051 0.0648051 0.0648051
0.170733 0.170733 0.170733
0.416785 0.416785 0.416785
0.57145 0.57145 0.57145
0.591546 0.591546 0.591546
0.635767 0.635767 0.635767
0.698878 0.698878 0.698878
0.270329 0.270329 0.270329
0.199725 0.199725 0.199725
0.19324 0.19324 0.19324
0.250797 0.250797 0.250797
0.433204 0.433204 0.433204
0.625879 0.625879 0.625879
0.628473 0.628473 0.628473
0.6542 0.6542 0.6542
0.705272 0.705272 0.705272
0.437842 0.437842 0.437842
0.433082 0.433082 0.433082
0.437934 0.437934 0.437934
0.466911 0.466911 0.466911
0.554513 0.554513 0.554513
0.684474 0.684474 0.684474
0.697536 0.697536 0.697536
0.696956 0.696956 0.696956
0.723751 0.723751 0.723751
0.681407 0.681407 0.681407
0.685084 0.685084 0.685084
0.689693 0.689693 0.689693
0.702831 0.702831 0.702831
0.739651 0.739651 0.739651
0.803113 0.803113 0.803113
0.785504 0.785504 0.785504
0.767102 0.767102 0.767102
0.766949 0.766949 0.766949
0.780804 0.780804 0.780804
0.78323 0.78323 0.78323
0.786084 0.786084 0.786084
0.794476 0.794476 0.794476
0.817441 0.817441 0.817441
0.865934 0.865934 0.865934
0.8719 0.8719 0.8719
0.851453 0.851453 0.851453
0.835035 0.835035 0.835035
0.813535 0.813535 0.813535
0.814282 0.814282 0.814282
0.815106 0.815106 0.815106
0.817609 0.817609 0.817609
0.825742 0.825742 0.825742
0.849042 0.849042 0.849042
0.884489 0.884489 0.884489
0.884764 0.884764 0.884764
0.884764 0.884764 0.884764
0.854612 0.854612 0.854612
0.85481 0.85481 0.85481
0.855039 0.855039 0.855039
0.855741 0.855741 0.855741
0.857984 0.857984 0.857984
0.864897 0.864897 0.864897
0.880293 0.880293 0.880293
0.884764 0.884764 0.884764
0.884764 0.884764 0.884764
0 0 0
0.00137331 0.00137331 0.00137331
0.0761883 0.0761883 0.0761883
0.296712 0.296712 0.296712
0.558587 0.558587 0.558587
0.558587 0.558587 0.558587
0.561364 0.561364 0.561364
0.623438 0.623438 0.623438
0.69482 0.69482 0.69482
0.00726329 0.00726329 0.00726329
0.000106813 0.000106813 0.000106813
0.0462806 0.0462806 0.0462806
0.204822 0.204822 0.204822
0.468864 0.468864 0.468864
0.558587 0.558587 0.558587
0.575509 0.575509 0.575509
0.629053 0.629053 0.629053
0.696651 0.696651 0.696651
0.101915 0.101915 0.101915
0.057557 0.057557 0.057557
0.0656748 0.0656748 0.0656748
0.163607 0.163607 0.163607
0.404685 0.404685 0.404685
0.575326 0.575326 0.575326
0.591699 0.591699 0.591699
0.635767 0.635767 0.635767
0.698878 0.698878 0.698878
0.300252 0.300252 0.300252
0.21294 0.21294 0.21294
0.198627 0.198627 0.198627
0.250187 0.250187 0.250187
0.425452 0.425452 0.425452
0.624964 0.624964 0.624964
0.628763 0.628763 0.628763
0.6542 0.6542 0.6542
0.705272 0.705272 0.705272
0.448341 0.448341 0.448341
0.439872 0.439872 0.439872
0.443336 0.443336 0.443336
0.469993 0.469993 0.469993
0.554528 0.554528 0.554528
0.685298 0.685298 0.685298
0.69839 0.69839 0.69839
0.696956 0.696956 0.696956
0.723751 0.723751 0.723751
0.68455 0.68455 0.68455
0.688396 0.688396 0.688396
0.693004 0.693004 0.693004
0.705806 0.705806 0.705806
0.740642 0.740642 0.740642
0.805081 0.805081 0.805081
0.787869 0.787869 0.787869
0.767163 0.767163 0.767163
0.766949 0.766949 0.766949
0.773922 0.773922 0.773922
0.776181 0.776181 0.776181
0.778866 0.778866 0.778866
0.786664 0.786664 0.786664
0.809308 0.809308 0.809308
0.859098 0.859098 0.859098
0.875685 0.875685 0.875685
0.851453 0.851453 0.851453
0.835035 0.835035 0.835035
0.808011 0.808011 0.808011
0.808728 0.808728 0.808728
0.809537 0.809537 0.809537
0.811994 0.811994 0.811994
0.819501 0.819501 0.819501
0.840742 0.840742 0.840742
0.881483 0.881483 0.881483
0.884764 0.884764 0.884764
0.884764 0.884764 0.884764
0.856794 0.856794 0.856794
0.856931 0.856931 0.856931
0.857084 0.857084 0.857084
0.857588 0.857588 0.857588
0.85919 0.85919 0.85919
0.864607 0.864607 0.864607
0.879499 0.879499 0.879499
0.884764 0.884764 0.884764
0.884764 0.884764 0.884764
0.00598154 0.00598154 0.00598154
0.00402838 0.00402838 0.00402838
0.0656443 0.0656443 0.0656443
0.273136 0.273136 0.273136
0.556802 0.556802 0.556802
0.558587 0.558587 0.558587
0.56733 0.56733 0.56733
0.628779 0.628779 0.628779
0.69482 0.69482 0.69482
0.0153353 0.0153353 0.0153353
0.00688182 0.00688182 0.00688182
0.04094 0.04094 0.04094
0.187778 0.187778 0.187778
0.446708 0.446708 0.446708
0.558587 0.558587 0.558587
0.583719 0.583719 0.583719
0.634806 0.634806 0.634806
0.696651 0.696651 0.696651
0.138003 0.138003 0.138003
0.0775006 0.0775006 0.0775006
0.0752575 0.0752575 0.0752575
0.16379 0.16379 0.16379
0.388952 0.388952 0.388952
0.581857 0.581857 0.581857
0.600549 0.600549 0.600549
0.641627 0.641627 0.641627
0.698878 0.698878 0.698878
0.365209 0.365209 0.365209
0.260456 0.260456 0.260456
0.233753 0.233753 0.233753
0.272374 0.272374 0.272374
0.429236 0.429236 0.429236
0.624842 0.624842 0.624842
0.638544 0.638544 0.638544
0.660151 0.660151 0.660151
0.705272 0.705272 0.705272
0.507378 0.507378 0.507378
0.4907 0.4907 0.4907
0.490135 0.490135 0.490135
0.50602 0.50602 0.50602
0.573297 0.573297 0.573297
0.700832 0.700832 0.700832
0.712276 0.712276 0.712276
0.703334 0.703334 0.703334
0.723751 0.723751 0.723751
0.707881 0.707881 0.707881
0.710765 0.710765 0.710765
0.713771 0.713771 0.713771
0.725093 0.725093 0.725093
0.754513 0.754513 0.754513
0.815671 0.815671 0.815671
0.807706 0.807706 0.807706
0.774609 0.774609 0.774609
0.766949 0.766949 0.766949
0.769055 0.769055 0.769055
0.771252 0.771252 0.771252
0.773922 0.773922 0.773922
0.781552 0.781552 0.781552
0.803632 0.803632 0.803632
0.852552 0.852552 0.852552
0.880888 0.880888 0.880888
0.857877 0.857877 0.857877
0.835035 0.835035 0.835035
0.805707 0.805707 0.805707
0.806332 0.806332 0.806332
0.807095 0.807095 0.807095
0.809339 0.809339 0.809339
0.816464 0.816464 0.816464
0.83624 0.83624 0.83624
0.878965 0.878965 0.878965
0.884764 0.884764 0.884764
0.884764 0.884764 0.884764
0.866789 0.866789 0.866789
0.866941 0.866941 0.866941
0.867094 0.867094 0.867094
0.867567 0.867567 0.867567
0.869062 0.869062 0.869062
0.873793 0.873793 0.873793
0.885267 0.885267 0.885267
0.884855 0.884855 0.884855
0.884764 0.884764 0.884764
0.0202792 0.0202792 0.0202792
0.0162509 0.0162509 0.0162509
0.0628214 0.0628214 0.0628214
0.258289 0.258289 0.258289
0.551888 0.551888 0.551888
0.560327 0.560327 0.560327
0.577371 0.577371 0.577371
0.645747 0.645747 0.645747
0.707637 0.707637 0.707637
0.032639 0.032639 0.032639
0.0242161 0.0242161 0.0242161
0.0480354 0.0480354 0.0480354
0.180102 0.180102 0.180102
0.430488 0.430488 0.430488
0.563012 0.563012 0.563012
0.595575 0.595575 0.595575
0.652155 0.652155 0.652155
0.70959 0.70959 0.70959
0.185458 0.185458 0.185458
0.113359 0.113359 0.113359
0.0956741 0.0956741 0.0956741
0.177325 0.177325 0.177325
0.386404 0.386404 0.386404
0.594995 0.594995 0.594995
0.614267 0.614267 0.614267
0.6598 0.6598 0.6598
0.711925 0.711925 0.711925
0.434699 0.434699 0.434699
0.32488 0.32488 0.32488
0.286961 0.286961 0.286961
0.314778 0.314778 0.314778
0.452338 0.452338 0.452338
0.634073 0.634073 0.634073
0.656626 0.656626 0.656626
0.680415 0.680415 0.680415
0.718624 0.718624 0.718624
0.567041 0.567041 0.567041
0.54725 0.54725 0.54725
0.546349 0.546349 0.546349
0.56054 0.56054 0.56054
0.61532 0.61532 0.61532
0.726925 0.726925 0.726925
0.735271 0.735271 0.735271
0.728038 0.728038 0.728038
0.737575 0.737575 0.737575
0.74847 0.74847 0.74847
0.751873 0.751873 0.751873
0.755703 0.755703 0.755703
0.767666 0.767666 0.767666
0.796323 0.796323 0.796323
0.848402 0.848402 0.848402
0.834928 0.834928 0.834928
0.806088 0.806088 0.806088
0.782925 0.782925 0.782925
0.802014 0.802014 0.802014
0.804044 0.804044 0.804044
0.80647 0.80647 0.80647
0.813199 0.813199 0.813199
0.83357 0.83357 0.83357
0.878019 0.878019 0.878019
0.912642 0.912642 0.912642
0.884215 0.884215 0.884215
0.848157 0.848157 0.848157
0.820157 0.820157 0.820157
0.820584 0.820584 0.820584
0.821088 0.821088 0.821088
0.822599 0.822599 0.822599
0.827222 0.827222 0.827222
0.841031 0.841031 0.841031
0.87982 0.87982 0.87982
0.890242 0.890242 0.890242
0.884764 0.884764 0.884764
0.888914 0.888914 0.888914
0.889067 0.889067 0.889067
0.889235 0.889235 0.889235
0.889769 0.889769 0.889769
0.891463 0.891463 0.891463
0.8963 0.8963 0.8963
0.907652 0.907652 0.907652
0.904005 0.904005 0.904005
0.884764 0.884764 0.884764
0.0505684 0.0505684 0.0505684
0.0477455 0.0477455 0.0477455
0.0770123 0.0770123 0.0770123
0.251377 0.251377 0.251377
0.539925 0.539925 0.539925
0.564569 0.564569 0.564569
0.588586 0.588586 0.588586
0.663554 0.663554 0.663554
0.741543 0.741543 0.741543
0.0679789 0.0679789 0.0679789
0.0608377 0.0608377 0.0608377
0.0719158 0.0719158 0.0719158
0.182544 0.182544 0.182544
0.407813 0.407813 0.407813
0.567468 0.567468 0.567468
0.607706 0.607706 0.607706
0.670497 0.670497 0.670497
0.743709 0.743709 0.743709
0.225269 0.225269 0.225269
0.161975 0.161975 0.161975
0.122866 0.122866 0.122866
0.198947 0.198947 0.198947
0.387854 0.387854 0.387854
0.599756 0.599756 0.599756
0.626902 0.626902 0.626902
0.678691 0.678691 0.678691
0.746303 0.746303 0.746303
0.493462 0.493462 0.493462
0.390326 0.390326 0.390326
0.343465 0.343465 0.343465
0.366262 0.366262 0.366262
0.478813 0.478813 0.478813
0.640772 0.640772 0.640772
0.670771 0.670771 0.670771
0.699809 0.699809 0.699809
0.75378 0.75378 0.75378
0.616785 0.616785 0.616785
0.592416 0.592416 0.592416
0.590326 0.590326 0.590326
0.605219 0.605219 0.605219
0.653574 0.653574 0.653574
0.748272 0.748272 0.748272
0.752483 0.752483 0.752483
0.74931 0.74931 0.74931
0.774945 0.774945 0.774945
0.76585 0.76585 0.76585
0.769543 0.769543 0.769543
0.774121 0.774121 0.774121
0.78648 0.78648 0.78648
0.817121 0.817121 0.817121
0.86714 0.86714 0.86714
0.854902 0.854902 0.854902
0.829694 0.829694 0.829694
0.823041 0.823041 0.823041
0.824369 0.824369 0.824369
0.826383 0.826383 0.826383
0.828824 0.828824 0.828824
0.835767 0.835767 0.835767
0.856077 0.856077 0.856077
0.900923 0.900923 0.900923
0.942565 0.942565 0.942565
0.912428 0.912428 0.912428
0.890257 0.890257 0.890257
0.856184 0.856184 0.856184
0.856672 0.856672 0.856672
0.857282 0.857282 0.857282
0.859037 0.859037 0.859037
0.864546 0.864546 0.864546
0.879622 0.879622 0.879622
0.914107 0.914107 0.914107
0.928939 0.928939 0.928939
0.91809 0.91809 0.91809
0.910399 0.910399 0.910399
0.910582 0.910582 0.910582
0.91078 0.91078 0.91078
0.911421 0.911421 0.911421
0.913436 0.913436 0.913436
0.919112 0.919112 0.919112
0.933562 0.933562 0.933562
0.93991 0.93991 0.93991
0.920272 0.920272 0.920272
0.0862593 0.0862593 0.0862593
0.0862593 0.0862593 0.0862593
0.089662 0.089662 0.089662
0.244739 0.244739 0.244739
0.500282 0.500282 0.500282
0.558312 0.558312 0.558312
0.593622 0.593622 0.593622
0.672755 0.672755 0.672755
0.758083 0.758083 0.758083
0.110506 0.110506 0.110506
0.111254 0.111254 0.111254
0.0943465 0.0943465 0.0943465
0.207004 0.207004 0.207004
0.365759 0.365759 0.365759
0.567956 0.567956 0.567956
0.611734 0.611734 0.611734
0.679789 0.679789 0.679789
0.760311 0.760311 0.760311
0.20412 0.20412 0.20412
0.200275 0.200275 0.200275
0.130694 0.130694 0.130694
0.208774 0.208774 0.208774
0.378561 0.378561 0.378561
0.585504 0.585504 0.585504
0.631373 0.631373 0.631373
0.688151 0.688151 0.688151
0.762997 0.762997 0.762997
0.483177 0.483177 0.483177
0.435004 0.435004 0.435004
0.377172 0.377172 0.377172
0.392172 0.392172 0.392172
0.49189 0.49189 0.49189
0.637858 0.637858 0.637858
0.675578 0.675578 0.675578
0.709697 0.709697 0.709697
0.770657 0.770657 0.770657
0.621454 0.621454 0.621454
0.605509 0.605509 0.605509
0.59678 0.59678 0.59678
0.621622 0.621622 0.621622
0.673487 0.673487 0.673487
0.754772 0.754772 0.754772
0.758923 0.758923 0.758923
0.760372 0.760372 0.760372
0.792691 0.792691 0.792691
0.754726 0.754726 0.754726
0.759121 0.759121 0.759121
0.763287 0.763287 0.763287
0.777234 0.777234 0.777234
0.811292 0.811292 0.811292
0.865171 0.865171 0.865171
0.864195 0.864195 0.864195
0.841733 0.841733 0.841733
0.84065 0.84065 0.84065
0.834318 0.834318 0.834318
0.836088 0.836088 0.836088
0.838315 0.838315 0.838315
0.844572 0.844572 0.844572
0.864195 0.864195 0.864195
0.909331 0.909331 0.909331
0.957275 0.957275 0.957275
0.929 0.929 0.929
0.911254 0.911254 0.911254
0.873838 0.873838 0.873838
0.874388 0.874388 0.874388
0.875059 0.875059 0.875059
0.877028 0.877028 0.877028
0.883177 0.883177 0.883177
0.899397 0.899397 0.899397
0.936187 0.936187 0.936187
0.959777 0.959777 0.959777
0.952834 0.952834 0.952834
0.923629 0.923629 0.923629
0.923812 0.923812 0.923812
0.924041 0.924041 0.924041
0.924727 0.924727 0.924727
0.92694 0.92694 0.92694
0.933745 0.933745 0.933745
0.950713 0.950713 0.950713
0.969467 0.969467 0.969467
0.957687 0.957687 0.957687
0.119173 0.119173 0.119173
0.119219 0.119219 0.119219
0.11928 0.11928 0.11928
0.223804 0.223804 0.223804
0.37734 0.37734 0.37734
0.513726 0.513726 0.513726
0.582498 0.582498 0.582498
0.667613 0.667613 0.667613
0.759182 0.759182 0.759182
0.130022 0.130022 0.130022
0.13019 0.13019 0.13019
0.130556 0.130556 0.130556
0.194583 0.194583 0.194583
0.350454 0.350454 0.350454
0.523919 0.523919 0.523919
0.601068 0.601068 0.601068
0.674525 0.674525 0.674525
0.761501 0.761501 0.761501
0.137285 0.137285 0.137285
0.137438 0.137438 0.137438
0.137545 0.137545 0.137545
0.18175 0.18175 0.18175
0.336965 0.336965 0.336965
0.538842 0.538842 0.538842
0.620615 0.620615 0.620615
0.68246 0.68246 0.68246
0.764309 0.764309 0.764309
0.359274 0.359274 0.359274
0.360082 0.360082 0.360082
0.347936 0.347936 0.347936
0.315373 0.315373 0.315373
0.44509 0.44509 0.44509
0.604883 0.604883 0.604883
0.663951 0.663951 0.663951
0.703944 0.703944 0.703944
0.772473 0.772473 0.772473
0.610697 0.610697 0.610697
0.554955 0.554955 0.554955
0.542763 0.542763 0.542763
0.550103 0.550103 0.550103
0.624933 0.624933 0.624933
0.721279 0.721279 0.721279
0.745632 0.745632 0.745632
0.754818 0.754818 0.754818
0.794079 0.794079 0.794079
0.694194 0.694194 0.694194
0.698085 0.698085 0.698085
0.702602 0.702602 0.702602
0.716579 0.716579 0.716579
0.755779 0.755779 0.755779
0.825635 0.825635 0.825635
0.855283 0.855283 0.855283
0.837522 0.837522 0.837522
0.842603 0.842603 0.842603
0.827466 0.827466 0.827466
0.828962 0.828962 0.828962
0.830762 0.830762 0.830762
0.835966 0.835966 0.835966
0.851881 0.851881 0.851881
0.891249 0.891249 0.891249
0.946303 0.946303 0.946303
0.93196 0.93196 0.93196
0.917067 0.917067 0.917067
0.876219 0.876219 0.876219
0.87689 0.87689 0.87689
0.877668 0.877668 0.877668
0.879957 0.879957 0.879957
0.886992 0.886992 0.886992
0.905898 0.905898 0.905898
0.946441 0.946441 0.946441
0.983368 0.983368 0.983368
0.977523 0.977523 0.977523
0.924361 0.924361 0.924361
0.924575 0.924575 0.924575
0.924849 0.924849 0.924849
0.925628 0.925628 0.925628
0.928176 0.928176 0.928176
0.93611 0.93611 0.93611
0.956847 0.956847 0.956847
0.989624 0.989624 0.989624
0.983902 0.983902 0.983902
0.134142 0.134142 0.134142
0.134264 0.134264 0.134264
0.134432 0.134432 0.134432
0.134844 0.134844 0.134844
0.297093 0.297093 0.297093
0.414527 0.414527 0.414527
0.544823 0.544823 0.544823
0.636652 0.636652 0.636652
0.736278 0.736278 0.736278
0.138643 0.138643 0.138643
0.13875 0.13875 0.13875
0.138872 0.138872 0.138872
0.139223 0.139223 0.139223
0.281895 0.281895 0.281895
0.420401 0.420401 0.420401
0.56112 0.56112 0.56112
0.643229 0.643229 0.643229
0.738659 0.738659 0.738659
0.194339 0.194339 0.194339
0.196399 0.196399 0.196399
0.198917 0.198917 0.198917
0.207645 0.207645 0.207645
0.268788 0.268788 0.268788
0.433082 0.433082 0.433082
0.578393 0.578393 0.578393
0.650797 0.650797 0.650797
0.741497 0.741497 0.741497
0.454459 0.454459 0.454459
0.454978 0.454978 0.454978
0.456001 0.456001 0.456001
0.459098 0.459098 0.459098
0.259495 0.259495 0.259495
0.478599 0.478599 0.478599
0.619425 0.619425 0.619425
0.671427 0.671427 0.671427
0.749767 0.749767 0.749767
0.673518 0.673518 0.673518
0.673732 0.673732 0.673732
0.673945 0.673945 0.673945
0.564157 0.564157 0.564157
0.465126 0.465126 0.465126
0.605066 0.605066 0.605066
0.700343 0.700343 0.700343
0.721599 0.721599 0.721599
0.772351 0.772351 0.772351
0.737194 0.737194 0.737194
0.721111 0.721111 0.721111
0.70547 0.70547 0.70547
0.678752 0.678752 0.678752
0.676371 0.676371 0.676371
0.727016 0.727016 0.727016
0.81001 0.81001 0.81001
0.809506 0.809506 0.809506
0.823896 0.823896 0.823896
0.814649 0.814649 0.814649
0.815244 0.815244 0.815244
0.815961 0.815961 0.815961
0.818952 0.818952 0.818952
0.827054 0.827054 0.827054
0.849058 0.849058 0.849058
0.896574 0.896574 0.896574
0.914565 0.914565 0.914565
0.905089 0.905089 0.905089
0.865232 0.865232 0.865232
0.865766 0.865766 0.865766
0.866453 0.866453 0.866453
0.868757 0.868757 0.868757
0.875868 0.875868 0.875868
0.89575 0.89575 0.89575
0.939925 0.939925 0.939925
0.997116 0.997116 0.997116
0.98793 0.98793 0.98793
0.915846 0.915846 0.915846
0.91606 0.91606 0.91606
0.916304 0.916304 0.916304
0.917067 0.917067 0.917067
0.919585 0.919585 0.919585
0.927245 0.927245 0.927245
0.948455 0.948455 0.948455
0.989471 0.989471 0.989471
1 1 1
0.475425 0.475425 0.475425
0.476249 0.476249 0.476249
0.477211 0.477211 0.477211
0.479973 0.479973 0.479973
0.489357 0.489357 0.489357
0.328359 0.328359 0.328359
0.460685 0.460685 0.460685
0.554238 0.554238 0.554238
0.67393 0.67393 0.67393
0.509758 0.509758 0.509758
0.510567 0.510567 0.510567
0.51133 0.51133 0.51133
0.513649 0.513649 0.513649
0.52105 0.52105 0.52105
0.325093 0.325093 0.325093
0.469734 0.469734 0.469734
0.560739 0.560739 0.560739
0.676356 0.676356 0.676356
0.543221 0.543221 0.543221
0.543801 0.543801 0.543801
0.544533 0.544533 0.544533
0.546563 0.546563 0.546563
0.552697 0.552697 0.552697
0.321798 0.321798 0.321798
0.479408 0.479408 0.479408
0.568383 0.568383 0.568383
0.679301 0.679301 0.679301
0.614084 0.614084 0.614084
0.614313 0.614313 0.614313
0.614786 0.614786 0.614786
0.615946 0.615946 0.615946
0.619776 0.619776 0.619776
0.334615 0.334615 0.334615
0.504753 0.504753 0.504753
0.589975 0.589975 0.589975
0.687755 0.687755 0.687755
0.730465 0.730465 0.730465
0.730556 0.730556 0.730556
0.730739 0.730739 0.730739
0.731182 0.731182 0.731182
0.732799 0.732799 0.732799
0.528572 0.528572 0.528572
0.586465 0.586465 0.586465
0.643107 0.643107 0.643107
0.712016 0.712016 0.712016
0.797848 0.797848 0.797848
0.797848 0.797848 0.797848
0.797848 0.797848 0.797848
0.797848 0.797848 0.797848
0.731502 0.731502 0.731502
0.714549 0.714549 0.714549
0.755764 0.755764 0.755764
0.741054 0.741054 0.741054
0.768978 0.768978 0.768978
0.797848 0.797848 0.797848
0.797848 0.797848 0.797848
0.797848 0.797848 0.797848
0.80148 0.80148 0.80148
0.818631 0.818631 0.818631
0.846098 0.846098 0.846098
0.889265 0.889265 0.889265
0.89633 0.89633 0.89633
0.863752 0.863752 0.863752
0.850095 0.850095 0.850095
0.850736 0.850736 0.850736
0.851545 0.851545 0.851545
0.85388 0.85388 0.85388
0.861021 0.861021 0.861021
0.882277 0.882277 0.882277
0.928603 0.928603 0.928603
0.993927 0.993927 0.993927
0.985946 0.985946 0.985946
0.906294 0.906294 0.906294
0.906508 0.906508 0.906508
0.906783 0.906783 0.906783
0.907546 0.907546 0.907546
0.910018 0.910018 0.910018
0.917632 0.917632 0.917632
0.93933 0.93933 0.93933
0.983368 0.983368 0.983368
1 1 1
