Luts/Fujifilm/FLog2C_to_ETERNA-BB_VLog.cube
TITLE "Generated by Resolve"
LUT_3D_SIZE 33
0 0 0
0 0 0
0 0 0
0 0 0
0.0149233 0.00267033 0.000793469
0.0549783 0.00708019 0.0115358
0.084062 0.0159762 0.0171359
0.122194 0.0223087 0.0282597
0.18468 0.0350805 0.0466773
0.283848 0.0482948 0.0664378
0.393774 0.0639506 0.0921187
0.495521 0.084596 0.125414
0.580545 0.127047 0.17113
0.65304 0.192157 0.227863
0.690059 0.25742 0.282322
0.736721 0.347692 0.354269
0.753506 0.376837 0.375051
0.753506 0.376837 0.375051
0.753506 0.376837 0.375051
0.753506 0.376837 0.375051
0.753506 0.376837 0.375051
0.753506 0.376837 0.375051
0.753506 0.376837 0.375051
0.753506 0.376837 0.375051
0.756634 0.381567 0.377935
0.76875 0.404471 0.386618
0.786297 0.437324 0.397101
0.801495 0.469566 0.40766
0.817044 0.504479 0.416571
0.834638 0.542 0.425635
0.853483 0.579446 0.432517
0.869612 0.618982 0.436103
0.884153 0.660166 0.438041
0 0 0
0 0 0
0 0 0
0 0 0
0.0220493 0.00328069 0.00254826
0.0605783 0.0083772 0.0132296
0.0894636 0.0171664 0.0181277
0.127871 0.0236515 0.0296178
0.191928 0.0364996 0.0486458
0.2916 0.0487678 0.0677348
0.399145 0.0647135 0.0932326
0.499046 0.0856031 0.126711
0.581842 0.127855 0.17203
0.654871 0.194049 0.229435
0.690639 0.258579 0.283284
0.737301 0.348821 0.355169
0.753445 0.376761 0.374975
0.753506 0.376837 0.375051
0.753506 0.376837 0.375051
0.753506 0.376837 0.375051
0.753506 0.376837 0.375051
0.753506 0.376837 0.375051
0.753506 0.376837 0.375051
0.753506 0.376837 0.375051
0.758907 0.386053 0.379889
0.772229 0.411444 0.38851
0.789059 0.442359 0.399344
0.803586 0.473457 0.408515
0.818372 0.507713 0.417395
0.835737 0.544381 0.426047
0.854566 0.581308 0.4327
0.8701 0.620401 0.43624
0.884428 0.661219 0.43801
0 0 0
0 0 0
0 0 0
0 0 0
0.0294804 0.00419623 0.0043946
0.0662547 0.0102998 0.0149233
0.0949569 0.0175479 0.0202335
0.13344 0.024918 0.0316625
0.196353 0.0373388 0.0493324
0.291936 0.0480507 0.0664378
0.393469 0.0647288 0.0912032
0.488334 0.0828412 0.122957
0.572259 0.120317 0.162676
0.635431 0.173938 0.212375
0.677058 0.232883 0.261677
0.708614 0.292775 0.310262
0.746914 0.364065 0.364828
0.753384 0.376715 0.375006
0.753506 0.376837 0.375051
0.753506 0.376837 0.375051
0.753506 0.376837 0.375051
0.753506 0.376837 0.375051
0.753506 0.376837 0.375051
0.753506 0.376837 0.375051
0.761563 0.391897 0.382055
0.775433 0.417884 0.39028
0.791699 0.447135 0.401465
0.8056 0.477211 0.409323
0.819715 0.510948 0.418235
0.836866 0.546853 0.426474
0.855634 0.583185 0.432898
0.870588 0.621851 0.436347
0.884703 0.662287 0.43798
0 0 0
0 0 0
0 0 0
0 0 0
0.0176699 0.00234989 0.00120546
0.0506752 0.00703441 0.0100252
0.0784314 0.0117037 0.017258
0.11017 0.0205386 0.0251774
0.155459 0.0313878 0.0403906
0.233707 0.0419318 0.0576181
0.332174 0.0520333 0.0757
0.429969 0.0698405 0.100114
0.520043 0.0945907 0.134905
0.591043 0.133501 0.176867
0.652155 0.191058 0.226078
0.684352 0.244373 0.271763
0.715236 0.306767 0.321782
0.749615 0.37084 0.370489
0.753506 0.376837 0.375051
0.753506 0.376837 0.375051
0.753506 0.376837 0.375051
0.753506 0.376837 0.375051
0.753506 0.376837 0.375051
0.755322 0.380133 0.376593
0.764462 0.398001 0.384115
0.778561 0.424125 0.391989
0.794217 0.451881 0.403433
0.807599 0.481071 0.410208
0.821042 0.514107 0.419089
0.838117 0.549249 0.426871
0.856428 0.585138 0.433143
0.871092 0.623301 0.436439
0.884978 0.663355 0.437949
0.0011902 0.0107729 0.00187686
0.00125124 0.0115511 0.00204471
0.0015259 0.0114748 0.00170901
0.000198367 0.00425727 0.000289921
0.00714122 0.00125124 0.000335698
0.0401007 0.00665293 0.00758373
0.0631571 0.01178 0.0135958
0.0908064 0.0158083 0.0223545
0.126864 0.0251316 0.0322881
0.184558 0.0357671 0.046067
0.271214 0.0469062 0.063035
0.367697 0.0601511 0.0846723
0.462257 0.0758679 0.112291
0.546777 0.106325 0.149371
0.612726 0.150683 0.194766
0.667262 0.214054 0.245182
0.694087 0.265629 0.289128
0.732647 0.336248 0.345571
0.75346 0.37673 0.374975
0.753506 0.376837 0.375051
0.753506 0.376837 0.375051
0.753506 0.376837 0.375051
0.753841 0.37734 0.375265
0.759533 0.387762 0.380179
0.76875 0.40621 0.386389
0.781415 0.429267 0.393622
0.796338 0.456855 0.404547
0.809491 0.485206 0.411337
0.822477 0.517281 0.420035
0.839414 0.551568 0.427268
0.857191 0.586984 0.433371
0.871626 0.624857 0.436545
0.885252 0.664378 0.437934
0.00895705 0.0483711 0.0101625
0.00906386 0.0489052 0.0102846
0.00753796 0.0422065 0.00808728
0.00355535 0.0281987 0.00523384
0.00488289 0.0188449 0.00323491
0.0277562 0.0173037 0.0062562
0.0550698 0.0153353 0.0103456
0.0768597 0.015198 0.0170901
0.10602 0.0210727 0.0255741
0.151293 0.029984 0.0375677
0.222278 0.0395514 0.0538491
0.318517 0.0526589 0.0709697
0.416587 0.0674754 0.0973678
0.506218 0.0913863 0.131594
0.582773 0.126085 0.17052
0.643381 0.184253 0.220951
0.682811 0.242435 0.269947
0.715969 0.30692 0.321935
0.753506 0.376837 0.375051
0.753506 0.376837 0.375051
0.753506 0.376837 0.375051
0.754025 0.377859 0.375494
0.75697 0.38204 0.377279
0.763607 0.395178 0.382773
0.772656 0.413672 0.388434
0.7841 0.434119 0.395148
0.798413 0.461738 0.405646
0.811337 0.489235 0.412451
0.82385 0.520378 0.420966
0.840757 0.553964 0.427665
0.858 0.588952 0.433616
0.872114 0.626261 0.436652
0.885496 0.665339 0.437903
0.0142367 0.0704509 0.0175326
0.0143587 0.071046 0.0175784
0.012253 0.0650339 0.014847
0.0103914 0.0555581 0.0122835
0.00793469 0.0450446 0.00943008
0.0234836 0.0413977 0.0122072
0.0501106 0.0406348 0.0144961
0.0728618 0.0413214 0.0176547
0.0990311 0.0393988 0.0232395
0.134295 0.0426337 0.0344854
0.194903 0.0462043 0.0487373
0.282567 0.0522011 0.064744
0.380835 0.0619059 0.0878309
0.475517 0.0785534 0.115251
0.558862 0.112245 0.154467
0.624491 0.163134 0.203326
0.672526 0.224704 0.254734
0.703853 0.284947 0.303273
0.745586 0.362219 0.364218
0.753506 0.376837 0.375051
0.753506 0.376837 0.375051
0.755566 0.380865 0.376822
0.760647 0.388296 0.379721
0.768032 0.403296 0.384543
0.776547 0.420706 0.391028
0.786847 0.439063 0.396704
0.800443 0.466545 0.406714
0.813184 0.493278 0.41355
0.825238 0.523461 0.421881
0.842054 0.556283 0.428061
0.858747 0.590753 0.433845
0.872602 0.62771 0.436744
0.885771 0.666392 0.437873
0.01944 0.093019 0.0217136
0.0195773 0.0935225 0.0218509
0.0171969 0.0877089 0.0227817
0.0153201 0.0767529 0.0183413
0.0125277 0.0665293 0.0148165
0.0226444 0.0623941 0.0168002
0.0469368 0.062211 0.0220035
0.0696117 0.0628672 0.0231479
0.0930037 0.0623331 0.0255589
0.126009 0.0642252 0.0340734
0.177584 0.0654917 0.0416114
0.258152 0.0699016 0.057145
0.354543 0.072343 0.0784314
0.44802 0.0836347 0.104387
0.535836 0.107668 0.142504
0.607233 0.149294 0.18938
0.665766 0.211292 0.240543
0.696834 0.269932 0.290608
0.732738 0.340276 0.345724
0.757183 0.382177 0.378485
0.757733 0.383917 0.378851
0.760708 0.390768 0.381247
0.765713 0.397971 0.383169
0.772808 0.412421 0.38706
0.78088 0.428199 0.394308
0.789914 0.445731 0.398764
0.802853 0.47219 0.40798
0.815381 0.49807 0.414862
0.826871 0.527108 0.42298
0.84361 0.55906 0.428519
0.859693 0.593042 0.434134
0.873182 0.629389 0.436866
0.886107 0.667674 0.437842
0.0255436 0.122728 0.0303044
0.0254063 0.122637 0.0301366
0.0230564 0.110231 0.0263218
0.0198215 0.0987259 0.0229953
0.0173495 0.0887465 0.0226902
0.021088 0.0830243 0.0198215
0.0470741 0.0835279 0.0259403
0.0683299 0.0812543 0.0299382
0.0907301 0.0821088 0.0330205
0.118669 0.0823682 0.0337682
0.164477 0.0841993 0.041413
0.237079 0.0864729 0.0520027
0.328573 0.0898756 0.0680858
0.423438 0.0970321 0.0939651
0.515023 0.117983 0.132555
0.594568 0.156451 0.179385
0.658488 0.215305 0.2336
0.697856 0.275898 0.284062
0.732906 0.341451 0.33872
0.765316 0.397421 0.384115
0.766979 0.399939 0.38497
0.768994 0.405722 0.387625
0.772412 0.412879 0.388174
0.778576 0.42443 0.39176
0.78616 0.438025 0.398169
0.793896 0.455497 0.401755
0.806241 0.479088 0.409934
0.818265 0.504372 0.416587
0.829068 0.531991 0.424445
0.845685 0.562768 0.429145
0.860945 0.596094 0.434516
0.874022 0.631846 0.437034
0.886534 0.669367 0.437781
0.0346685 0.168948 0.0406348
0.0326696 0.159701 0.0384833
0.0285801 0.141619 0.0331273
0.0260624 0.125643 0.0307774
0.0227512 0.1131 0.0262455
0.024155 0.106279 0.0247654
0.0419776 0.104814 0.0283818
0.0680858 0.1037 0.0353857
0.0882582 0.103273 0.0387274
0.113298 0.103792 0.0396887
0.152743 0.104494 0.0429847
0.218204 0.10631 0.0540322
0.304646 0.108751 0.0632029
0.400366 0.113329 0.0836042
0.4934 0.131853 0.117739
0.578561 0.171389 0.169116
0.648829 0.227329 0.227268
0.705119 0.293736 0.283131
0.736828 0.351873 0.333028
0.774533 0.416342 0.38732
0.778393 0.42237 0.392203
0.779751 0.424842 0.393545
0.782605 0.430747 0.395514
0.787243 0.43946 0.398352
0.791791 0.45124 0.401587
0.799008 0.467353 0.405463
0.810712 0.487739 0.412558
0.821775 0.511696 0.418402
0.831922 0.538354 0.426352
0.848447 0.567697 0.429969
0.862608 0.600107 0.435004
0.87509 0.634974 0.437232
0.887114 0.671611 0.43772
0.0485542 0.244739 0.0572976
0.0428016 0.209216 0.0491035
0.0368353 0.181186 0.0433356
0.0331884 0.161425 0.0392462
0.0301671 0.146944 0.0354925
0.0286412 0.138369 0.0327306
0.0435645 0.135042 0.035462
0.0678111 0.132525 0.0412757
0.090013 0.131136 0.0441596
0.114076 0.128634 0.0492103
0.146868 0.128908 0.0471809
0.20383 0.1299 0.0534676
0.284886 0.133242 0.063798
0.379187 0.135592 0.0828565
0.472572 0.152728 0.107317
0.565225 0.188815 0.156924
0.641566 0.248035 0.222721
0.717159 0.324422 0.287037
0.745464 0.373678 0.33106
0.779507 0.428809 0.382269
0.792004 0.447547 0.400229
0.791608 0.450874 0.401068
0.794644 0.452369 0.403616
0.796979 0.458366 0.403738
0.799878 0.46772 0.406043
0.806516 0.481514 0.410391
0.816251 0.499321 0.415824
0.826246 0.520912 0.42063
0.836454 0.546426 0.427817
0.851942 0.574044 0.431022
0.864805 0.605432 0.435676
0.876509 0.639094 0.437522
0.887892 0.674586 0.437644
0.0652018 0.313176 0.0766918
0.0550851 0.272419 0.0654612
0.0483711 0.239139 0.0568093
0.0435035 0.212818 0.0508583
0.0397803 0.194629 0.0462196
0.0379492 0.183764 0.0436866
0.0467842 0.176196 0.0434424
0.0723735 0.172778 0.0492103
0.0929427 0.168215 0.0526589
0.11664 0.166217 0.0576028
0.147356 0.164294 0.0621347
0.194156 0.165469 0.0620127
0.269947 0.16817 0.0700847
0.359457 0.170504 0.0865187
0.456382 0.183093 0.112566
0.551507 0.218097 0.151019
0.637644 0.279149 0.213352
0.720211 0.354482 0.281849
0.764508 0.410636 0.336645
0.790921 0.451774 0.37879
0.806699 0.48072 0.409751
0.805264 0.479408 0.408896
0.806516 0.478874 0.411109
0.807324 0.481926 0.409674
0.81062 0.488884 0.412146
0.815244 0.500389 0.41593
0.823011 0.515557 0.419821
0.831907 0.533211 0.423697
0.842268 0.55671 0.429648
0.855894 0.582742 0.432303
0.867521 0.612451 0.436332
0.878386 0.644556 0.437888
0.888899 0.678508 0.437537
0.0848249 0.379797 0.0998398
0.0722972 0.339834 0.0846876
0.0629435 0.307179 0.0747997
0.0568246 0.282506 0.0682078
0.0535134 0.26302 0.0630045
0.0503243 0.250172 0.0603189
0.0584573 0.241688 0.0589914
0.0799725 0.234546 0.0629129
0.102693 0.229892 0.0671244
0.124727 0.222736 0.070573
0.152834 0.218845 0.0750896
0.19472 0.215946 0.0823529
0.261234 0.215839 0.0818036
0.350332 0.219577 0.098497
0.446738 0.232914 0.125063
0.546349 0.265248 0.164843
0.64094 0.321645 0.212818
0.728313 0.395239 0.277058
0.79115 0.463325 0.343984
0.805142 0.485405 0.378943
0.821103 0.513985 0.416388
0.821729 0.51371 0.420096
0.820508 0.511559 0.420203
0.821332 0.511376 0.419104
0.822797 0.515496 0.419577
0.826154 0.523705 0.422477
0.83064 0.534661 0.424353
0.838972 0.549783 0.427985
0.849012 0.570275 0.431754
0.861036 0.594034 0.433982
0.870405 0.621592 0.436286
0.880705 0.651545 0.438209
0.890257 0.683726 0.437385
0.107393 0.441855 0.124208
0.09337 0.407111 0.109361
0.0837568 0.381384 0.100679
0.0768749 0.360357 0.0934462
0.0717479 0.344259 0.0872206
0.0707408 0.331899 0.0836042
0.0770275 0.323674 0.0840162
0.100298 0.317769 0.087068
0.123522 0.310048 0.0922255
0.141344 0.300435 0.092668
0.16701 0.293446 0.0979019
0.205051 0.28896 0.104356
0.265629 0.289265 0.115831
0.350256 0.291752 0.123568
0.44564 0.303761 0.148714
0.550408 0.334554 0.188235
0.65214 0.383932 0.234241
0.741833 0.449393 0.285588
0.812238 0.518059 0.342641
0.82533 0.534966 0.384665
0.837552 0.551659 0.415839
0.839689 0.553765 0.427955
0.837263 0.548012 0.428565
0.834836 0.546853 0.428244
0.835996 0.54519 0.426749
0.838941 0.550683 0.427756
0.84271 0.558816 0.428382
0.849378 0.570794 0.430228
0.856596 0.587976 0.434043
0.866789 0.608118 0.435157
0.874128 0.633356 0.43624
0.883482 0.660533 0.438239
0.89218 0.690517 0.437217
0.133989 0.504799 0.151644
0.122911 0.481666 0.141268
0.115434 0.462943 0.133516
0.109239 0.446143 0.126284
0.103334 0.432914 0.121019
0.100725 0.423056 0.117281
0.103227 0.416007 0.115434
0.127733 0.409003 0.11957
0.148959 0.401877 0.123537
0.168368 0.393683 0.126207
0.192752 0.385779 0.13077
0.228962 0.378195 0.137194
0.283635 0.375265 0.148821
0.360525 0.380209 0.169131
0.454032 0.393256 0.189899
0.56231 0.419669 0.223117
0.668284 0.463478 0.268223
0.757321 0.518837 0.314916
0.824186 0.575723 0.354696
0.848707 0.595941 0.380606
0.856443 0.598062 0.413092
0.861982 0.596445 0.434241
0.857328 0.588998 0.433631
0.856062 0.5832 0.432517
0.853635 0.580926 0.433188
0.854749 0.582971 0.433082
0.857862 0.587671 0.433204
0.861524 0.595621 0.432853
0.865583 0.609308 0.435325
0.873182 0.625559 0.43563
0.879332 0.647852 0.436988
0.887068 0.672084 0.438285
0.894865 0.699306 0.437064
0.165713 0.575036 0.183886
0.158022 0.558389 0.176822
0.151751 0.54345 0.169482
0.147295 0.533486 0.165438
0.144533 0.524895 0.161852
0.14342 0.51725 0.158404
0.154894 0.512093 0.159396
0.172305 0.506508 0.161959
0.189807 0.499962 0.166049
0.207568 0.492866 0.16846
0.231205 0.485222 0.173739
0.262684 0.478904 0.180789
0.315618 0.475639 0.193439
0.389593 0.47953 0.213626
0.478584 0.493156 0.237186
0.582437 0.518288 0.265705
0.688945 0.554925 0.308263
0.773938 0.596887 0.346716
0.839246 0.638529 0.374121
0.875639 0.664652 0.388128
0.874647 0.653666 0.403922
0.877317 0.647044 0.432609
0.875135 0.636103 0.436561
0.872969 0.62771 0.436225
0.871046 0.622248 0.435584
0.870619 0.619608 0.436896
0.872053 0.621271 0.436286
0.872251 0.625254 0.435355
0.874586 0.633951 0.437018
0.880507 0.647547 0.437842
0.886198 0.665568 0.438636
0.891463 0.686488 0.437201
0.898314 0.710552 0.436866
0.191745 0.643992 0.211368
0.188861 0.634958 0.208209
0.186648 0.626627 0.205219
0.184649 0.619577 0.202075
0.182864 0.613504 0.199283
0.193729 0.609628 0.20116
0.204013 0.606439 0.203098
0.217456 0.602869 0.205356
0.233661 0.59852 0.20795
0.250156 0.593423 0.210376
0.271626 0.587655 0.214786
0.303334 0.582803 0.221195
0.353292 0.58262 0.23386
0.426154 0.588098 0.253986
0.511406 0.598901 0.280385
0.609644 0.620539 0.312978
0.707378 0.648508 0.341512
0.790249 0.675822 0.367575
0.852003 0.703365 0.38967
0.891981 0.727214 0.405341
0.891112 0.715343 0.401434
0.891035 0.698528 0.420111
0.890883 0.684688 0.438117
0.887861 0.67422 0.438621
0.885725 0.666346 0.43772
0.883787 0.66067 0.437446
0.884184 0.657572 0.438529
0.88275 0.658549 0.438666
0.885237 0.664393 0.438285
0.887327 0.674357 0.43856
0.891127 0.687007 0.438453
0.896849 0.704356 0.435111
0.901106 0.724865 0.433234
0.213764 0.701701 0.233448
0.21181 0.698207 0.231708
0.209964 0.694987 0.230091
0.217807 0.692073 0.231296
0.225437 0.689464 0.232532
0.234028 0.687465 0.234195
0.245518 0.686534 0.236927
0.259403 0.685557 0.240253
0.27332 0.683879 0.242969
0.289235 0.681544 0.245747
0.309987 0.678935 0.250736
0.343374 0.677195 0.259098
0.393408 0.679103 0.273533
0.460288 0.684749 0.2916
0.542443 0.695155 0.316686
0.632761 0.711864 0.340826
0.722164 0.730785 0.363897
0.801602 0.750927 0.38381
0.861387 0.768765 0.401282
0.903227 0.784955 0.41149
0.91194 0.779156 0.41268
0.905241 0.756298 0.408972
0.902815 0.734249 0.428977
0.902068 0.722759 0.433555
0.899382 0.712825 0.4365
0.897124 0.705501 0.436881
0.894881 0.700023 0.436851
0.893797 0.697749 0.438071
0.894743 0.698283 0.436728
0.89572 0.704097 0.437491
0.897902 0.711559 0.436988
0.902617 0.726009 0.433494
0.903838 0.742718 0.427054
0.234043 0.749096 0.25153
0.237156 0.747875 0.252033
0.240345 0.746578 0.252522
0.252384 0.746654 0.2551
0.264378 0.746822 0.25771
0.275502 0.746899 0.26009
0.284932 0.746685 0.262226
0.293645 0.746166 0.264332
0.305409 0.745586 0.267216
0.322103 0.74522 0.271611
0.343847 0.74493 0.27747
0.378119 0.745922 0.287922
0.425498 0.75169 0.299886
0.488121 0.761517 0.315145
0.562905 0.772702 0.331868
0.647913 0.787564 0.35198
0.733288 0.802167 0.3729
0.807218 0.814542 0.390768
0.86595 0.825452 0.401923
0.904921 0.834287 0.411612
0.924529 0.833936 0.414969
0.920668 0.81326 0.415763
0.913497 0.786068 0.414038
0.90927 0.769314 0.417426
0.906325 0.75964 0.417914
0.904646 0.749874 0.424399
0.903914 0.742535 0.426734
0.903395 0.737819 0.429572
0.903456 0.73547 0.430945
0.90396 0.736675 0.430716
0.904845 0.741375 0.428183
0.905333 0.749752 0.424475
0.907423 0.761395 0.417807
0.268727 0.785 0.26862
0.278141 0.785489 0.270893
0.287434 0.785977 0.273182
0.295232 0.78648 0.275608
0.3028 0.786908 0.277943
0.310231 0.78732 0.280247
0.317525 0.787717 0.282506
0.32607 0.788373 0.285039
0.337224 0.789273 0.288182
0.352071 0.790448 0.292378
0.375341 0.793408 0.297902
0.405844 0.797665 0.304723
0.451362 0.806241 0.313985
0.508644 0.816556 0.326101
0.578088 0.82826 0.340734
0.656916 0.840742 0.359792
0.735607 0.854109 0.375708
0.806775 0.863554 0.391669
0.862715 0.869902 0.40206
0.903258 0.875807 0.408225
0.931365 0.877836 0.413199
0.92961 0.861708 0.414908
0.925078 0.835935 0.415595
0.921401 0.815076 0.415213
0.918196 0.804135 0.414923
0.914946 0.794553 0.413474
0.913085 0.785382 0.415183
0.910796 0.777554 0.413199
0.910536 0.77348 0.415335
0.910216 0.77203 0.415229
0.90985 0.77229 0.413901
0.911604 0.777005 0.415427
0.912688 0.78497 0.414679
0.307225 0.818647 0.287694
0.314244 0.819821 0.289433
0.321431 0.820966 0.291173
0.328084 0.821485 0.29247
0.334737 0.821988 0.293782
0.341085 0.822492 0.295033
0.347738 0.823011 0.29633
0.355261 0.823636 0.297826
0.36614 0.825055 0.300069
0.381628 0.828092 0.303426
0.400748 0.831907 0.307591
0.431937 0.837644 0.314427
0.47425 0.845106 0.32372
0.526284 0.854871 0.334173
0.586862 0.866423 0.346334
0.659312 0.87953 0.3608
0.733455 0.889784 0.376761
0.800961 0.899947 0.387869
0.855451 0.905501 0.398123
0.897673 0.908278 0.407034
0.932509 0.90901 0.413092
0.935424 0.89836 0.413214
0.932921 0.879194 0.413962
0.929442 0.857023 0.415488
0.928359 0.844831 0.415137
0.924727 0.835065 0.415274
0.924239 0.826444 0.415595
0.921294 0.817563 0.415824
0.919829 0.81265 0.415106
0.918685 0.808118 0.415213
0.919539 0.805539 0.415213
0.919387 0.80737 0.415717
0.920104 0.810971 0.414832
0.347204 0.848936 0.299031
0.352682 0.849928 0.300206
0.358358 0.850858 0.301396
0.364981 0.85185 0.302739
0.371206 0.852766 0.30399
0.377615 0.853727 0.305272
0.38352 0.854643 0.306462
0.391135 0.855772 0.307988
0.400961 0.857221 0.309972
0.415641 0.859998 0.313008
0.436133 0.8645 0.317357
0.462867 0.870298 0.323018
0.49929 0.877729 0.330434
0.545937 0.886976 0.339818
0.601068 0.89688 0.349996
0.663813 0.907393 0.361639
0.731106 0.917159 0.373602
0.796155 0.925185 0.387594
0.850202 0.929442 0.397314
0.891936 0.932128 0.405188
0.922759 0.931548 0.410086
0.940856 0.926177 0.417273
0.939376 0.91104 0.413397
0.935164 0.893339 0.414847
0.932967 0.879133 0.413901
0.931884 0.871077 0.414466
0.930434 0.863661 0.415381
0.929381 0.85478 0.415335
0.927581 0.849027 0.416175
0.926329 0.842725 0.415229
0.926146 0.838483 0.415229
0.925231 0.836164 0.415366
0.926726 0.837552 0.415366
0.383413 0.864652 0.30663
0.387564 0.865599 0.307408
0.394141 0.867155 0.308949
0.400381 0.86862 0.31043
0.407141 0.870222 0.312047
0.413108 0.871641 0.313451
0.419608 0.873167 0.315007
0.427192 0.874968 0.316808
0.437217 0.877333 0.319188
0.450477 0.880461 0.322332
0.468482 0.884871 0.326116
0.492454 0.890837 0.330755
0.522988 0.898482 0.336645
0.561685 0.907485 0.343648
0.609461 0.918273 0.352132
0.664607 0.928115 0.362158
0.725307 0.936004 0.374273
0.784222 0.943282 0.385901
0.837797 0.948547 0.391684
0.878691 0.948318 0.403708
0.912505 0.94786 0.412314
0.935073 0.945113 0.414267
0.941512 0.935927 0.416815
0.939727 0.922042 0.414984
0.937804 0.906859 0.414374
0.937972 0.900191 0.414145
0.93608 0.893843 0.414069
0.9346 0.88629 0.41352
0.932982 0.880934 0.413977
0.93196 0.875578 0.414572
0.931884 0.86923 0.414282
0.929961 0.866392 0.414008
0.930251 0.86479 0.41503
0.431266 0.877729 0.318898
0.436179 0.87895 0.319966
0.441672 0.880262 0.32108
0.446586 0.881422 0.322087
0.451774 0.882673 0.323156
0.456687 0.883833 0.324163
0.461891 0.885084 0.325216
0.467948 0.886519 0.326452
0.475837 0.888411 0.328069
0.486534 0.890959 0.330266
0.500679 0.894331 0.33315
0.519402 0.898695 0.336645
0.543313 0.904189 0.340902
0.574197 0.911284 0.34641
0.613062 0.920073 0.35407
0.6607 0.930648 0.363592
0.714641 0.940993 0.373587
0.770428 0.950744 0.382376
0.822766 0.958663 0.391302
0.866163 0.961929 0.402182
0.898253 0.961715 0.410071
0.928618 0.961089 0.415259
0.940337 0.955154 0.417609
0.940734 0.943984 0.416052
0.94023 0.928496 0.415702
0.939803 0.92314 0.414878
0.939574 0.917586 0.414649
0.939178 0.911955 0.414496
0.938323 0.906462 0.414328
0.937194 0.901473 0.41387
0.936751 0.896651 0.414328
0.935027 0.891691 0.414542
0.935592 0.889433 0.413718
0.482094 0.889235 0.329
0.485771 0.890166 0.329778
0.489738 0.891157 0.330602
0.493416 0.892088 0.33138
0.497108 0.893019 0.332143
0.500603 0.893904 0.332876
0.50428 0.894835 0.333639
0.508812 0.895979 0.334585
0.514763 0.897475 0.335836
0.522698 0.899489 0.337499
0.533455 0.90219 0.339742
0.547341 0.905699 0.342657
0.566018 0.91014 0.345739
0.589914 0.91574 0.349462
0.620768 0.922972 0.354269
0.658335 0.930037 0.362844
0.703746 0.938293 0.373205
0.753933 0.94757 0.381109
0.802472 0.955398 0.387701
0.848997 0.96141 0.398993
0.885298 0.965042 0.406699
0.916213 0.967651 0.413458
0.939941 0.968002 0.419303
0.941695 0.960937 0.418708
0.941131 0.949767 0.416876
0.940993 0.942016 0.417029
0.940337 0.937377 0.416464
0.940612 0.932158 0.416373
0.940459 0.927596 0.416098
0.939727 0.922911 0.41593
0.939269 0.918013 0.414572
0.938628 0.913909 0.414847
0.938338 0.910567 0.414572
0.530587 0.901274 0.337072
0.53344 0.90193 0.337621
0.536278 0.902571 0.338186
0.539132 0.903227 0.338735
0.541985 0.903883 0.3393
0.544549 0.904463 0.339803
0.547387 0.905119 0.340352
0.550805 0.905898 0.341024
0.555367 0.906935 0.341909
0.561349 0.908309 0.343084
0.569604 0.910185 0.344701
0.580423 0.912657 0.346807
0.594385 0.915846 0.349538
0.6121 0.920195 0.352636
0.635309 0.925933 0.35668
0.664485 0.933135 0.361746
0.699413 0.939544 0.368414
0.741238 0.946838 0.376333
0.788083 0.953964 0.384634
0.830594 0.958358 0.393469
0.869429 0.962905 0.402899
0.900694 0.966659 0.409064
0.927749 0.968307 0.414893
0.939696 0.969024 0.418112
0.940612 0.965011 0.419364
0.941848 0.95816 0.41767
0.940002 0.954162 0.418219
0.941207 0.949737 0.417472
0.940963 0.944884 0.417227
0.941131 0.941222 0.416709
0.9402 0.937011 0.417136
0.940551 0.932448 0.415824
0.94107 0.929763 0.416617
0.572717 0.910979 0.346807
0.574762 0.911437 0.347219
0.577096 0.911955 0.347692
0.579141 0.912428 0.348104
0.581186 0.912886 0.348516
0.58352 0.913405 0.348974
0.585565 0.913878 0.349386
0.58819 0.914458 0.34992
0.591684 0.915251 0.350622
0.596353 0.916304 0.351568
0.602487 0.917693 0.352804
0.610651 0.919539 0.354452
0.621744 0.922042 0.35668
0.635721 0.925155 0.359503
0.652689 0.928389 0.36289
0.674449 0.93254 0.367254
0.702358 0.937865 0.372824
0.734737 0.943969 0.377737
0.772854 0.950957 0.383749
0.813321 0.957641 0.390967
0.85153 0.962127 0.398947
0.884672 0.965377 0.405692
0.913207 0.967544 0.412207
0.933028 0.968917 0.416831
0.939742 0.969039 0.418143
0.941329 0.96849 0.419303
0.940856 0.966476 0.418799
0.940429 0.963546 0.418906
0.940795 0.961013 0.417594
0.940673 0.95697 0.416785
0.940688 0.953277 0.417151
0.940352 0.949538 0.417517
0.941436 0.945434 0.417319
0.610132 0.919905 0.35317
0.611734 0.920287 0.353445
0.613108 0.920607 0.353674
0.61471 0.920989 0.353948
