Luts/Fujifilm/FLog2C_to_ETERNA_VLog.cube
TITLE "Generated by Resolve"
LUT_3D_SIZE 9
0.00585946 0.00585946 0.00585946
0.0372778 0.00776684 0.0102541
0.31133 0.0319066 0.0470283
0.830427 0.148028 0.107866
0.943984 0.328389 0.270512
0.943984 0.328389 0.270512
0.943465 0.331533 0.267185
0.937026 0.425162 0.198062
0.928038 0.557839 0.065095
0.00480659 0.0240482 0.002533
0.0224918 0.00613413 0.00836194
0.233936 0.0237125 0.0357366
0.649622 0.0960098 0.0864271
0.940581 0.253071 0.190051
0.943984 0.328389 0.270512
0.94258 0.349554 0.255512
0.936278 0.434943 0.187686
0.927947 0.561929 0.064744
0.00555428 0.207919 9.15541e-05
0.00546273 0.154528 6.10361e-05
0.153582 0.124605 0.0059968
0.46717 0.130114 0.0519875
0.933059 0.225406 0.104448
0.94374 0.344793 0.257618
0.940917 0.373617 0.239719
0.935424 0.447135 0.175189
0.92784 0.566766 0.0643168
0.00810254 0.463737 0.000549325
0.00593576 0.354635 4.57771e-05
0.092546 0.316747 3.0518e-05
0.354513 0.291402 0.00822461
0.804059 0.337255 0.066453
0.935607 0.433616 0.177752
0.936706 0.433661 0.189563
0.932387 0.479973 0.139345
0.927535 0.580682 0.0631418
0.00920119 0.718837 0.000335698
0.00894179 0.688014 0.000244144
0.0234379 0.660105 0.000167849
0.299351 0.6215 0.000320439
0.692515 0.599603 0.0135805
0.92694 0.612222 0.0625772
0.927825 0.564858 0.0653086
0.927962 0.563378 0.0647135
0.926528 0.620386 0.0618601
0.0155337 0.956115 0.000381476
0.020325 0.949401 0.000381476
0.0461891 0.941161 1.5259e-05
0.279942 0.919799 1.5259e-05
0.621027 0.889784 1.5259e-05
0.927306 0.858701 0.0553292
0.926726 0.754177 0.0556497
0.92636 0.713344 0.057023
0.925002 0.712825 0.0563058
0.228016 0.999374 1.5259e-05
0.250797 0.999481 1.5259e-05
0.277562 0.999603 1.5259e-05
0.354467 0.999893 0
0.548333 0.999863 7.62951e-05
0.820203 0.999588 0.0347601
0.931044 0.948745 0.0544442
0.928206 0.894743 0.0543374
0.927749 0.85948 0.0533761
0.455436 0.999741 0.000106813
0.461479 0.999725 9.15541e-05
0.468238 0.999725 7.62951e-05
0.488945 0.999741 4.57771e-05
0.551339 0.999924 0.00015259
0.698665 0.999863 0.00236515
0.917311 0.999893 0.0746471
0.933547 0.999756 0.082887
0.932982 0.998474 0.0721447
0.729107 0.999573 0.00541695
0.73019 0.999573 0.00564584
0.731487 0.999557 0.0059205
0.735393 0.999542 0.00675975
0.747967 0.999481 0.00946059
0.784634 0.999664 0.0216526
0.875914 0.999298 0.0579995
0.932509 0.999634 0.0824445
0.932509 0.999634 0.0824445
0.00585946 0.00585946 0.00585946
0.020798 0.00602731 0.00823987
0.290593 0.0285344 0.0441901
0.801541 0.137194 0.102617
0.943984 0.328389 0.270512
0.943984 0.328389 0.270512
0.94345 0.331609 0.267002
0.937011 0.425238 0.197971
0.928038 0.557946 0.0650797
0.00654612 0.0263523 0.0307012
0.00653086 0.00610361 0.00611887
0.216434 0.0186923 0.033341
0.616388 0.0885481 0.0838788
0.938552 0.243397 0.169146
0.943984 0.328389 0.270512
0.942489 0.350362 0.255283
0.936263 0.435035 0.18761
0.927947 0.561929 0.064744
0.00958267 0.220188 0.0334783
0.00543221 0.163531 3.0518e-05
0.136873 0.133181 0.00198367
0.439704 0.133852 0.0467079
0.921248 0.222354 0.103883
0.94255 0.350072 0.25417
0.940703 0.373922 0.239338
0.935424 0.447135 0.175189
0.92784 0.566766 0.0643168
0.00721752 0.497887 0.000167849
0.00631724 0.370474 0.000335698
0.0650492 0.326757 0.000762951
0.331106 0.299931 0.00218204
0.779019 0.341283 0.0615854
0.934112 0.437293 0.153033
0.936965 0.434272 0.188357
0.932387 0.479973 0.139345
0.927535 0.580682 0.0631418
0.00915541 0.735164 0.000381476
0.00862135 0.702419 0.000427253
0.0111238 0.676097 0.0009308
0.271138 0.634928 9.15541e-05
0.668894 0.61091 0.00917067
0.926284 0.624491 0.0615702
0.927489 0.566552 0.0649882
0.927962 0.563378 0.0647135
0.926528 0.620386 0.0618601
0.0186618 0.966598 0.000396735
0.0204166 0.960052 0.000335698
0.0327001 0.952438 0.000396735
0.230671 0.933288 0.000320439
0.590082 0.899794 0.000228885
0.918959 0.867643 0.0542153
0.926497 0.759426 0.0559548
0.926375 0.713451 0.057023
0.925002 0.712825 0.0563058
0.140917 0.999695 0.000411994
0.165835 0.999695 0.000366217
0.195758 0.99968 0.000335698
0.277501 0.99968 0.000198367
0.478065 0.999542 6.10361e-05
0.783368 0.999512 0.0227512
0.931243 0.959472 0.0572366
0.928206 0.894743 0.0543374
0.927749 0.85948 0.0533761
0.410941 0.999374 0
0.416602 0.999405 0
0.422934 0.999451 0
0.442267 0.999542 0
0.500618 0.999756 1.5259e-05
0.649851 0.999817 0.000518807
0.887205 0.999832 0.0639811
0.933043 0.999695 0.0826734
0.932982 0.998474 0.0721447
0.721889 0.999588 0.00454719
0.722988 0.999588 0.00474556
0.724315 0.999588 0.0049897
0.728283 0.999588 0.00569162
0.74107 0.999573 0.00799573
0.77818 0.99968 0.0194247
0.868574 0.99942 0.0555734
0.932509 0.999634 0.0824445
0.932509 0.999634 0.0824445
0.0110475 0.0047303 0.127657
0.00987259 0.00453193 0.0974899
0.26453 0.0221714 0.0578317
0.756481 0.124071 0.0967422
0.944213 0.326329 0.268757
0.943984 0.328389 0.270512
0.943771 0.339055 0.261738
0.936355 0.434516 0.189944
0.928038 0.557946 0.0650797
0.0150454 0.0180514 0.178622
0.0115511 0.0037232 0.136278
0.203647 0.00633249 0.118288
0.578851 0.0770123 0.10837
0.937285 0.224643 0.132189
0.943984 0.328389 0.270512
0.941588 0.362264 0.246799
0.935821 0.444877 0.180011
0.927947 0.561929 0.064744
0.0211032 0.236912 0.230961
0.0153201 0.172351 0.159472
0.135393 0.136828 0.135714
0.423072 0.134112 0.139254
0.891127 0.217456 0.141741
0.941848 0.358877 0.24918
0.940764 0.386603 0.228946
0.934829 0.457359 0.168536
0.92784 0.566766 0.0643168
0.0257267 0.544045 0.229816
0.0190738 0.407202 0.144976
0.0366522 0.352895 0.113115
0.324651 0.316487 0.11191
0.755917 0.346532 0.106935
0.93637 0.445655 0.193423
0.934997 0.45185 0.17171
0.932387 0.491051 0.118624
0.927535 0.580682 0.0631418
0.0181888 0.768673 0.0280308
0.0154116 0.737163 0.0108949
0.0139467 0.71191 0.0052491
0.244892 0.667903 0.00296025
0.644938 0.62977 0.00178531
0.926406 0.642985 0.0600748
0.927184 0.588632 0.065095
0.927642 0.576104 0.0638437
0.926528 0.620386 0.0618601
0.0189059 0.979797 0.000381476
0.018204 0.974456 0.000198367
0.0194247 0.967819 0.000274662
0.161746 0.949111 0.000717174
0.54522 0.912902 0.000808728
0.895033 0.878096 0.0471504
0.927275 0.774929 0.054612
0.925475 0.729229 0.0563973
0.925002 0.712825 0.0563058
0.0428016 0.999573 0.00062562
0.0762188 0.999649 0.000686656
0.116732 0.999725 0.00077821
0.219043 0.999786 0.00077821
0.425681 0.999359 0.000610361
0.749279 0.999374 0.0122835
0.931182 0.976532 0.0554818
0.929549 0.90988 0.0544289
0.927749 0.85948 0.0533761
0.387259 0.999817 0.000106813
0.392844 0.999771 0.000122072
0.399817 0.999725 0.000137331
0.420111 0.999588 0.000167849
0.47985 0.999512 0.00030518
0.622766 0.999817 0.000183108
0.865415 0.999466 0.053727
0.932509 0.999634 0.0824445
0.932982 0.998474 0.0721447
0.713024 0.999817 0.00430304
0.714107 0.999832 0.00448615
0.715419 0.999832 0.0047303
0.719356 0.999847 0.00541695
0.732052 0.999908 0.00766003
0.76907 0.999802 0.0177768
0.861158 0.999283 0.0532845
0.932509 0.999634 0.0824445
0.932509 0.999634 0.0824445
0.0187991 0.0031281 0.266651
0.017258 0.00288396 0.234318
0.261311 0.00248722 0.207736
0.73196 0.0975052 0.228794
0.943862 0.32047 0.279149
0.945891 0.33109 0.30312
0.945861 0.355764 0.321874
0.939116 0.458488 0.262028
0.927367 0.584787 0.0626993
0.0248875 0.00314336 0.350515
0.0204929 0.002533 0.292058
0.200122 0.000411994 0.253971
0.566125 0.0320439 0.278843
0.94699 0.190372 0.32047
0.947295 0.340307 0.361074
0.945266 0.380652 0.329473
0.938994 0.469413 0.26096
0.927169 0.588922 0.0625315
0.0363165 0.25156 0.49482
0.0286717 0.18201 0.372305
0.135561 0.138857 0.304936
0.42562 0.129931 0.300557
0.881285 0.197665 0.352514
0.947036 0.383902 0.38613
0.943938 0.408164 0.335698
0.939208 0.481498 0.259327
0.926925 0.593881 0.0623484
0.0443885 0.585489 0.555962
0.0349584 0.450004 0.424109
0.0339361 0.385122 0.356832
0.333211 0.333242 0.333074
0.756725 0.347173 0.34992
0.944503 0.456199 0.380484
0.942885 0.472618 0.342855
0.937911 0.515541 0.255253
0.926268 0.607919 0.0618143
0.0423743 0.785245 0.419181
0.0389563 0.757153 0.385092
0.0358282 0.732723 0.354986
0.238468 0.688869 0.329625
0.648371 0.643137 0.327474
0.939452 0.646693 0.320119
0.941085 0.601328 0.337499
0.935866 0.598398 0.238132
0.926055 0.647883 0.0596933
0.0442359 0.968704 0.176028
0.0430915 0.964599 0.167712
0.0409705 0.960266 0.156756
0.0840162 0.947982 0.142245
0.512215 0.917327 0.178225
0.875013 0.87985 0.179843
0.937835 0.780835 0.260716
0.930343 0.745525 0.141527
0.926543 0.739361 0.055787
0.027863 0.999847 0.000198367
0.0546426 0.999863 0.000228885
0.0869764 0.999878 0.000274662
0.171725 0.999847 0.000274662
0.364508 0.999878 0.000350958
0.703548 1 0.00202945
0.93138 0.982483 0.0601053
0.930236 0.918517 0.0561379
0.928512 0.883162 0.0536507
0.36286 0.999374 0.000106813
0.368124 0.99939 0.000106813
0.374731 0.999405 0.000106813
0.393851 0.999435 0.000122072
0.45153 0.999435 0.000198367
0.594797 0.999847 0.000320439
0.836912 0.999954 0.0436713
0.932509 0.999634 0.0824445
0.933089 0.999649 0.079469
0.696757 0.999908 0.0027924
0.697856 0.999908 0.00289921
0.699184 0.999908 0.00300603
0.70312 0.999893 0.0033875
0.715846 0.999847 0.00463874
0.753445 0.999847 0.0132448
0.844633 0.99971 0.0471656
0.932509 0.999634 0.0824445
0.932509 0.999634 0.0824445
0.0329137 0.00437934 0.514138
0.0321508 0.0040589 0.489006
0.247181 1.5259e-05 0.378897
0.718257 0.0424506 0.40795
0.951461 0.311269 0.409735
0.95024 0.341634 0.443992
0.952316 0.376669 0.472465
0.948486 0.4869 0.466835
0.94284 0.607217 0.382956
0.0401465 0.0100252 0.652796
0.0379644 0.00701915 0.593835
0.194705 0.000961318 0.478645
0.554314 0.000213626 0.476539
0.956329 0.132342 0.54728
0.954406 0.333761 0.496605
0.951431 0.406531 0.489723
0.948333 0.496681 0.469627
0.942855 0.610895 0.382422
0.0529335 0.253193 0.794308
0.0473182 0.191165 0.702388
0.129793 0.130922 0.585489
0.441901 0.110597 0.547127
0.876143 0.171191 0.588113
0.953429 0.382727 0.531243
0.951537 0.436866 0.505913
0.94844 0.508217 0.471962
0.94287 0.615305 0.381857
0.0600748 0.610925 0.833097
0.0538643 0.487846 0.730892
0.0479744 0.418219 0.667247
0.349279 0.352667 0.633219
0.764202 0.342977 0.624811
0.955093 0.454765 0.584253
0.951186 0.503731 0.536751
0.948257 0.539788 0.47866
0.942931 0.628016 0.379919
0.0663157 0.787976 0.722011
0.0611429 0.764538 0.698558
0.0566567 0.742748 0.675273
0.22562 0.699962 0.653452
0.650401 0.650889 0.650462
0.955978 0.641962 0.622675
0.952193 0.618524 0.564996
0.948287 0.61474 0.488411
0.942748 0.665156 0.373846
0.0732586 0.940749 0.591928
0.0722972 0.936965 0.585626
0.0722057 0.932906 0.57969
0.0755474 0.92256 0.563287
0.477607 0.898146 0.587579
0.864622 0.86392 0.582284
0.955581 0.781888 0.556603
0.949508 0.746563 0.475639
0.941649 0.749294 0.342916
0.0601511 0.999817 0.343465
0.0762188 0.999619 0.345159
0.095613 0.99939 0.347204
0.155779 0.998764 0.354147
0.350576 0.997955 0.378927
0.67248 0.999985 0.373495
0.948913 0.978317 0.338247
0.947036 0.91194 0.340871
0.937972 0.886015 0.207034
0.394659 0.999512 0.261463
0.398596 0.999527 0.259861
0.40351 0.999557 0.257847
0.417746 0.999649 0.251713
0.462638 0.99968 0.232227
0.582895 0.999786 0.175937
0.798566 0.999435 0.0433204
0.932509 0.999634 0.0824445
0.932921 0.999649 0.0812543
0.704768 0.999771 0.430701
0.705745 0.999756 0.430213
0.70692 0.999756 0.429389
0.71046 0.999741 0.427649
0.721813 0.99968 0.421302
0.756069 0.999634 0.402182
0.840284 0.999771 0.341039
0.939834 0.999802 0.149477
0.932509 0.999634 0.0824445
0.0497139 0.0248569 0.816205
0.0497139 0.0248569 0.816205
0.178698 0.00784314 0.681178
0.699397 6.10361e-05 0.651835
0.963455 0.223743 0.599878
0.960296 0.297108 0.601709
0.960433 0.350698 0.625223
0.955627 0.491035 0.631083
0.955718 0.62887 0.627604
0.0594949 0.0480964 0.961242
0.0594644 0.0489204 0.965576
0.0868849 0.0236667 0.819486
0.539849 0.000167849 0.776928
0.953445 0.00062562 0.822126
0.963287 0.302617 0.660304
0.958846 0.379614 0.639323
0.955825 0.50248 0.636027
0.955871 0.632059 0.628275
0.0639963 0.196216 0.996139
0.0643473 0.191165 0.997345
0.0581674 0.0996109 0.905882
0.449424 0.0640574 0.851987
0.870069 0.12282 0.850431
0.964858 0.325414 0.708751
0.958358 0.410941 0.655177
0.956512 0.51548 0.641962
0.956054 0.635904 0.629099
0.0652323 0.545968 0.937087
0.0655985 0.499382 0.945663
0.0642405 0.425574 0.930068
0.340887 0.350637 0.901457
0.7664 0.323217 0.885191
0.966018 0.407385 0.797681
0.959304 0.48397 0.683085
0.957336 0.549996 0.654032
0.956573 0.64683 0.631388
0.0761883 0.752163 0.894362
0.0731518 0.736187 0.897368
0.0712596 0.719356 0.891875
0.177691 0.688258 0.878508
0.632746 0.64242 0.886336
0.964645 0.615854 0.861921
0.961425 0.620584 0.726528
0.959442 0.632273 0.683909
0.957443 0.677989 0.63714
0.0862135 0.901701 0.817823
0.0864118 0.897581 0.814847
0.0846113 0.894194 0.809293
0.0825055 0.88603 0.798138
0.414008 0.865873 0.818921
0.834363 0.835019 0.834272
0.968399 0.782895 0.77406
0.963958 0.749737 0.711971
0.959686 0.750622 0.641199
0.0865797 0.986175 0.667765
0.0866255 0.986175 0.66659
0.086717 0.986038 0.665095
0.0867933 0.985824 0.66096
0.23917 0.987106 0.676692
0.621103 0.987305 0.714611
0.955993 0.959213 0.712428
0.968627 0.89839 0.67921
0.961807 0.873732 0.60293
0.373388 0.988983 0.641108
0.378576 0.989044 0.641093
0.385061 0.98912 0.641077
0.403922 0.989349 0.640894
0.461021 0.99057 0.641184
0.602686 0.993622 0.644907
0.799542 0.999817 0.599573
0.963241 0.999863 0.502876
0.955825 0.999832 0.393408
0.705226 0.993988 0.747189
0.70634 0.994018 0.747219
0.707668 0.994049 0.747265
0.71165 0.994141 0.747387
0.724498 0.994415 0.747646
0.758938 0.995773 0.746212
0.8392 0.99884 0.728557
0.970871 0.999695 0.650706
0.96112 0.99968 0.469657
0.0625315 0.0716869 1
0.0625315 0.0716869 1
0.0625315 0.0716869 1
0.516915 0.0184482 0.969833
0.980697 6.10361e-05 0.992111
0.973846 0.20235 0.819913
0.968551 0.303822 0.799893
0.964538 0.449668 0.786267
0.964981 0.611063 0.773861
0.0629282 0.0700084 0.999268
0.0629282 0.0700084 0.999268
0.0629282 0.0700084 0.999268
0.368215 0.0534066 0.999619
0.88896 0.00015259 0.999298
0.976196 0.211719 0.883009
0.968521 0.330877 0.81178
0.96437 0.461295 0.788998
0.964935 0.614984 0.774594
0.0898146 0.0704051 0.999893
0.090486 0.0704662 0.999878
0.0910201 0.0705119 0.999863
0.308736 0.066743 0.999924
0.829084 0.0102693 0.99968
0.977935 0.228382 0.940154
0.968505 0.359915 0.821744
0.96437 0.474601 0.792218
0.964874 0.61973 0.775494
0.0977951 0.337713 0.976455
0.0974441 0.338735 0.976242
0.0883192 0.325048 0.976776
0.227756 0.277775 0.999832
0.728786 0.257145 0.999725
0.979767 0.318669 0.999878
0.967971 0.43473 0.839399
0.965652 0.510918 0.801099
0.964706 0.633539 0.778088
0.0714427 0.71162 0.903563
0.0662547 0.628199 0.923827
0.0663615 0.611933 0.925124
0.108125 0.592248 0.935988
0.55198 0.573953 0.991852
0.937621 0.550958 0.99942
0.969558 0.573999 0.865782
0.966415 0.595773 0.819394
0.96643 0.669184 0.788296
0.0813306 0.827649 0.88069
0.0806592 0.825116 0.880598
0.081117 0.821851 0.880659
0.0812695 0.814374 0.881941
0.353857 0.80209 0.920256
0.775418 0.783658 0.986297
0.976547 0.750729 0.922927
0.972244 0.733074 0.847105
0.970062 0.748547 0.807538
0.100328 0.969329 0.853864
0.100435 0.968627 0.853819
0.10045 0.967742 0.853925
0.099855 0.965469 0.855238
0.113252 0.960113 0.856046
0.543572 0.947951 0.903548
0.923125 0.92459 0.922957
0.980468 0.883558 0.874266
0.975723 0.86273 0.825315
0.24329 0.98056 0.846845
0.249775 0.980606 0.847044
0.25742 0.980652 0.847288
0.279957 0.980804 0.84799
0.347402 0.981506 0.849561
0.514092 0.985351 0.853284
0.781826 0.993515 0.852079
0.984451 0.999832 0.817746
0.979858 0.9953 0.764645
0.627817 0.986175 0.921889
0.629191 0.986221 0.92195
0.630854 0.986282 0.922011
0.635828 0.986435 0.922194
0.651911 0.986938 0.922759
0.698772 0.988678 0.923705
0.809079 0.992874 0.922591
0.971542 0.999817 0.906767
0.984619 0.999466 0.822065
0.0629282 0.0700084 0.999268
0.0629282 0.0700084 0.999268
0.0629282 0.0700084 0.999268
0.0634165 0.0699779 0.999283
0.649897 0.0539864 0.999786
0.990555 0.000320439 0.998703
0.98027 0.231556 0.990646
0.974868 0.374502 0.954314
0.97145 0.553368 0.918868
0.0863203 0.0711528 0.999969
0.0870069 0.0711376 0.999969
0.0878614 0.0711223 0.999969
0.0903334 0.0710613 0.999985
0.586374 0.0585641 0.999756
0.99089 0.004654 0.998642
0.980011 0.254017 0.994781
0.974578 0.386038 0.955749
0.971511 0.557443 0.919615
0.138613 0.163485 1
0.139742 0.167071 1
0.141131 0.171435 1
0.141329 0.181186 0.999786
0.533318 0.0615396 0.999741
0.991958 0.0439918 0.999252
0.979767 0.279576 0.998489
0.973999 0.399466 0.957122
0.971588 0.56231 0.920516
0.0645609 0.47303 0.948638
0.0645609 0.473823 0.948501
0.0645609 0.475395 0.948241
0.0645304 0.480125 0.947417
0.448539 0.0889448 0.999695
0.955123 0.1906 0.999756
0.97734 0.344274 0.999207
0.974075 0.43508 0.961608
0.971771 0.576196 0.922728
0.0799115 0.80029 0.885679
0.079942 0.80058 0.885618
0.0799725 0.80087 0.885557
0.0673533 0.641245 0.919707
0.372808 0.408225 0.999664
0.814328 0.437171 0.999756
0.977646 0.487541 0.999634
0.974136 0.524407 0.970779
0.972702 0.61445 0.927459
0.0885786 0.889265 0.868788
0.0877699 0.865995 0.872374
0.0847639 0.844846 0.876799
0.07953 0.801175 0.885328
0.274784 0.726909 0.925063
0.676616 0.687297 0.986252
0.978347 0.686656 0.999786
0.977493 0.675715 0.985031
0.975341 0.701961 0.938903
0.100313 0.967773 0.853681
0.100206 0.966018 0.853819
0.100069 0.963882 0.854002
0.0974899 0.957794 0.856596
0.107759 0.939513 0.860883
0.508873 0.902464 0.92575
0.861967 0.869917 0.986374
0.985702 0.846036 0.994278
0.982269 0.833295 0.953811
0.118013 0.979583 0.855146
0.119478 0.979568 0.855344
0.121294 0.979553 0.855589
0.149584 0.979583 0.859846
0.243198 0.979736 0.873945
0.41651 0.981826 0.899275
0.718547 0.989029 0.948486
0.990936 0.996048 0.993896
0.993072 0.976989 0.962448
0.573754 0.984878 0.923735
0.575174 0.984894 0.92398
0.576883 0.984924 0.924254
0.58201 0.984985 0.925124
0.5991 0.985183 0.927993
0.647898 0.986313 0.935897
0.762524 0.990341 0.955703
0.945632 0.997681 0.987396
0.999344 0.999954 0.998596
0.0653697 0.504631 0.943816
0.0653849 0.505852 0.943618
0.0654154 0.507332 0.943374
0.0654917 0.511513 0.942657
0.0657511 0.525795 0.940261
0.722805 0.0465553 0.999603
0.991974 0.102098 0.999603
0.985077 0.247333 0.999893
0.97911 0.441093 0.999603
0.0663005 0.556832 0.935058
0.066331 0.558053 0.934844
0.0663462 0.559243 0.934646
0.066331 0.562875 0.933989
0.0663157 0.574411 0.931899
0.710369 0.0473793 0.999496
0.99115 0.122057 0.999634
0.985 0.256687 0.999924
0.978973 0.445197 0.999634
0.0662699 0.609018 0.925628
0.0662699 0.609918 0.92546
0.0662699 0.611048 0.925261
0.0662547 0.614221 0.924681
0.066453 0.623697 0.922972
0.698344 0.0491798 0.999573
0.990433 0.143099 0.999664
0.984924 0.267689 0.999969
0.978821 0.450187 0.99968
0.0710613 0.716609 0.901045
0.071107 0.71693 0.900984
0.0712139 0.717586 0.900862
0.071458 0.719203 0.900572
0.0722515 0.724559 0.899611
0.667323 0.104479 0.999756
0.98761 0.194003 0.999664
0.983459 0.298878 0.999847
0.978363 0.464515 0.999802
0.0873884 0.879942 0.869474
0.0874037 0.880064 0.869459
0.0874342 0.880308 0.869429
0.0875105 0.880949 0.869337
0.0877699 0.883223 0.869001
0.59733 0.419089 0.99971
0.979324 0.344549 0.999512
0.979416 0.387335 0.999619
0.978714 0.506279 0.999802
0.0997177 0.979767 0.852705
0.0997177 0.979767 0.852705
0.0997177 0.979767 0.852705
0.0997177 0.979767 0.852705
0.08748 0.881407 0.869703
0.517632 0.717021 0.959747
0.901106 0.64744 0.999374
0.977859 0.576349 0.99942
0.978164 0.605142 0.999481
0.0997177 0.979767 0.852705
0.0997177 0.979767 0.852705
0.0997177 0.979767 0.852705
0.0997177 0.979767 0.852705
0.10016 0.977356 0.85304
0.307927 0.935515 0.890486
0.805112 0.880171 0.977493
0.984955 0.824781 0.999298
0.983413 0.77435 0.999359
0.0997177 0.979767 0.852705
0.0997177 0.979767 0.852705
0.0997177 0.979767 0.852705
0.0997177 0.979767 0.852705
0.0997177 0.979767 0.852705
0.30338 0.980102 0.882383
0.655894 0.98706 0.938262
0.967224 0.998047 0.991073
0.994217 0.968536 0.998566
0.501488 0.983474 0.911879
0.503105 0.983505 0.912123
0.505241 0.983536 0.912505
0.511009 0.983642 0.913527
0.52987 0.983993 0.916854
0.586557 0.985138 0.926696
0.717128 0.988708 0.947234
0.91754 0.996124 0.982483
1 1 1
