Luts/Fujifilm/FLog2C_to_ETERNA_VLog.cube
TITLE "Generated by Resolve"
LUT_3D_SIZE 5
0.00585946 0.00585946 0.00585946
0.31133 0.0319066 0.0470283
0.943984 0.328389 0.270512
0.943465 0.331533 0.267185
0.928038 0.557839 0.065095
0.00555428 0.207919 9.15541e-05
0.153582 0.124605 0.0059968
0.933059 0.225406 0.104448
0.940917 0.373617 0.239719
0.92784 0.566766 0.0643168
0.00920119 0.718837 0.000335698
0.0234379 0.660105 0.000167849
0.692515 0.599603 0.0135805
0.927825 0.564858 0.0653086
0.926528 0.620386 0.0618601
0.228016 0.999374 1.5259e-05
0.277562 0.999603 1.5259e-05
0.548333 0.999863 7.62951e-05
0.931044 0.948745 0.0544442
0.927749 0.85948 0.0533761
0.729107 0.999573 0.00541695
0.731487 0.999557 0.0059205
0.747967 0.999481 0.00946059
0.875914 0.999298 0.0579995
0.932509 0.999634 0.0824445
0.0110475 0.0047303 0.127657
0.26453 0.0221714 0.0578317
0.944213 0.326329 0.268757
0.943771 0.339055 0.261738
0.928038 0.557946 0.0650797
0.0211032 0.236912 0.230961
0.135393 0.136828 0.135714
0.891127 0.217456 0.141741
0.940764 0.386603 0.228946
0.92784 0.566766 0.0643168
0.0181888 0.768673 0.0280308
0.0139467 0.71191 0.0052491
0.644938 0.62977 0.00178531
0.927184 0.588632 0.065095
0.926528 0.620386 0.0618601
0.0428016 0.999573 0.00062562
0.116732 0.999725 0.00077821
0.425681 0.999359 0.000610361
0.931182 0.976532 0.0554818
0.927749 0.85948 0.0533761
0.713024 0.999817 0.00430304
0.715419 0.999832 0.0047303
0.732052 0.999908 0.00766003
0.861158 0.999283 0.0532845
0.932509 0.999634 0.0824445
0.0329137 0.00437934 0.514138
0.247181 1.5259e-05 0.378897
0.951461 0.311269 0.409735
0.952316 0.376669 0.472465
0.94284 0.607217 0.382956
0.0529335 0.253193 0.794308
0.129793 0.130922 0.585489
0.876143 0.171191 0.588113
0.951537 0.436866 0.505913
0.94287 0.615305 0.381857
0.0663157 0.787976 0.722011
0.0566567 0.742748 0.675273
0.650401 0.650889 0.650462
0.952193 0.618524 0.564996
0.942748 0.665156 0.373846
0.0601511 0.999817 0.343465
0.095613 0.99939 0.347204
0.350576 0.997955 0.378927
0.948913 0.978317 0.338247
0.937972 0.886015 0.207034
0.704768 0.999771 0.430701
0.70692 0.999756 0.429389
0.721813 0.99968 0.421302
0.840284 0.999771 0.341039
0.932509 0.999634 0.0824445
0.0625315 0.0716869 1
0.0625315 0.0716869 1
0.980697 6.10361e-05 0.992111
0.968551 0.303822 0.799893
0.964981 0.611063 0.773861
0.0898146 0.0704051 0.999893
0.0910201 0.0705119 0.999863
0.829084 0.0102693 0.99968
0.968505 0.359915 0.821744
0.964874 0.61973 0.775494
0.0714427 0.71162 0.903563
0.0663615 0.611933 0.925124
0.55198 0.573953 0.991852
0.969558 0.573999 0.865782
0.96643 0.669184 0.788296
0.100328 0.969329 0.853864
0.10045 0.967742 0.853925
0.113252 0.960113 0.856046
0.923125 0.92459 0.922957
0.975723 0.86273 0.825315
0.627817 0.986175 0.921889
0.630854 0.986282 0.922011
0.651911 0.986938 0.922759
0.809079 0.992874 0.922591
0.984619 0.999466 0.822065
0.0653697 0.504631 0.943816
0.0654154 0.507332 0.943374
0.0657511 0.525795 0.940261
0.991974 0.102098 0.999603
0.97911 0.441093 0.999603
0.0662699 0.609018 0.925628
0.0662699 0.611048 0.925261
0.066453 0.623697 0.922972
0.990433 0.143099 0.999664
0.978821 0.450187 0.99968
0.0873884 0.879942 0.869474
0.0874342 0.880308 0.869429
0.0877699 0.883223 0.869001
0.979324 0.344549 0.999512
0.978714 0.506279 0.999802
0.0997177 0.979767 0.852705
0.0997177 0.979767 0.852705
0.10016 0.977356 0.85304
0.805112 0.880171 0.977493
0.983413 0.77435 0.999359
0.501488 0.983474 0.911879
0.505241 0.983536 0.912505
0.52987 0.983993 0.916854
0.717128 0.988708 0.947234
1 1 1
