Luts/Fujifilm/FLog2C_to_PROVIA_VLog.cube
TITLE "Generated by Resolve"
LUT_3D_SIZE 33
0 0 0
0 0 0
0 0 0
0 0 0
0.0204929 0.00183108 0.000656138
0.0830549 0.00360113 0.00975052
0.146609 0.00846876 0.0114443
0.243809 0.00830091 0.0249485
0.36141 0.0125887 0.0408179
0.508125 0.0153964 0.0622568
0.675486 0.0209201 0.0981308
0.841718 0.0264897 0.15816
0.986053 0.0437781 0.259068
0.999146 0.0746319 0.37966
1 0.134417 0.450599
0.999588 0.226551 0.471366
1 0.25713 0.480659
1 0.25713 0.480659
1 0.25713 0.480659
1 0.25713 0.480659
1 0.25713 0.480659
1 0.25713 0.480659
1 0.25713 0.480659
1 0.25713 0.480659
0.999557 0.261616 0.476829
0.999863 0.284062 0.4598
0.999664 0.313741 0.43267
1 0.344732 0.404837
0.99942 0.378515 0.373953
0.999405 0.416388 0.338338
0.999344 0.455802 0.298695
0.999054 0.499718 0.247074
0.999191 0.543175 0.193713
0 0 0
0 0 0
0 0 0
0 0 0
0.0287022 0.00302129 0.000610361
0.0951095 0.00422675 0.0108186
0.160052 0.00901808 0.0124208
0.256657 0.00849927 0.0260624
0.373404 0.0129244 0.0422217
0.519387 0.0153658 0.0641337
0.683879 0.0213474 0.100053
0.84712 0.0269017 0.160525
0.988357 0.044007 0.261158
0.9991 0.0755779 0.382849
1 0.135729 0.450996
0.999588 0.227741 0.471626
1 0.257038 0.480644
1 0.25713 0.480659
1 0.25713 0.480659
1 0.25713 0.480659
1 0.25713 0.480659
1 0.25713 0.480659
1 0.25713 0.480659
1 0.25713 0.480659
0.999481 0.265827 0.473045
0.999817 0.290425 0.453925
0.999542 0.318318 0.428443
1 0.348531 0.401694
0.999542 0.381613 0.371191
0.999435 0.418875 0.335897
0.999298 0.457771 0.296696
0.999039 0.501228 0.245274
0.999222 0.544427 0.191882
0 0 0
0 0 0
0 0 0
0 0 0
0.037995 0.00376898 0.00138857
0.10721 0.0049897 0.0116274
0.17586 0.00856031 0.0156405
0.268101 0.00923171 0.027924
0.380194 0.0130007 0.0428779
0.520455 0.0153811 0.06392
0.675105 0.0200656 0.0988937
0.83061 0.0252995 0.152911
0.972686 0.0410468 0.241047
0.999237 0.0670634 0.34818
1 0.106172 0.442069
0.999756 0.169955 0.458549
0.999985 0.243091 0.477134
1 0.256931 0.480674
1 0.25713 0.480659
1 0.25713 0.480659
1 0.25713 0.480659
1 0.25713 0.480659
1 0.25713 0.480659
1 0.25713 0.480659
0.999573 0.271321 0.46804
0.999771 0.2963 0.448493
0.999405 0.322667 0.424414
1 0.352209 0.398657
0.999664 0.38471 0.368444
0.999466 0.421454 0.333364
0.999268 0.45977 0.294621
0.999069 0.502785 0.243397
0.999252 0.545678 0.190051
0 0 0
0 0 0
0 0 0
0 0 0
0.0232853 0.00134279 0.000762951
0.0725261 0.00408942 0.00607309
0.134112 0.00488289 0.012604
0.210925 0.00849927 0.0227512
0.311421 0.0124514 0.0344396
0.435599 0.0125734 0.0514839
0.577295 0.0174563 0.0730297
0.736187 0.0202945 0.112749
0.88069 0.0290379 0.177935
0.994781 0.0472877 0.27396
0.999939 0.0753643 0.381613
0.999939 0.120516 0.448859
0.999619 0.185657 0.462181
0.999969 0.251133 0.479667
1 0.25713 0.480659
1 0.25713 0.480659
1 0.25713 0.480659
1 0.25713 0.480659
1 0.25713 0.480659
0.999893 0.259785 0.478279
0.999649 0.277012 0.462943
0.999725 0.302007 0.443229
0.999313 0.32697 0.420508
0.999969 0.355978 0.395468
0.999756 0.387778 0.365621
0.999496 0.424002 0.330755
0.999313 0.461967 0.292027
0.9991 0.504326 0.241489
0.999268 0.546929 0.18822
0.000732433 0.0125124 0.00030518
0.000808728 0.0133822 0.000320439
0.000579843 0.012726 0.000213626
0.000381476 0.00512703 7.62951e-05
0.0112306 0.000961318 7.62951e-05
0.0534676 0.00384527 0.00294499
0.096788 0.00573739 0.00909438
0.165057 0.00703441 0.0166629
0.254871 0.0103151 0.0260166
0.361501 0.0128939 0.0390021
0.489525 0.0156252 0.0599222
0.634333 0.0172122 0.0869764
0.789425 0.0219425 0.134463
0.927123 0.0352483 0.211551
0.998672 0.05449 0.30782
0.999252 0.088777 0.417426
0.999985 0.143633 0.454032
0.999664 0.215915 0.47155
1 0.257023 0.480629
1 0.25713 0.480659
1 0.25713 0.480659
1 0.25713 0.480659
0.999954 0.257527 0.480308
0.999634 0.265919 0.47277
0.999771 0.284581 0.456443
0.999588 0.306905 0.43888
0.99942 0.331518 0.416968
0.999847 0.359976 0.391745
0.999786 0.390951 0.362509
0.999527 0.42649 0.328145
0.999344 0.464042 0.28957
0.999146 0.506004 0.239445
0.999298 0.548135 0.186435
0.000137331 0.0480964 0
0.00015259 0.0489204 0
0.000213626 0.0400854 1.5259e-05
0.000183108 0.0294041 0.000549325
0.00254826 0.0194705 0.000549325
0.0326848 0.0148013 0.000366217
0.0754711 0.0113527 0.0019379
0.12726 0.00834669 0.00967422
0.20528 0.00996414 0.0204471
0.302419 0.0119783 0.0317998
0.417273 0.0139315 0.0493324
0.558114 0.0171664 0.0691844
0.711467 0.0203403 0.105501
0.860014 0.0275425 0.166979
0.991394 0.0448615 0.257877
0.999283 0.0704204 0.368856
0.999847 0.115145 0.446784
1 0.184909 0.462852
1 0.25713 0.480659
1 0.25713 0.480659
1 0.25713 0.480659
1 0.257679 0.479789
0.999603 0.261295 0.477134
0.999603 0.272694 0.466606
0.999878 0.291432 0.450523
0.999451 0.311528 0.434791
0.999527 0.335973 0.413474
0.999725 0.363882 0.388113
0.999817 0.394034 0.359487
0.999542 0.429084 0.325414
0.999374 0.466239 0.286961
0.999176 0.507515 0.237613
0.999313 0.549249 0.184787
0.00131228 0.0822003 0.00106813
0.00132753 0.0830396 0.00103761
0.00117494 0.0715343 0.00015259
0.00108339 0.0555886 0.000167849
0.00103761 0.0447089 0.000167849
0.0101778 0.0381476 0.00015259
0.0510262 0.0343633 0
0.0988479 0.0312963 0.000289921
0.171038 0.028748 0.00471504
0.261814 0.0259709 0.0168154
0.371115 0.0229343 0.0358892
0.503563 0.0214237 0.0568704
0.653513 0.0190127 0.0911116
0.809476 0.0240482 0.142718
0.945998 0.0381781 0.223117
0.999527 0.0605173 0.329992
0.999878 0.0986954 0.436866
0.999039 0.164736 0.455985
0.999802 0.242588 0.476921
1 0.25713 0.480659
1 0.25713 0.480659
1 0.259312 0.477226
0.999481 0.267247 0.472251
0.999832 0.281071 0.4589
0.999924 0.298039 0.445258
0.999329 0.316243 0.43061
0.999634 0.340352 0.410056
0.999619 0.367788 0.384482
0.999847 0.397101 0.356466
0.999573 0.431571 0.322805
0.99942 0.468284 0.28455
0.999207 0.509071 0.235706
0.999344 0.5505 0.182956
0.00164797 0.123751 3.0518e-05
0.00164797 0.124865 1.5259e-05
0.0011902 0.110063 9.15541e-05
0.00199893 0.090959 0.000640879
0.000717174 0.0742657 1.5259e-05
0.00320439 0.0644846 0.000534066
0.0294041 0.0600137 0.000595102
0.0779736 0.0546883 0.000549325
0.139361 0.0522469 1.5259e-05
0.227695 0.0510567 0.00077821
0.333364 0.0467384 0.0115663
0.458564 0.0451209 0.0309758
0.605875 0.0404212 0.0639048
0.76109 0.0395819 0.108156
0.905013 0.0468452 0.182605
0.999908 0.0592355 0.286549
0.999924 0.0901808 0.402441
0.999634 0.146395 0.448478
0.999069 0.222507 0.470115
0.999283 0.263172 0.475135
0.999924 0.263401 0.475227
0.999252 0.268681 0.469932
0.999802 0.277668 0.463828
1 0.290211 0.45153
0.999954 0.305226 0.439887
0.999252 0.322576 0.424765
0.999756 0.34551 0.406012
0.999466 0.372412 0.380163
0.999878 0.400748 0.352895
0.999588 0.434577 0.319646
0.999451 0.470832 0.281514
0.999252 0.510857 0.233524
0.999374 0.55201 0.180758
0.00241093 0.181384 0
0.00242618 0.181109 0
0.000122072 0.156649 7.62951e-05
0.00178531 0.131426 4.57771e-05
0.00117494 0.112123 7.62951e-05
0.00155642 0.0991836 0.000335698
0.00909438 0.0937667 3.0518e-05
0.0534218 0.0874342 0.000274662
0.112779 0.0838788 3.0518e-05
0.194491 0.0791791 0.000686656
0.296101 0.0769513 6.10361e-05
0.418799 0.0745403 0.0053254
0.559609 0.0726635 0.0256352
0.712459 0.0717632 0.0657511
0.861524 0.076997 0.125643
0.988113 0.0894331 0.220493
0.999893 0.115816 0.33727
0.999863 0.157412 0.421973
0.999741 0.222705 0.445731
0.999268 0.276158 0.462913
0.99942 0.278828 0.462196
0.999069 0.283299 0.457969
0.999878 0.291127 0.451652
1 0.301488 0.445289
0.999893 0.314702 0.432456
0.999268 0.331807 0.416052
0.999771 0.352636 0.399344
0.999283 0.3785 0.374487
0.999939 0.405615 0.348135
0.999634 0.438575 0.31545
0.999512 0.47425 0.277455
0.999313 0.513481 0.23032
0.999405 0.554009 0.177829
0.000579843 0.26125 0
0.000183108 0.246494 0.000610361
0.00115969 0.214054 0.000244144
0.00158694 0.184665 0
0.00154116 0.161044 0.000381476
0.00285344 0.146288 4.57771e-05
0.00225834 0.13695 7.62951e-05
0.0241855 0.129366 0.000839246
0.084123 0.1234 0.000350958
0.159823 0.115999 7.62951e-05
0.257679 0.113024 7.62951e-05
0.37377 0.110857 0.000274662
0.510842 0.109422 0.000106813
0.663478 0.110018 0.0191196
0.814954 0.116136 0.0690013
0.951629 0.12987 0.149065
0.999039 0.150973 0.264637
0.999847 0.18407 0.377157
0.999878 0.232685 0.413306
0.999252 0.293507 0.444465
0.999817 0.300664 0.444862
0.99942 0.302724 0.441886
0.999771 0.307195 0.438697
0.999741 0.316014 0.431403
0.99942 0.327688 0.420966
0.999344 0.343069 0.405798
0.999756 0.361959 0.390219
0.999298 0.385992 0.367514
1 0.411963 0.341894
0.99968 0.443885 0.30988
0.999588 0.478767 0.272114
0.99939 0.516823 0.22623
0.999451 0.556634 0.173983
0 0.355444 9.15541e-05
0 0.315572 0
6.10361e-05 0.277241 0.000106813
0.000381476 0.248615 3.0518e-05
0.000915541 0.224948 0.000183108
0.00112917 0.208499 0.000610361
0.0011902 0.196567 0
0.00584421 0.187015 1.5259e-05
0.0513771 0.178103 0.000747692
0.124392 0.169787 0.000244144
0.218982 0.166217 0.000396735
0.333257 0.160479 0.00015259
0.468696 0.157458 0
0.615961 0.157794 0.000167849
0.767224 0.163043 0.0138552
0.911376 0.176928 0.0725872
0.999573 0.194812 0.176715
0.999939 0.223453 0.303151
0.999496 0.254627 0.36791
0.999115 0.306584 0.407874
0.999832 0.325322 0.424155
0.999863 0.325017 0.42182
0.999542 0.328374 0.420798
0.999573 0.333989 0.413489
0.999344 0.343313 0.407034
0.999832 0.356695 0.395148
0.999695 0.373938 0.378805
0.999374 0.395483 0.358679
0.999924 0.420935 0.33344
0.999725 0.450721 0.302693
0.99968 0.484749 0.265034
0.999481 0.521248 0.220829
0.999527 0.560128 0.168856
0 0.434562 0.000183108
0.000183108 0.387076 7.62951e-05
3.0518e-05 0.349905 4.57771e-05
0.000320439 0.318456 0
3.0518e-05 0.297337 0.000122072
0 0.280659 1.5259e-05
0.000167849 0.267994 0.000198367
0.00106813 0.256291 9.15541e-05
0.0152132 0.247349 0.000503548
0.0780499 0.237797 0.000640879
0.179446 0.228534 0.000503548
0.294057 0.222644 3.0518e-05
0.423407 0.218631 0
0.568231 0.218341 0.000579843
0.718196 0.221134 0.00047303
0.865003 0.23125 0.00675975
0.987427 0.247639 0.0848096
0.99913 0.268742 0.2121
0.99939 0.293172 0.314549
0.999847 0.326207 0.363546
0.999207 0.35584 0.394751
0.999954 0.35201 0.397757
0.999847 0.354482 0.395819
0.999832 0.357 0.393439
0.999634 0.363851 0.388449
0.999771 0.375326 0.378073
0.999527 0.389517 0.364752
0.99942 0.408331 0.3467
0.999832 0.432425 0.322652
0.999771 0.459861 0.292958
0.999741 0.492454 0.255848
0.999619 0.527092 0.213687
0.999603 0.564752 0.162081
0 0.508858 9.15541e-05
1.5259e-05 0.465095 0.000289921
4.57771e-05 0.426581 0.000518807
0.000213626 0.39942 0.000244144
0.000335698 0.378164 0.000686656
3.0518e-05 0.3626 0.000579843
0.000106813 0.351751 0.000259403
4.57771e-05 0.34049 0.000671397
0.000579843 0.327916 1.5259e-05
0.0289311 0.317159 0.000457771
0.125154 0.308461 0.000198367
0.244465 0.298436 0.000183108
0.375814 0.289952 0.000350958
0.520058 0.287892 0
0.669963 0.290486 0.000640879
0.820294 0.294682 0
0.95285 0.307927 0.00901808
0.999924 0.325307 0.106523
0.999283 0.344091 0.240467
0.999435 0.36022 0.303029
0.999954 0.389746 0.357321
0.999496 0.38819 0.366232
0.999222 0.385504 0.36846
0.999893 0.385412 0.370748
0.999725 0.389761 0.365469
0.999359 0.398062 0.357015
0.999268 0.409125 0.34551
0.99939 0.425895 0.330251
0.999588 0.446983 0.307851
0.999817 0.471702 0.280324
0.999573 0.501884 0.244388
0.99968 0.534707 0.204105
0.999725 0.570886 0.153109
0 0.576089 0.000457771
6.10361e-05 0.537865 0.000396735
1.5259e-05 0.510262 1.5259e-05
0.000106813 0.486244 7.62951e-05
0 0.46978 0.000381476
6.10361e-05 0.455314 0.000122072
0.000457771 0.443381 0.000915541
0.000518807 0.432914 0.00108339
0.000106813 0.420066 0.000213626
0.00303655 0.40763 0.000289921
0.0615702 0.39443 0.000228885
0.183688 0.383963 1.5259e-05
0.321126 0.375631 0.000122072
0.47219 0.366735 0.000213626
0.623392 0.366537 1.5259e-05
0.775967 0.368292 0
0.910704 0.374807 0
0.998184 0.387335 0.0130922
0.999374 0.404837 0.128527
0.999268 0.4094 0.224994
0.999939 0.427451 0.293446
0.999496 0.427695 0.32694
0.999161 0.422843 0.33373
0.999329 0.419898 0.335653
0.999893 0.420188 0.33547
0.999161 0.42533 0.329824
0.999573 0.433921 0.319783
0.999481 0.447898 0.3066
0.999146 0.465263 0.287724
0.999573 0.486641 0.262715
0.999344 0.513985 0.229664
0.999512 0.544808 0.190799
0.999725 0.579034 0.140963
0 0.644434 0.000411994
0 0.618708 4.57771e-05
0.000122072 0.598672 9.15541e-05
1.5259e-05 0.580392 3.0518e-05
0 0.566094 0.000228885
0 0.554681 0.000289921
0 0.545617 0.000228885
0 0.534463 0.00015259
0.000259403 0.522454 0.00062562
0.000518807 0.509514 0.000366217
0.00828565 0.496986 0.000167849
0.113329 0.482673 0.000671397
0.260395 0.469673 0.000518807
0.413977 0.459464 6.10361e-05
0.575708 0.451865 0
0.730495 0.449042 0
0.866743 0.453468 0
0.976043 0.461173 3.0518e-05
0.999771 0.472084 0.0192264
0.999619 0.473243 0.128435
0.999741 0.475517 0.209598
0.999802 0.474937 0.275013
0.999329 0.465553 0.288045
0.999725 0.46157 0.291615
0.999817 0.457542 0.294713
0.999695 0.458412 0.294392
0.999557 0.46421 0.286397
0.999435 0.474266 0.277302
0.999573 0.488563 0.260731
0.998932 0.505333 0.238895
0.999298 0.529793 0.209888
0.999313 0.557809 0.173693
0.999512 0.589776 0.124758
3.0518e-05 0.721202 0.000274662
0.000122072 0.702876 0.000640879
0 0.688045 0.000488289
0 0.676722 0.000610361
0 0.666331 0.000488289
0 0.656474 7.62951e-05
0 0.648814 7.62951e-05
0 0.640024 0.000167849
0 0.62858 3.0518e-05
0.000106813 0.617044 0.000183108
3.0518e-05 0.604898 0.000411994
0.0272984 0.590036 0.000137331
0.175937 0.575601 0.000106813
0.346792 0.561822 0.000366217
0.517037 0.550942 0.000579843
0.676539 0.542672 0
0.82031 0.539666 0.000549325
0.942123 0.542306 1.5259e-05
0.99942 0.546319 1.5259e-05
0.999268 0.55108 0.0148165
0.999313 0.536995 0.100664
0.999252 0.528572 0.194873
0.999847 0.517098 0.227115
0.998993 0.507683 0.236881
0.999329 0.502403 0.245045
0.999817 0.49865 0.248341
0.999222 0.499886 0.246464
0.999405 0.505882 0.239353
0.999771 0.51606 0.227909
0.999496 0.529732 0.209964
0.999435 0.549844 0.184298
0.999344 0.574914 0.148302
0.999252 0.603525 0.10399
1.5259e-05 0.799496 0.000396735
0 0.788327 0.000274662
0 0.777859 0.000167849
4.57771e-05 0.770199 0.000564584
0.000106813 0.763775 0.000976577
6.10361e-05 0.755764 0.000747692
1.5259e-05 0.748714 0.000518807
0 0.741466 0.000350958
0 0.733013 0.000183108
0 0.720867 0.000350958
7.62951e-05 0.709667 0.000457771
0.00427253 0.697551 0.000411994
0.0711376 0.683665 3.0518e-05
0.260288 0.668284 4.57771e-05
0.444968 0.652705 0.00077821
0.615839 0.63949 0.00047303
0.770169 0.629419 0.000122072
0.89984 0.622507 0.000274662
0.988846 0.618921 0.000137331
0.999023 0.626368 0
0.999649 0.610285 0.00601205
0.999252 0.591882 0.0801404
0.999451 0.572732 0.15256
0.999588 0.560235 0.170718
0.999329 0.550896 0.183291
0.998932 0.544976 0.189944
0.99971 0.542092 0.1953
0.999634 0.542931 0.194659
0.999252 0.549432 0.184665
0.999344 0.560265 0.169574
0.999161 0.575204 0.147967
0.999573 0.59675 0.114137
0.9991 0.621683 0.073991
0 0.872206 1.5259e-05
3.0518e-05 0.865736 0.000122072
4.57771e-05 0.859693 0.000228885
3.0518e-05 0.853742 0.000183108
1.5259e-05 0.848356 0.000122072
0 0.84332 0.000183108
0 0.838605 0.000411994
0 0.833127 0.000686656
0 0.826825 0.000503548
0 0.819135 6.10361e-05
0 0.808927 0.000686656
0 0.798337 0.000396735
0.0114748 0.784924 0.000106813
0.1411 0.77084 0
0.351812 0.753079 0
0.544442 0.736217 0
0.709987 0.715084 3.0518e-05
0.850858 0.697749 4.57771e-05
0.966293 0.685069 0.000411994
0.99968 0.684504 0.000198367
0.99913 0.685847 0.000137331
0.999008 0.66537 4.57771e-05
0.999573 0.634607 0.051606
0.999557 0.619089 0.0778515
0.999664 0.607385 0.0987411
0.999481 0.597864 0.112871
0.9991 0.589776 0.125963
0.999573 0.587915 0.129244
0.998993 0.589639 0.124697
0.999359 0.595621 0.117723
0.999039 0.606027 0.100038
0.999847 0.621744 0.0713817
0.998978 0.644694 0.0350805
0 0.938033 0.000411994
0 0.93431 0.000488289
0 0.930449 0.000549325
0.000122072 0.926787 0.000579843
0.000244144 0.923293 0.000595102
0.000350958 0.919905 0.00062562
0.000350958 0.916487 0.000549325
0.000228885 0.912688 0.000350958
6.10361e-05 0.907729 9.15541e-05
0 0.901793 1.5259e-05
0 0.89456 1.5259e-05
0.000274662 0.886427 0.000564584
0.000366217 0.876066 0.000762951
0.0314336 0.864225 0.000335698
0.231418 0.846128 9.15541e-05
0.450874 0.820157 3.0518e-05
0.637095 0.793286 1.5259e-05
0.79527 0.771221 0
0.922362 0.755276 0.000579843
0.996017 0.742397 7.62951e-05
0.999054 0.735821 0
0.998871 0.723415 7.62951e-05
0.999161 0.704448 3.0518e-05
0.999313 0.681605 0.00112917
0.999207 0.666926 0.0116579
0.998825 0.653986 0.0138247
0.999252 0.644678 0.0348058
0.9991 0.638422 0.0437934
0.998993 0.635554 0.0502632
0.999725 0.636301 0.0484627
0.999115 0.642893 0.0362554
0.999512 0.653117 0.0203098
0.999466 0.670817 0.00764477
0 0.99205 0.000488289
0 0.990616 0.000595102
0 0.989105 0.000686656
0 0.98703 0.000564584
0 0.984878 0.000442512
0 0.982773 0.000320439
0 0.980697 0.000213626
0 0.978454 0.000137331
0 0.975387 0.000106813
0 0.971313 6.10361e-05
0 0.966735 9.15541e-05
0 0.961364 0.000183108
0 0.952468 4.57771e-05
0.00523384 0.943816 0.000106813
0.100084 0.926314 4.57771e-05
0.334783 0.895155 6.10361e-05
0.551049 0.867002 4.57771e-05
0.729641 0.842344 0
0.871595 0.821149 7.62951e-05
0.981872 0.80589 0
0.998489 0.797711 1.5259e-05
0.999008 0.777173 3.0518e-05
0.999146 0.751476 6.10361e-05
0.999222 0.739574 0
0.999283 0.727932 1.5259e-05
0.998947 0.716823 9.15541e-05
0.999252 0.704143 0
0.999329 0.693721 0.000228885
0.999619 0.687495 0.00137331
0.999634 0.684474 7.62951e-05
0.999283 0.686046 0.00122072
0.999527 0.692042 0.000976577
0.999619 0.704234 7.62951e-05
0 1 0.000289921
0 1 0.000289921
0 1 0.000289921
0 1 0.000289921
0 1 0.000289921
0 1 0.000289921
0 1 0.000289921
0 1 0.000289921
0 0.999908 0.000289921
0 0.999603 0.00030518
0 0.999252 0.000320439
0 0.99881 0.000289921
0 0.99823 0.000259403
0 0.99765 0.000259403
0.0106508 0.995911 0.000259403
0.179751 0.970428 6.10361e-05
0.439429 0.93695 0
0.646372 0.908431 0.000274662
0.812284 0.885481 0
0.939879 0.866728 0
0.998795 0.852018 1.5259e-05
0.999695 0.833539 0.000457771
0.99968 0.804654 1.5259e-05
0.999023 0.774441 1.5259e-05
0.998795 0.763149 0.000122072
0.9991 0.754986 0.000106813
0.999222 0.748806 7.62951e-05
0.999268 0.742229 0.000167849
0.99939 0.73724 0.000106813
0.999054 0.731838 6.10361e-05
0.998993 0.730159 1.5259e-05
0.999298 0.733303 1.5259e-05
0.99968 0.734997 3.0518e-05
0 1 0.000289921
0 1 0.000289921
0 1 0.000289921
0 1 0.000289921
0 1 0.000289921
0 1 0.000289921
0 1 0.000289921
0 1 0.000289921
0 1 0.000289921
0 1 0.000289921
0 1 0.000289921
0 1 0.000289921
0 1 0.000289921
0 1 0.000289921
0 1 0.000289921
0.0307622 0.999298 0.000366217
0.2757 0.998138 0.00103761
0.544427 0.973251 3.0518e-05
0.73872 0.946761 0
0.883909 0.923095 0.000396735
0.981369 0.902586 0.000381476
0.99939 0.882841 0
0.998764 0.856733 4.57771e-05
0.999069 0.825437 9.15541e-05
0.999237 0.805798 0.000122072
0.999268 0.794339 9.15541e-05
0.999557 0.782452 0.00015259
0.999573 0.77348 0
0.999481 0.764935 0.000106813
0.9991 0.761257 0.000106813
0.999222 0.756558 0.000137331
0.999786 0.756512 0.000213626
0.998718 0.756863 1.5259e-05
0 1 0.000289921
0 1 0.000289921
0 1 0.000289921
0 1 0.000289921
0 1 0.000289921
0 1 0.000289921
0 1 0.000289921
0 1 0.000289921
0 1 0.000289921
0 1 0.000289921
0 1 0.000289921
0 1 0.000289921
0 1 0.000289921
0 1 0.000289921
0.000137331 1 0.000289921
0.00251774 1 0.000289921
0.113344 0.999985 0.00077821
0.383978 0.999496 0.000488289
0.635874 0.998871 0.000167849
0.806012 0.971649 0.000457771
0.933562 0.947707 0
0.997894 0.925277 0
0.9991 0.902953 0.000167849
0.999435 0.876036 0.000564584
0.9991 0.850141 1.5259e-05
0.999496 0.838911 0.000228885
0.999146 0.827543 0.000228885
0.999435 0.81677 0.000183108
0.999146 0.806897 0
0.999359 0.798459 0
0.999084 0.791257 3.0518e-05
0.999557 0.786297 3.0518e-05
0.999054 0.783917 9.15541e-05
0 1 0.000289921
0 1 0.000289921
0 1 0.000289921
0 1 0.000289921
0 1 0.000289921
0 1 0.000289921
0 1 0.000289921
0 1 0.000289921
0 1 0.000289921
0 1 0.000289921
0 1 0.000289921
0 1 0.000289921
0 1 0.000289921
0 1 0.000289921
0 1 0.000289921
6.10361e-05 1 0.000289921
0 1 0.000289921
0.221012 0.999863 0.000579843
0.488914 0.999817 0.000961318
0.704204 0.999741 1.5259e-05
0.856916 0.989502 1.5259e-05
0.975006 0.967041 0.000274662
0.999588 0.943908 0.000686656
0.999146 0.919829 7.62951e-05
0.999084 0.889662 0
0.999313 0.877806 0.000488289
0.998901 0.867765 0.000137331
0.999344 0.858137 0
0.999619 0.848157 0.000106813
0.999115 0.839872 0.000335698
0.999207 0.831083 0.000122072
0.999207 0.824735 0.000122072
0.999161 0.820233 3.0518e-05
0 1 0.000289921
0 1 0.000289921
0 1 0.000289921
0 1 0.000289921
0 1 0.000289921
0 1 0.000289921
0 1 0.000289921
0 1 0.000289921
0 1 0.000289921
0 1 0.000289921
0 1 0.000289921
0 1 0.000289921
0 1 0.000289921
0 1 0.000289921
0 1 0.000289921
0 1 0.000289921
0.0154574 0.999985 0.000335698
0.143633 0.999893 0.000793469
0.384634 0.999939 0.000808728
0.608423 0.999466 0.000396735
0.780591 0.998886 4.57771e-05
0.904631 0.99382 0.00325017
0.986099 0.980026 0.0133516
0.997986 0.959381 0.00468452
0.998581 0.933516 0.000564584
0.999603 0.915358 6.10361e-05
0.999023 0.905241 0.000122072
0.999588 0.895338 0.000549325
0.999146 0.886702 0.00015259
0.999008 0.877546 1.5259e-05
0.99884 0.868635 0
0.999573 0.861143 0.000274662
0.999161 0.856123 0.000167849
0 1 0.000289921
0 1 0.000289921
0 1 0.000289921
0 1 0.000289921
0 1 0.000289921
0 1 0.000289921
0 1 0.000289921
0 1 0.000289921
0 1 0.000289921
0 1 0.000289921
0 1 0.000289921
0 1 0.000289921
0 1 0.000289921
0 1 0.000289921
0 1 0.000289921
0 1 0.000289921
0.00602731 0.999878 0.000488289
0.0531624 0.999725 0.000701915
0.30013 0.999664 0.000717174
0.518242 0.999115 0.000122072
0.702296 0.999405 0.000686656
0.840299 0.998932 0.000976577
0.94464 0.989868 0.00740063
0.983963 0.985962 0.0165255
0.994705 0.97145 0.010544
0.999084 0.950713 0.002121
0.999115 0.941024 0.00138857
0.999496 0.931594 0.000610361
0.999161 0.922316 0
0.999481 0.912459 0
0.999161 0.904662 0
0.999069 0.897139 9.15541e-05
0.999329 0.889143 1.5259e-05
0 1 0.000289921
0 1 0.000289921
0 1 0.000289921
0 1 0.000289921
0 1 0.000289921
0 1 0.000289921
0 1 0.000289921
0 1 0.000289921
0 1 0.000289921
0 1 0.000289921
0 1 0.000289921
0 1 0.000289921
0 1 0.000289921
0 1 0.000289921
0 1 0.000289921
0 1 0.000289921
0.000717174 1 0.000289921
0.0951095 1 0.00015259
0.225025 1 1.5259e-05
0.433265 1 0
0.61648 0.999939 0.000869764
0.771115 0.999908 6.10361e-05
0.887694 0.995438 0.00131228
0.964782 0.987854 0.0116579
0.982086 0.985641 0.0156863
0.990082 0.978897 0.0139162
0.994064 0.97348 0.0116732
0.997314 0.966659 0.0083772
0.998108 0.95729 0.00369268
0.998672 0.94818 0.00227359
0.999222 0.939437 6.10361e-05
0.998642 0.930694 9.15541e-05
0.999161 0.923537 1.5259e-05
0 1 0.000289921
0 1 0.000289921
0 1 0.000289921
0 1 0.000289921
0 1 0.000289921
0 1 0.000289921
0 1 0.000289921
0 1 0.000289921
0 1 0.000289921
