Luts/Fujifilm/FLog2C_to_ACROS_VLog.cube
TITLE "Generated by Resolve"
LUT_3D_SIZE 5
0 0 0
0.084947 0.084947 0.084947
0.558587 0.558587 0.558587
0.561334 0.561334 0.561334
0.694774 0.694774 0.694774
0.0851453 0.0851453 0.0851453
0.0648051 0.0648051 0.0648051
0.416785 0.416785 0.416785
0.591546 0.591546 0.591546
0.698878 0.698878 0.698878
0.437842 0.437842 0.437842
0.437934 0.437934 0.437934
0.554513 0.554513 0.554513
0.697536 0.697536 0.697536
0.723751 0.723751 0.723751
0.780804 0.780804 0.780804
0.786084 0.786084 0.786084
0.817441 0.817441 0.817441
0.8719 0.8719 0.8719
0.835035 0.835035 0.835035
0.854612 0.854612 0.854612
0.855039 0.855039 0.855039
0.857984 0.857984 0.857984
0.880293 0.880293 0.880293
0.884764 0.884764 0.884764
0.00598154 0.00598154 0.00598154
0.0656443 0.0656443 0.0656443
0.556802 0.556802 0.556802
0.56733 0.56733 0.56733
0.69482 0.69482 0.69482
0.138003 0.138003 0.138003
0.0752575 0.0752575 0.0752575
0.388952 0.388952 0.388952
0.600549 0.600549 0.600549
0.698878 0.698878 0.698878
0.507378 0.507378 0.507378
0.490135 0.490135 0.490135
0.573297 0.573297 0.573297
0.712276 0.712276 0.712276
0.723751 0.723751 0.723751
0.769055 0.769055 0.769055
0.773922 0.773922 0.773922
0.803632 0.803632 0.803632
0.880888 0.880888 0.880888
0.835035 0.835035 0.835035
0.866789 0.866789 0.866789
0.867094 0.867094 0.867094
0.869062 0.869062 0.869062
0.885267 0.885267 0.885267
0.884764 0.884764 0.884764
0.0505684 0.0505684 0.0505684
0.0770123 0.0770123 0.0770123
0.539925 0.539925 0.539925
0.588586 0.588586 0.588586
0.741543 0.741543 0.741543
0.225269 0.225269 0.225269
0.122866 0.122866 0.122866
0.387854 0.387854 0.387854
0.626902 0.626902 0.626902
0.746303 0.746303 0.746303
0.616785 0.616785 0.616785
0.590326 0.590326 0.590326
0.653574 0.653574 0.653574
0.752483 0.752483 0.752483
0.774945 0.774945 0.774945
0.824369 0.824369 0.824369
0.828824 0.828824 0.828824
0.856077 0.856077 0.856077
0.942565 0.942565 0.942565
0.890257 0.890257 0.890257
0.910399 0.910399 0.910399
0.91078 0.91078 0.91078
0.913436 0.913436 0.913436
0.933562 0.933562 0.933562
0.920272 0.920272 0.920272
0.119173 0.119173 0.119173
0.11928 0.11928 0.11928
0.37734 0.37734 0.37734
0.582498 0.582498 0.582498
0.759182 0.759182 0.759182
0.137285 0.137285 0.137285
0.137545 0.137545 0.137545
0.336965 0.336965 0.336965
0.620615 0.620615 0.620615
0.764309 0.764309 0.764309
0.610697 0.610697 0.610697
0.542763 0.542763 0.542763
0.624933 0.624933 0.624933
0.745632 0.745632 0.745632
0.794079 0.794079 0.794079
0.827466 0.827466 0.827466
0.830762 0.830762 0.830762
0.851881 0.851881 0.851881
0.946303 0.946303 0.946303
0.917067 0.917067 0.917067
0.924361 0.924361 0.924361
0.924849 0.924849 0.924849
0.928176 0.928176 0.928176
0.956847 0.956847 0.956847
0.983902 0.983902 0.983902
0.475425 0.475425 0.475425
0.477211 0.477211 0.477211
0.489357 0.489357 0.489357
0.460685 0.460685 0.460685
0.67393 0.67393 0.67393
0.543221 0.543221 0.543221
0.544533 0.544533 0.544533
0.552697 0.552697 0.552697
0.479408 0.479408 0.479408
0.679301 0.679301 0.679301
0.730465 0.730465 0.730465
0.730739 0.730739 0.730739
0.732799 0.732799 0.732799
0.586465 0.586465 0.586465
0.712016 0.712016 0.712016
0.797848 0.797848 0.797848
0.797848 0.797848 0.797848
0.818631 0.818631 0.818631
0.889265 0.889265 0.889265
0.863752 0.863752 0.863752
0.906294 0.906294 0.906294
0.906783 0.906783 0.906783
0.910018 0.910018 0.910018
0.93933 0.93933 0.93933
1 1 1
