Luts/Fujifilm/FLog2C_to_CLASSIC-CHROME_VLog.cube
TITLE "Generated by Resolve"
LUT_3D_SIZE 5
0 0 0
0.306386 0.00924697 0.0177462
0.95877 0.374456 0.4486
0.958907 0.378058 0.446876
0.95259 0.611719 0.334829
0.000122072 0.128313 0.000213626
0.0850385 0.0496834 0
0.964309 0.227558 0.292576
0.958267 0.42298 0.430243
0.952331 0.620142 0.328145
0.0184329 0.722255 0.00825513
0.0141451 0.671534 0.00308232
0.762463 0.620081 0.0497292
0.952361 0.617365 0.330632
0.951904 0.669993 0.280308
0.0771496 0.96762 0.0381323
0.157107 0.966415 0.0458991
0.580545 0.960861 0.114748
0.960281 0.935302 0.188067
0.955261 0.86833 0.157626
0.793301 0.966293 0.162371
0.795621 0.966384 0.162936
0.811765 0.967025 0.167071
0.924559 0.971664 0.195148
0.964569 0.973037 0.212375
4.57771e-05 0.000534066 0.0426032
0.235004 0.00643931 0.0186618
0.95877 0.372076 0.447013
0.958526 0.386145 0.443549
0.95259 0.611811 0.334752
9.15541e-05 0.172824 0.186435
0.0595102 0.0603342 0.0592508
0.942763 0.206607 0.264195
0.957671 0.438315 0.424384
0.952331 0.620142 0.328145
0.0232395 0.765713 0.0146487
0.0183871 0.715465 0.0087129
0.711162 0.646983 0.0572671
0.952316 0.641443 0.353658
0.951904 0.669993 0.280308
0.0479744 0.967239 0.0339666
0.0489662 0.967346 0.0343786
0.395651 0.962844 0.0804761
0.962829 0.956985 0.198489
0.955261 0.86833 0.157626
0.773846 0.965576 0.157504
0.776303 0.965682 0.158145
0.793378 0.966354 0.162615
0.912032 0.971542 0.191104
0.964569 0.973037 0.212375
0.00373846 0.000427253 0.499199
0.192813 1.5259e-05 0.313939
0.960876 0.354711 0.543572
0.958923 0.43006 0.594354
0.953201 0.667399 0.557122
0.00419623 0.162264 0.825177
0.0228428 0.0454871 0.594537
0.908965 0.142351 0.586191
0.957336 0.495659 0.621454
0.95314 0.674876 0.557336
0.0504005 0.798428 0.801923
0.0423743 0.751431 0.750103
0.672511 0.673182 0.672786
0.954849 0.682109 0.67924
0.953674 0.719646 0.555734
0.0607767 0.965698 0.363088
0.0606088 0.96611 0.365011
0.212985 0.961135 0.389731
0.972793 0.967208 0.512215
0.962585 0.894392 0.424811
0.737774 0.967468 0.480873
0.740322 0.967529 0.479896
0.757855 0.967971 0.474113
0.880446 0.973495 0.427878
0.964569 0.973037 0.212375
0.00570687 0 0.997772
0.00570687 0 0.997772
0.971649 0.0151827 0.878096
0.960067 0.337499 0.790295
0.955444 0.676722 0.80528
0.00570687 0 0.997772
0.00570687 0 0.997772
0.839994 0.0105287 0.962264
0.960693 0.401892 0.808942
0.955917 0.684581 0.807416
0.0455634 0.713832 0.959792
0.0317388 0.600122 0.965911
0.497948 0.566064 0.963333
0.9552 0.635676 0.857374
0.958358 0.730663 0.821363
0.0952468 0.947494 0.934264
0.0951858 0.946593 0.934768
0.0922255 0.941421 0.934646
0.93669 0.938445 0.937194
0.975372 0.892958 0.871946
0.553872 0.965255 0.936309
0.559197 0.965499 0.936339
0.596094 0.967239 0.936416
0.815427 0.980972 0.936996
0.991028 0.994141 0.87686
0.0185855 0.457877 0.975311
0.0189059 0.46157 0.97496
0.0210575 0.486763 0.972595
0.970764 0.0239414 0.986542
0.958312 0.446326 0.965103
0.0317998 0.595224 0.965316
0.0320745 0.597787 0.965194
0.0336767 0.613123 0.964446
0.969314 0.0451667 0.984344
0.957961 0.457435 0.964736
0.0717021 0.872145 0.952667
0.0717784 0.87248 0.952605
0.0723735 0.874952 0.952163
0.962371 0.296849 0.972
0.957076 0.524285 0.962402
0.100328 0.955962 0.930877
0.100328 0.955962 0.930877
0.0975357 0.953246 0.932006
0.812375 0.888212 0.968048
0.967666 0.808606 0.969894
0.320989 0.957504 0.93904
0.327947 0.957641 0.939254
0.373556 0.958923 0.940902
0.69453 0.972015 0.960266
1 1 1
