Luts/Fujifilm/FLog2C_to_ASTIA_VLog.cube
TITLE "Generated by Resolve"
LUT_3D_SIZE 5
0 0 0
0.346517 0.00360113 0.00854505
0.999466 0.0997177 0.540078
0.999329 0.10486 0.536904
0.999786 0.502617 0.226413
0.000198367 0.178988 6.10361e-05
0.107149 0.0729076 0.000488289
0.999969 0.0015259 0.369909
0.999405 0.182727 0.486137
0.999664 0.516136 0.210575
1.5259e-05 0.813153 0.000396735
0.000274662 0.754574 0.00103761
0.760586 0.652003 0.000442512
0.99942 0.513542 0.213809
0.999268 0.59881 0.105989
0.117327 0.999985 0.000610361
0.198856 0.999908 0.000640879
0.561257 0.999985 0.000259403
0.988373 0.943023 7.62951e-05
0.99881 0.85214 6.10361e-05
0.759884 0.999649 0.000259403
0.762509 0.999649 0.000259403
0.780728 0.999573 0.000244144
0.929854 0.999527 0.00587472
0.983734 1 0.0220188
0 0 0.081651
0.276707 0.00361639 0.0180209
0.999466 0.0957656 0.539712
0.999817 0.118044 0.526802
0.999786 0.50277 0.22623
0 0.210315 0.230335
0.0771191 0.0786908 0.0765393
0.999771 0.00860609 0.313664
0.999756 0.211795 0.468177
0.999664 0.516136 0.210575
0 0.858732 0.000488289
6.10361e-05 0.80209 0.000564584
0.702571 0.687938 1.5259e-05
0.99939 0.545663 0.228351
0.999268 0.59881 0.105989
0.00344854 0.999985 0.000289921
0.0369726 0.999817 0.000274662
0.410224 0.99968 0.000976577
0.985931 0.972519 0.00306706
0.99881 0.85214 6.10361e-05
0.73994 0.999802 0.000366217
0.742626 0.999786 0.000396735
0.761227 0.999786 0.000564584
0.911315 0.999725 0.00302129
0.983734 1 0.0220188
0.00936904 3.0518e-05 0.693568
0.214633 0.000106813 0.451774
0.999557 0.0608682 0.675288
0.999588 0.183215 0.692973
0.999557 0.563134 0.489891
0.000122072 0.155993 0.999557
0.032517 0.0205539 0.806317
0.974807 9.15541e-05 0.76054
0.999664 0.292866 0.684565
0.999542 0.574319 0.484443
0.000442512 0.819806 0.916808
0.000274662 0.76936 0.848951
0.655375 0.655818 0.655665
0.999893 0.570153 0.644648
0.999588 0.639445 0.451774
0 0.999695 0.231312
0 0.999542 0.23476
0.239628 0.999771 0.209461
0.989395 0.999771 0.218952
0.998703 0.914183 0.134401
0.696071 0.999863 0.214801
0.698589 0.999863 0.212543
0.715908 0.999847 0.19855
0.860182 0.999817 0.104753
0.983871 0.999985 0.0231479
0.0156863 0.00483711 0.936233
0.0156863 0.00483711 0.936233
1 0 0.99971
0.999985 0.0181735 0.999908
0.999878 0.547158 0.842695
0.0156863 0.00483711 0.936233
0.0156863 0.00483711 0.936233
0.881971 0.000122072 0.999588
0.999786 0.119417 0.998383
0.999802 0.55845 0.84239
0.000915541 0.707561 1
0.000701915 0.596017 0.999741
0.488975 0.533684 0.999695
0.999847 0.4795 0.959945
0.999741 0.62063 0.837324
0.000808728 0.972686 0.999969
0.00077821 0.972442 0.999969
0.000381476 0.969299 1
0.924331 0.925704 0.924208
1 0.847944 0.812879
0.520043 0.999649 0.994247
0.524681 0.99968 0.993622
0.556817 0.999832 0.989212
0.765072 0.999466 0.931746
0.992996 0.999771 0.757626
0.000198367 0.467735 1
0.000198367 0.470909 1
0.000289921 0.492576 1
1 0 0.99971
0.999985 0.190372 0.999512
0.000747692 0.590402 0.999786
0.000762951 0.592798 0.999771
0.000701915 0.60737 0.999786
1 0 0.99971
0.999969 0.208148 0.999481
0.000442512 0.895857 0.999847
0.000427253 0.896223 0.999847
0.000366217 0.89897 0.999817
1 0.0341802 0.999649
0.999802 0.310445 0.99939
0 0.973785 1
0 0.973785 1
0.000686656 0.973281 1
0.773037 0.867369 0.999451
0.999847 0.716487 0.999893
0.310338 0.99968 0.999832
0.316808 0.99968 0.999832
0.358083 0.999695 0.999786
0.639704 0.999405 0.999634
1 1 1
