Luts/Fujifilm/FLog2C_to_CLASSIC-Neg._VLog.cube
TITLE "Generated by Resolve"
LUT_3D_SIZE 9
0 0 0
0.0109102 0.000900282 0
0.254383 0.0201114 0.000228885
0.891905 0.10663 0.0340581
0.951064 0.281895 0.277256
0.951064 0.281895 0.277256
0.951186 0.285237 0.27689
0.953323 0.388205 0.260685
0.955749 0.552056 0.22446
0.000366217 0.00585946 0.000366217
0.00433356 0.000701915 3.0518e-05
0.165347 0.0133211 0.000335698
0.759335 0.0685435 0
0.946044 0.193286 0.195392
0.951064 0.281895 0.277256
0.951934 0.304036 0.273243
0.953521 0.399847 0.258793
0.955917 0.557214 0.222736
0.00357061 0.136782 0.0213931
0.00238041 0.0918441 0.0143282
0.0813916 0.0702983 0.000640879
0.475517 0.0900587 0.000106813
0.940429 0.167437 0.101778
0.95172 0.299641 0.27425
0.951614 0.329778 0.270512
0.95375 0.414069 0.256229
0.956085 0.563317 0.220676
0.0125582 0.4038 0.0668498
0.00799573 0.280812 0.0457618
0.00753796 0.239765 0.0387732
0.264958 0.223957 0.00242618
0.876448 0.287846 0.00961318
0.954055 0.395758 0.251423
0.953323 0.398093 0.259892
0.954711 0.452384 0.249073
0.956603 0.580865 0.214801
0.0226902 0.709194 0.118654
0.0214542 0.673945 0.112657
0.0204776 0.643427 0.107729
0.101549 0.597818 0.0879835
0.774151 0.600122 7.62951e-05
0.953582 0.608789 0.123415
0.955856 0.559335 0.222293
0.956542 0.557977 0.222721
0.956756 0.633158 0.197696
0.0287327 0.908278 0.152407
0.0284276 0.904005 0.151461
0.0284886 0.899199 0.14992
0.0275273 0.887495 0.149248
0.444358 0.888853 0.0901045
0.94902 0.890318 0.0211032
0.95848 0.796887 0.0990616
0.958297 0.751888 0.135668
0.958648 0.749615 0.136477
0.0292973 0.944442 0.157092
0.0292973 0.944442 0.157092
0.0292973 0.944442 0.157092
0.0292973 0.944442 0.157092
0.0536049 0.944854 0.153994
0.833814 0.990463 0.0518196
0.94725 0.961074 0.0330358
0.95378 0.923171 0.025391
0.956847 0.895598 0.0263218
0.0296635 0.944167 0.157549
0.0297551 0.944091 0.157671
0.0298466 0.944015 0.157794
0.0301671 0.943786 0.15819
0.0770581 0.946303 0.152132
0.464958 0.968948 0.101518
0.922423 0.994537 0.0407263
0.933989 0.995224 0.0390021
0.936751 0.989761 0.0382849
0.57734 0.975357 0.0854658
0.581216 0.975586 0.0849622
0.58587 0.97586 0.0843671
0.599908 0.976669 0.0825818
0.644984 0.979294 0.0768444
0.746609 0.985107 0.0635843
0.886992 0.993667 0.0451057
0.933883 0.995666 0.0392767
0.933883 0.995666 0.0392767
0 0 0
0.00361639 0.000671397 0
0.228016 0.0180972 0.000610361
0.876493 0.100084 0.0219272
0.951064 0.281895 0.277256
0.951064 0.281895 0.277256
0.951568 0.285969 0.276646
0.953338 0.388296 0.26067
0.955764 0.552178 0.22443
9.15541e-05 0.00756847 0.00901808
0.000137331 0.000122072 6.10361e-05
0.14583 0.0106661 1.5259e-05
0.721355 0.0640116 0.000228885
0.944976 0.182406 0.182895
0.951064 0.281895 0.277256
0.952102 0.305058 0.273289
0.953521 0.399939 0.258778
0.955917 0.557214 0.222736
0.00508125 0.152316 0.0548562
0.00292973 0.0993973 0.0176089
0.0671092 0.0762036 0.00282292
0.429526 0.0920272 0.000427253
0.934661 0.16939 0.0839704
0.952346 0.304799 0.273045
0.95201 0.330449 0.27097
0.95375 0.414069 0.256229
0.956085 0.563317 0.220676
0.0147402 0.449134 0.0919814
0.00851453 0.300526 0.0484627
0.00758373 0.249546 0.0409552
0.232654 0.231617 0.00579843
0.861585 0.293431 0.00410468
0.952438 0.398657 0.24062
0.953429 0.399359 0.259678
0.954711 0.452384 0.249073
0.956603 0.580865 0.214801
0.0226291 0.726329 0.121111
0.0211948 0.691279 0.115496
0.020737 0.660136 0.110338
0.0598917 0.611475 0.0962997
0.738155 0.614801 0.00274662
0.953918 0.625467 0.11133
0.95642 0.561852 0.222827
0.956542 0.557977 0.222721
0.956756 0.633158 0.197696
0.0294194 0.916747 0.153185
0.0290379 0.912261 0.152438
0.0285039 0.907057 0.152255
0.0283207 0.895598 0.149172
0.330266 0.889632 0.105882
0.941848 0.897658 0.0229343
0.957321 0.802594 0.0935378
0.958297 0.75201 0.135576
0.958648 0.749615 0.136477
0.0292973 0.944442 0.157092
0.0292973 0.944442 0.157092
0.0292973 0.944442 0.157092
0.0292973 0.944442 0.157092
0.0366674 0.943786 0.157885
0.769253 0.987137 0.0603189
0.944015 0.968139 0.0336309
0.95378 0.923171 0.025391
0.956847 0.895598 0.0263218
0.0296025 0.944198 0.157488
0.0296941 0.944152 0.157595
0.0297704 0.944076 0.157702
0.030045 0.943877 0.158038
0.0365148 0.943969 0.157259
0.293629 0.958816 0.123613
0.896773 0.993667 0.0434424
0.933883 0.995666 0.0392767
0.936751 0.989761 0.0382849
0.554742 0.974487 0.0882429
0.558709 0.974716 0.0877241
0.56347 0.97496 0.087129
0.577722 0.975738 0.0853132
0.623697 0.978225 0.079469
0.730037 0.98407 0.0661936
0.88011 0.993286 0.0460822
0.933883 0.995666 0.0392767
0.933883 0.995666 0.0392767
0.00755322 0.00354009 0.0507668
0.00360113 0.00230411 0.0324712
0.199512 0.0150912 0.000579843
0.849561 0.0911421 0.00851453
0.950957 0.2795 0.275135
0.951064 0.281895 0.277256
0.952117 0.29337 0.275654
0.954086 0.39884 0.260212
0.955764 0.552178 0.22443
0.0196078 0.0135653 0.092546
0.0104372 0.00378424 0.0574197
0.140154 0.00865187 0.0220493
0.668391 0.056199 0
0.943969 0.16228 0.16527
0.951064 0.281895 0.277256
0.952529 0.317662 0.270939
0.954131 0.410712 0.258167
0.955917 0.557214 0.222736
0.0124819 0.182483 0.208652
0.00666819 0.118532 0.124208
0.0778668 0.0894026 0.0744488
0.406699 0.0973831 0.0352331
0.922255 0.170443 0.0882887
0.951934 0.31519 0.272572
0.952682 0.346044 0.267582
0.954223 0.424903 0.255955
0.956085 0.563317 0.220676
0.0262455 0.527764 0.341512
0.0161746 0.357671 0.200534
0.0131228 0.291981 0.154467
0.235798 0.257496 0.101381
0.849943 0.306355 0.0721599
0.954009 0.409049 0.263249
0.954101 0.419028 0.25568
0.954604 0.465492 0.245838
0.956603 0.580865 0.214801
0.0295567 0.768048 0.272206
0.0284276 0.737057 0.241932
0.0258793 0.708583 0.22295
0.0442664 0.655192 0.192905
0.711498 0.643122 0.111574
0.95848 0.653773 0.219135
0.958251 0.593423 0.251621
0.956497 0.574517 0.216983
0.956756 0.633158 0.197696
0.0295872 0.926345 0.155261
0.0293736 0.922332 0.154513
0.0295567 0.91754 0.154025
0.0283055 0.907225 0.152178
0.229297 0.895872 0.12221
0.930709 0.907042 0.0913252
0.963333 0.820478 0.214069
0.957855 0.769772 0.123278
0.958648 0.749615 0.136477
0.0292973 0.944442 0.157092
0.0292973 0.944442 0.157092
0.0292973 0.944442 0.157092
0.0292973 0.944442 0.157092
0.0294041 0.94435 0.157244
0.679194 0.981506 0.0728771
0.940383 0.979095 0.0350195
0.952392 0.93402 0.0271916
0.956847 0.895598 0.0263218
0.0292973 0.944442 0.157092
0.0292973 0.944442 0.157092
0.0292973 0.944442 0.157092
0.0292973 0.944442 0.157092
0.0297551 0.944091 0.157671
0.218875 0.95494 0.133013
0.877592 0.992599 0.0470436
0.933883 0.995666 0.0392767
0.936751 0.989761 0.0382849
0.5458 0.974273 0.0915084
0.549676 0.974502 0.0909895
0.554345 0.974777 0.0903639
0.568338 0.975601 0.0884718
0.613458 0.978256 0.082414
0.719997 0.984375 0.0681468
0.874708 0.992798 0.047303
0.933883 0.995666 0.0392767
0.933883 0.995666 0.0392767
0.0446632 0.0145113 0.163943
0.0356756 0.0116121 0.135744
0.206302 0.0133669 0.0728771
0.832547 0.0794842 0.0495308
0.951751 0.274678 0.280613
0.952285 0.288075 0.305211
0.95494 0.318013 0.330694
0.956954 0.434821 0.318654
0.956954 0.586114 0.213275
0.0736553 0.0265812 0.242496
0.0552529 0.018265 0.185687
0.153033 0.014374 0.119844
0.655756 0.0479286 0.0742657
0.94667 0.144717 0.252125
0.954849 0.305364 0.357946
0.955673 0.347433 0.345418
0.957443 0.44831 0.321859
0.95697 0.591592 0.211719
0.0743877 0.22826 0.501518
0.0491951 0.147509 0.331594
0.108415 0.107073 0.221302
0.431373 0.109865 0.154376
0.919341 0.170581 0.212528
0.957641 0.358572 0.395102
0.957031 0.380804 0.360464
0.95761 0.464454 0.32665
0.957 0.598169 0.209903
0.0438849 0.610101 0.736614
0.0301366 0.433585 0.510094
0.0285649 0.351827 0.405386
0.278111 0.298192 0.293202
0.853681 0.32752 0.248508
0.961089 0.438056 0.412818
0.960311 0.461967 0.391562
0.95967 0.508202 0.337224
0.956939 0.616754 0.204456
0.0463569 0.79881 0.674189
0.0430457 0.773388 0.622309
0.0400397 0.749569 0.5785
0.0872053 0.703899 0.503441
0.722759 0.681483 0.370535
0.967742 0.677531 0.428779
0.966293 0.630777 0.440772
0.963195 0.619257 0.356603
0.957977 0.670329 0.189792
0.044831 0.928832 0.542214
0.0445411 0.926116 0.532982
0.0437324 0.923232 0.522957
0.0419776 0.914076 0.501427
0.216617 0.902831 0.448203
0.93109 0.912337 0.374273
0.971679 0.833249 0.448157
0.967636 0.794232 0.353689
0.959548 0.781384 0.159976
0.0346685 0.944869 0.283726
0.0345922 0.944839 0.282765
0.0344854 0.944808 0.281361
0.0342107 0.944778 0.277958
0.0345006 0.943984 0.27071
0.581613 0.976135 0.202319
0.950134 0.981918 0.226322
0.960754 0.939376 0.224201
0.955489 0.914534 0.0455787
0.0300298 0.94519 0.157839
0.029984 0.945144 0.157778
0.0299229 0.945068 0.157717
0.0297246 0.944884 0.157519
0.0293736 0.944533 0.157183
0.164752 0.952148 0.139834
0.846052 0.991409 0.0504005
0.933883 0.995666 0.0392767
0.934905 0.993225 0.0386358
0.54548 0.972732 0.28455
0.549081 0.972961 0.283742
0.553399 0.973236 0.28249
0.566354 0.974075 0.279286
0.608133 0.976776 0.268788
0.710628 0.983169 0.239948
0.869261 0.992035 0.186999
0.937499 0.995361 0.0989242
0.933883 0.995666 0.0392767
0.122026 0.0535744 0.426429
0.113619 0.0491035 0.397177
0.22475 0.0285191 0.230518
0.827314 0.064744 0.187854
0.955932 0.276799 0.384314
0.957488 0.316228 0.427253
0.960357 0.360327 0.467567
0.965057 0.493782 0.504036
0.968414 0.642664 0.482383
0.181796 0.0835279 0.600855
0.154406 0.0698711 0.527123
0.195193 0.0442206 0.35111
0.661234 0.0446021 0.260899
0.951492 0.121141 0.407919
0.959136 0.313039 0.469245
0.962432 0.397009 0.491035
0.965728 0.506706 0.510292
0.968582 0.64741 0.483543
0.257389 0.300206 0.828489
0.193729 0.210513 0.719615
0.185595 0.137118 0.538262
0.510903 0.124956 0.403403
0.923674 0.172915 0.42623
0.962768 0.373846 0.516365
0.964874 0.437201 0.518074
0.966995 0.521828 0.51751
0.968811 0.653117 0.485008
0.187472 0.693126 0.990311
0.140688 0.53341 0.871733
0.146044 0.440894 0.779034
0.390082 0.3635 0.632517
0.874311 0.356832 0.529656
0.967117 0.45977 0.58378
0.968978 0.523812 0.569314
0.96878 0.563409 0.536294
0.969421 0.669551 0.48893
0.058793 0.824445 0.985519
0.057435 0.802197 0.955962
0.0553597 0.780819 0.928985
0.190707 0.747036 0.858015
0.766918 0.720226 0.710857
0.977081 0.69691 0.677104
0.975311 0.673701 0.63856
0.973053 0.661143 0.573907
0.971099 0.7149 0.498283
0.0593576 0.923888 0.937972
0.058381 0.921584 0.932158
0.058793 0.919676 0.926146
0.0579538 0.910872 0.909087
0.27245 0.905806 0.845762
0.932525 0.91371 0.715511
0.9823 0.844434 0.688533
0.978241 0.809445 0.613413
0.973953 0.806394 0.504814
0.0523995 0.942901 0.740307
0.0523995 0.94284 0.740642
0.0523995 0.942763 0.741054
0.0525978 0.942367 0.742382
0.0535897 0.940703 0.747448
0.520577 0.969787 0.659022
0.96759 0.982116 0.585901
0.976944 0.938125 0.558389
0.972961 0.9187 0.445869
0.0479744 0.941939 0.620966
0.0478981 0.941939 0.619074
0.0478065 0.941924 0.616709
0.0475166 0.941909 0.609567
0.0564736 0.942412 0.58674
0.222278 0.953124 0.509819
0.820035 0.988373 0.356405
0.949203 0.994629 0.317372
0.943832 0.993896 0.212146
0.586801 0.973114 0.677928
0.589761 0.973297 0.677119
0.593256 0.973526 0.675959
0.603891 0.974212 0.673075
0.638041 0.976425 0.663188
0.725124 0.981811 0.635798
0.873518 0.990356 0.572137
0.956542 0.99411 0.453422
0.944579 0.994369 0.229557
0.282414 0.131609 0.776791
0.282414 0.131609 0.776791
0.258686 0.0863966 0.601251
0.828275 0.0616922 0.432731
0.958785 0.207797 0.511971
0.962127 0.287114 0.546029
0.964736 0.349416 0.583688
0.971481 0.519951 0.64271
0.977935 0.692714 0.693004
0.479103 0.206195 0.879713
0.487129 0.209094 0.88188
0.312154 0.132189 0.773266
0.708568 0.107912 0.607004
0.956191 0.081651 0.611704
0.96463 0.300572 0.595758
0.967575 0.386069 0.607584
0.972366 0.53489 0.650874
0.978195 0.696468 0.694636
0.64007 0.38172 0.940764
0.623026 0.369985 0.938293
0.405509 0.208881 0.858885
0.65539 0.16025 0.724056
0.935271 0.179599 0.669932
0.965881 0.334936 0.641901
0.968215 0.426108 0.631266
0.973632 0.552438 0.660258
0.978485 0.700999 0.696605
0.503502 0.692241 0.99971
0.508385 0.652354 0.999954
0.411643 0.548837 0.972229
0.595376 0.444007 0.875853
0.902052 0.393423 0.776623
0.973251 0.440253 0.735622
0.973663 0.520043 0.680507
0.975021 0.599527 0.683238
0.979324 0.713909 0.702174
0.228 0.832349 0.999939
0.221927 0.819547 0.999878
0.228229 0.804517 0.999527
0.405219 0.783398 0.999344
0.829496 0.752895 0.910964
0.984771 0.704234 0.848508
0.981506 0.694392 0.76318
0.980636 0.704097 0.73695
0.980407 0.750027 0.717159
0.0658122 0.911131 0.999954
0.0653849 0.909163 1
0.0634928 0.906401 0.999985
0.0715496 0.900816 0.999634
0.419852 0.90721 0.999084
0.933364 0.906996 0.904402
0.987808 0.857023 0.842054
0.985168 0.824842 0.792859
0.983383 0.821134 0.742428
0.0627298 0.941939 0.999695
0.0626535 0.941894 0.999557
0.0626535 0.941955 0.999268
0.062623 0.942168 0.998352
0.0625315 0.94258 0.995224
0.480018 0.966674 0.934127
0.976379 0.976623 0.83888
0.989013 0.935103 0.80354
0.985718 0.917327 0.745876
0.0691997 0.942168 0.950164
0.0715953 0.942275 0.949355
0.0746014 0.942412 0.948333
0.0832685 0.942794 0.945312
0.132372 0.945556 0.933593
0.366415 0.959609 0.892195
0.824475 0.987091 0.782895
0.969467 0.992233 0.702159
0.966033 0.992508 0.626245
0.670192 0.978195 0.918898
0.672724 0.978347 0.918517
0.675746 0.978515 0.918074
0.68484 0.979049 0.916716
0.714168 0.980774 0.912322
0.779858 0.984741 0.89958
0.883696 0.990555 0.866911
0.975097 0.993439 0.800549
0.96817 0.993347 0.676585
0.65243 0.2934 0.924331
0.653269 0.293065 0.924392
0.654139 0.292699 0.924437
0.772808 0.179217 0.794095
0.965454 0.101411 0.745846
0.965942 0.227893 0.687816
0.968933 0.329976 0.707912
0.975433 0.496635 0.747372
0.981918 0.690974 0.791959
0.671336 0.293492 0.921843
0.671656 0.293477 0.921782
0.672358 0.293462 0.92163
0.763455 0.253834 0.884672
0.954559 0.171389 0.803632
0.968246 0.251316 0.736248
0.971038 0.363134 0.725078
0.975662 0.511315 0.753902
0.98204 0.695247 0.793835
0.683726 0.293919 0.919036
0.683986 0.293919 0.918975
0.684184 0.293919 0.918929
0.775662 0.292897 0.906569
0.941024 0.209506 0.835431
0.970214 0.284108 0.780484
0.972351 0.400793 0.742702
0.976074 0.528237 0.761196
0.982177 0.700404 0.796109
0.650339 0.514946 0.963058
0.65005 0.515816 0.963287
0.650095 0.505425 0.96144
0.719005 0.462989 0.94519
0.924071 0.430579 0.908217
0.977111 0.413809 0.859648
0.975952 0.491035 0.779736
0.978668 0.574807 0.778332
0.982589 0.715434 0.80267
0.370825 0.807446 0.999847
0.471977 0.753811 0.999893
0.474952 0.743893 0.999924
0.573663 0.735454 0.999878
0.858473 0.733516 0.971069
0.98761 0.690089 0.939941
0.983108 0.661768 0.842039
0.982284 0.679927 0.818723
0.984619 0.754757 0.819623
0.175586 0.871855 0.999985
0.197574 0.872236 1
0.225437 0.872038 0.999939
0.317235 0.873487 1
0.627878 0.885054 0.999893
0.933562 0.88629 0.986114
0.991226 0.841062 0.921111
0.98819 0.819028 0.872953
0.987884 0.829755 0.854749
0.0666819 0.941299 0.999786
0.0665751 0.941115 0.999741
0.0664988 0.940795 0.999725
0.0665599 0.939467 0.999939
0.137758 0.941436 0.999908
0.603143 0.961822 0.999817
0.971206 0.962097 0.960723
0.993072 0.930999 0.920958
0.991455 0.915206 0.88954
0.125093 0.9458 0.999939
0.129946 0.946059 0.999939
0.135653 0.94638 0.999954
0.152514 0.947295 0.999954
0.206638 0.950561 0.999985
0.393515 0.962737 0.999664
0.843473 0.989853 0.956985
0.986419 0.995285 0.905928
0.983551 0.992035 0.873289
0.676432 0.979568 0.999527
0.678492 0.97969 0.999512
0.680964 0.979843 0.999512
0.68838 0.980316 0.999466
0.712291 0.981826 0.999359
0.775311 0.985946 0.998581
0.8878 0.992813 0.987778
0.98233 0.996902 0.957061
0.986679 0.995605 0.908141
0.675212 0.294392 0.920958
0.67538 0.294331 0.920974
0.675578 0.294286 0.921004
0.676097 0.294102 0.921065
0.903777 0.286351 0.887312
0.970947 0.188785 0.856687
0.972488 0.307271 0.816754
0.97705 0.452354 0.835798
0.983978 0.647013 0.868513
0.68336 0.294453 0.918883
0.683574 0.294438 0.918853
0.683833 0.294423 0.918807
0.684596 0.294362 0.918669
0.884779 0.289067 0.891325
0.972793 0.221286 0.86685
0.973434 0.332967 0.826566
0.977432 0.465583 0.84033
0.984161 0.651637 0.8701
0.689586 0.362097 0.931136
0.689616 0.364736 0.931594
0.689647 0.367971 0.932158
0.688426 0.375998 0.933669
0.868055 0.290837 0.89369
0.9738 0.25417 0.872053
0.975402 0.362737 0.837201
0.977707 0.481025 0.845533
0.984375 0.65713 0.872007
0.594232 0.632227 0.989364
0.59379 0.632883 0.989532
0.592889 0.634165 0.989853
0.590204 0.638041 0.990829
0.838849 0.309163 0.900328
0.977172 0.367651 0.891798
0.977951 0.43917 0.862318
0.979889 0.523476 0.859312
0.984863 0.672969 0.877089
0.228061 0.857633 0.999405
0.227527 0.857801 0.99939
0.226978 0.857954 0.99939
0.461006 0.762097 0.999695
0.788128 0.585245 0.956146
0.957305 0.609735 0.93637
0.984054 0.599481 0.908644
0.983841 0.625834 0.889021
0.985794 0.714656 0.889952
0.0658732 0.900053 0.999649
0.0919661 0.889632 0.999481
0.139727 0.87953 0.999649
0.244327 0.858564 0.999863
0.608087 0.830961 0.999832
0.899794 0.815045 0.979507
0.991379 0.807019 0.965194
0.989899 0.78085 0.935485
0.988815 0.79852 0.917678
0.0665446 0.940383 0.99968
0.0666209 0.939574 0.999634
0.0667277 0.938613 0.999573
0.0673228 0.935515 0.999939
0.177325 0.933639 0.999939
0.668956 0.941039 0.999496
0.958984 0.932403 0.991485
0.994965 0.911269 0.975158
0.993927 0.90045 0.95108
0.103517 0.944457 0.999893
0.106432 0.94461 0.999893
0.110018 0.944793 0.999878
0.128237 0.945937 0.999908
0.18613 0.949584 0.999985
0.367163 0.960525 0.999252
0.822782 0.988312 0.999924
0.996002 0.997909 0.997269
0.99649 0.987411 0.979232
0.611307 0.975097 0.999802
0.613642 0.975235 0.999802
0.616449 0.975402 0.999786
0.624842 0.975921 0.999756
0.652857 0.977661 0.999649
0.728237 0.982238 0.999649
0.865339 0.990997 0.999634
0.978058 0.997986 0.998672
0.999725 1 0.999664
0.575875 0.658564 0.995758
0.575051 0.659556 0.995834
0.574075 0.660746 0.995941
0.571298 0.664088 0.996231
0.561837 0.675532 0.997238
0.924605 0.281147 0.883268
0.974182 0.279622 0.876188
0.978225 0.384131 0.893706
0.983963 0.564477 0.921248
0.541283 0.700389 0.99942
0.540459 0.701366 0.999496
0.539574 0.702296 0.999557
0.5364 0.705013 0.999573
0.526284 0.713634 0.999603
0.921263 0.281544 0.884581
0.975052 0.294148 0.878996
0.978347 0.39411 0.895552
0.9841 0.568948 0.922286
0.495903 0.739498 0.999695
0.495109 0.740185 0.999695
0.494118 0.741024 0.999695
0.491341 0.743389 0.99971
0.4813 0.749935 0.999725
0.918288 0.282673 0.885145
0.975708 0.309895 0.881819
0.9785 0.405814 0.897704
0.984268 0.574365 0.923537
0.363134 0.810086 0.999634
0.362646 0.810269 0.999634
0.361654 0.810666 0.999649
0.359182 0.811627 0.999649
0.351034 0.814832 0.99968
0.908934 0.318105 0.892256
0.976638 0.352468 0.888518
0.979568 0.438499 0.904036
0.984756 0.58996 0.927153
0.0732433 0.895125 0.999786
0.0731975 0.895201 0.999786
0.073106 0.895338 0.999786
0.0728618 0.895689 0.999771
0.0720073 0.896941 0.999725
0.883665 0.593942 0.943694
0.981994 0.496025 0.913054
0.982193 0.527016 0.918441
0.985779 0.63418 0.935409
0.067277 0.942596 1
0.067277 0.942596 1
0.067277 0.942596 1
0.067277 0.942596 1
0.0751049 0.896025 0.999832
0.8103 0.8336 0.995514
0.98233 0.778683 0.961288
0.988113 0.705806 0.948623
0.989258 0.730602 0.952529
0.067277 0.942596 1
0.067277 0.942596 1
0.067277 0.942596 1
0.067277 0.942596 1
0.0672313 0.942473 1
0.353399 0.941665 1
0.931334 0.938537 0.996185
0.994629 0.899397 0.980697
0.993286 0.864805 0.975464
0.067277 0.942596 1
0.067277 0.942596 1
0.067277 0.942596 1
0.0673533 0.94255 1
0.0678569 0.94229 1
0.239521 0.953094 0.999695
0.740185 0.983337 0.999481
0.986358 0.998352 0.998764
0.996582 0.984756 0.994705
0.493263 0.968215 0.99971
0.495705 0.968368 0.999695
0.499214 0.968597 0.999695
0.508751 0.969207 0.99968
0.539895 0.971206 0.999634
0.633173 0.977127 0.999527
0.821439 0.988144 0.999527
0.964965 0.996826 0.999603
1 1 1
