Luts/Fujifilm/FLog2C_to_REALA-ACE_VLog.cube
TITLE "Generated by Resolve"
LUT_3D_SIZE 33
0 0 0
0 0 0
0 0 0
0 0 0
0.0110018 0.00141909 0.000350958
0.0489967 3.0518e-05 0.00306706
0.098024 0 0.00144961
0.203937 0.000503548 0.00489815
0.357107 0.000259403 0.0166476
0.497841 0.000518807 0.0303044
0.630793 4.57771e-05 0.0529946
0.76228 0.000320439 0.103563
0.873075 0.122347 0.226017
0.909728 0.183612 0.361791
0.919524 0.229786 0.426154
0.935958 0.30399 0.46598
0.940826 0.327153 0.473701
0.940826 0.327153 0.473701
0.940826 0.327153 0.473701
0.940826 0.327153 0.473701
0.940826 0.327153 0.473701
0.940826 0.327153 0.473701
0.940826 0.327153 0.473701
0.940826 0.327153 0.473701
0.940902 0.330694 0.473457
0.945388 0.349218 0.457481
0.950591 0.373526 0.436896
0.957259 0.399695 0.413108
0.963836 0.430701 0.382132
0.971588 0.465202 0.348394
0.977035 0.501366 0.30811
0.981537 0.539834 0.252049
0.983001 0.577996 0.188617
0 0 0
0 0 0
0 0 0
0 0 0
0.0146029 0.000595102 0.00015259
0.0577707 0 0.00257877
0.109545 0 0.002121
0.221012 0.000671397 0.00508125
0.371206 0.000183108 0.0177768
0.50721 0.00062562 0.0311437
0.637079 3.0518e-05 0.0541085
0.76672 0.000335698 0.106188
0.874846 0.125032 0.228595
0.909987 0.184329 0.36524
0.919738 0.230747 0.426719
0.936172 0.304936 0.466438
0.94081 0.327092 0.473686
0.940826 0.327153 0.473701
0.940826 0.327153 0.473701
0.940826 0.327153 0.473701
0.940826 0.327153 0.473701
0.940826 0.327153 0.473701
0.940826 0.327153 0.473701
0.940826 0.327153 0.473701
0.941878 0.334478 0.470954
0.946303 0.353643 0.453376
0.951537 0.377752 0.432853
0.95816 0.402869 0.410376
0.964248 0.433234 0.379355
0.972015 0.467491 0.345907
0.977264 0.503227 0.305913
0.981689 0.541192 0.249851
0.983063 0.579049 0.186282
0 0 0
0 0 0
0 0 0
0 0 0
0.0196231 3.0518e-05 4.57771e-05
0.0672923 0 0.00122072
0.12462 0 0.00291447
0.237171 0.000595102 0.00674449
0.378302 0.000122072 0.0177005
0.507362 0.000488289 0.0294347
0.629007 0.000198367 0.0515602
0.75433 0.00015259 0.0975357
0.860639 0.103609 0.205188
0.906981 0.176761 0.32697
0.915358 0.209827 0.415122
0.926482 0.258717 0.44303
0.938308 0.31487 0.471046
0.940871 0.327092 0.473838
0.940826 0.327153 0.473701
0.940826 0.327153 0.473701
0.940826 0.327153 0.473701
0.940826 0.327153 0.473701
0.940826 0.327153 0.473701
0.940826 0.327153 0.473701
0.943603 0.339635 0.46656
0.947143 0.357748 0.449577
0.952453 0.381765 0.429007
0.959045 0.405936 0.407752
0.96466 0.435767 0.376562
0.972457 0.469886 0.343313
0.977508 0.505074 0.303655
0.981735 0.542519 0.247623
0.983124 0.580102 0.183948
0 0 0
0 0 0
0 0 0
0 0 0
0.0125734 0.000381476 0.000106813
0.0423438 1.5259e-05 0.00131228
0.0869001 0.000167849 0.00323491
0.161212 0.000213626 0.00637827
0.297047 4.57771e-05 0.0126345
0.43183 3.0518e-05 0.0238346
0.554467 6.10361e-05 0.0374762
0.676753 0.000137331 0.0599069
0.79263 0.00376898 0.122316
0.888045 0.144549 0.24538
0.908919 0.18323 0.360754
0.91696 0.21973 0.421546
0.928206 0.270451 0.44651
0.939742 0.322881 0.472694
0.940826 0.327153 0.473701
0.940826 0.327153 0.473701
0.940826 0.327153 0.473701
0.940826 0.327153 0.473701
0.940826 0.327153 0.473701
0.94139 0.329534 0.472541
0.944961 0.344488 0.462242
0.947982 0.361776 0.445853
0.953368 0.385702 0.425299
0.959915 0.40914 0.404913
0.965148 0.438392 0.373907
0.972839 0.472145 0.340826
0.977691 0.506859 0.301015
0.981781 0.543832 0.245396
0.983169 0.581155 0.181613
0.000213626 0.0078584 7.62951e-05
0.000183108 0.00834669 6.10361e-05
0.000137331 0.00779736 4.57771e-05
0.000289921 0.00343328 7.62951e-05
0.00518807 6.10361e-05 7.62951e-05
0.0311589 3.0518e-05 0.000640879
0.0613565 0.000289921 0.00129702
0.114061 0.000167849 0.0027924
0.216678 0.000198367 0.00810254
0.355077 0 0.0152438
0.484047 1.5259e-05 0.0270848
0.597925 0.000198367 0.0457771
0.720592 0.000122072 0.0798505
0.826795 0.0504616 0.16437
0.902861 0.167315 0.283513
0.91165 0.194125 0.399313
0.920958 0.235142 0.431601
0.934386 0.296208 0.461463
0.94081 0.327077 0.473671
0.940826 0.327153 0.473701
0.940826 0.327153 0.473701
0.940826 0.327153 0.473701
0.940917 0.327474 0.473365
0.942687 0.335058 0.469856
0.945602 0.34963 0.457145
0.949233 0.366155 0.4421
0.954467 0.3897 0.422034
0.960739 0.412833 0.401312
0.96585 0.441398 0.371313
0.973175 0.474266 0.33843
0.977874 0.508553 0.298512
0.981842 0.545251 0.243
0.98323 0.582177 0.179339
0 0.0334173 0.000198367
0 0.0340581 0.000198367
0.00062562 0.0269017 0.000595102
0.000137331 0.0186923 9.15541e-05
0.00141909 0.0113985 4.57771e-05
0.0194095 0.00898756 6.10361e-05
0.0477607 0.00450141 0.000381476
0.0842145 0.00149538 0.00109865
0.157473 4.57771e-05 0.00451667
0.284794 0.000106813 0.0107424
0.414633 0.000106813 0.0205844
0.53785 0 0.031693
0.656931 0 0.0561837
0.777386 0.00158694 0.112612
0.875334 0.127642 0.225834
0.90808 0.180362 0.345647
0.917342 0.215503 0.421088
0.927657 0.2701 0.446281
0.940826 0.327153 0.473701
0.940826 0.327153 0.473701
0.940826 0.327153 0.473701
0.941146 0.328099 0.473228
0.941833 0.330526 0.470237
0.943893 0.340551 0.465171
0.946197 0.354299 0.452506
0.950393 0.370306 0.43856
0.95555 0.393622 0.418845
0.961547 0.416449 0.397803
0.966522 0.444297 0.368811
0.973526 0.476493 0.335943
0.978073 0.510338 0.295872
0.981872 0.546532 0.240848
0.983276 0.583124 0.177234
1.5259e-05 0.0624704 0.000549325
1.5259e-05 0.0638132 0.000549325
0.000366217 0.0547494 0.000366217
6.10361e-05 0.0409857 4.57771e-05
0.00030518 0.0313573 7.62951e-05
0.00764477 0.0262455 0.00015259
0.037705 0.0227054 0
0.0722972 0.0200351 7.62951e-05
0.139101 0.0141604 0.000427253
0.247105 0.00712596 0.00256352
0.371572 0.00129702 0.0128634
0.496208 0.00015259 0.0246891
0.612451 0.000137331 0.0470283
0.73521 0.000183108 0.0849165
0.841611 0.0760052 0.181079
0.906172 0.172854 0.304814
0.914076 0.201572 0.413306
0.924681 0.254719 0.435889
0.939315 0.317052 0.469551
0.940826 0.327153 0.473701
0.940826 0.327153 0.473701
0.942092 0.330922 0.471855
0.942901 0.335332 0.466361
0.945129 0.3467 0.457542
0.94725 0.359319 0.447684
0.951583 0.374517 0.434943
0.956619 0.397467 0.415702
0.962356 0.42005 0.394293
0.967193 0.447211 0.366293
0.973877 0.47863 0.333547
0.978241 0.511986 0.293416
0.981933 0.547845 0.238621
0.983337 0.584176 0.174899
0.000274662 0.123674 4.57771e-05
0.000274662 0.125231 1.5259e-05
1.5259e-05 0.105013 0.000183108
0.000198367 0.0782788 1.5259e-05
0.000381476 0.0581674 0.000244144
0.0019379 0.0485389 1.5259e-05
0.0260929 0.0459297 1.5259e-05
0.0691997 0.0443122 1.5259e-05
0.131014 0.0445106 0.00030518
0.230808 0.0401617 0.000122072
0.34342 0.0267643 4.57771e-05
0.462043 0.0129091 0.00453193
0.578988 0.000732433 0.0227207
0.69807 4.57771e-05 0.057084
0.811933 0.0339513 0.131868
0.900069 0.16405 0.264591
0.912184 0.193439 0.38584
0.922194 0.238682 0.425635
0.936309 0.302022 0.462852
0.941619 0.331624 0.471702
0.941314 0.332555 0.470436
0.943572 0.33698 0.467048
0.94435 0.343725 0.460716
0.946715 0.353857 0.450309
0.948775 0.365179 0.442145
0.952911 0.380179 0.429679
0.95787 0.401999 0.411994
0.963302 0.424338 0.390112
0.967987 0.450645 0.363333
0.974289 0.481193 0.330678
0.978469 0.514061 0.290349
0.981979 0.549371 0.236057
0.983398 0.585443 0.172107
0.000137331 0.20177 0
9.15541e-05 0.201053 1.5259e-05
0.000228885 0.17023 6.10361e-05
0.000274662 0.137591 0.000167849
0 0.107942 0.000183108
0.000457771 0.092195 0.000534066
0.0165866 0.0914931 0.000442512
0.0616922 0.0869154 0
0.125322 0.085008 0.000137331
0.211749 0.0797742 0.000411994
0.317662 0.0710765 0
0.431708 0.0559854 0
0.547066 0.039704 0.00190738
0.665461 0.0265507 0.0229191
0.77995 0.0386511 0.0761425
0.877836 0.145998 0.197208
0.911772 0.200977 0.322011
0.922118 0.240482 0.400992
0.935332 0.298238 0.436133
0.943496 0.343053 0.462562
0.944488 0.345281 0.460807
0.945647 0.347951 0.457618
0.946868 0.354009 0.452399
0.94931 0.363943 0.444297
0.950866 0.373053 0.435126
0.95462 0.388418 0.421668
0.959091 0.407797 0.405707
0.964569 0.429969 0.384634
0.969055 0.455238 0.359365
0.974838 0.484611 0.326833
0.978775 0.516838 0.286244
0.982055 0.551598 0.232288
0.98349 0.587121 0.168368
0 0.28275 7.62951e-05
3.0518e-05 0.266438 0.000106813
0.000244144 0.235904 0.00062562
3.0518e-05 0.204471 1.5259e-05
3.0518e-05 0.174624 1.5259e-05
0.000579843 0.157595 0.000106813
0.00146487 0.147646 0.000350958
0.0382239 0.14139 0.000488289
0.104021 0.137865 0.000289921
0.19089 0.129519 0.000289921
0.288075 0.120211 0
0.397162 0.109117 0.000396735
0.513664 0.0928511 0.000274662
0.630945 0.0789654 0.00135805
0.748638 0.0845808 0.034165
0.85304 0.134829 0.120409
0.914809 0.217029 0.254124
0.924254 0.253697 0.365118
0.935225 0.301534 0.403754
0.947814 0.357488 0.444877
0.949142 0.362036 0.445914
0.948943 0.362676 0.444282
0.949523 0.366751 0.440635
0.951858 0.374807 0.434409
0.953994 0.384405 0.426535
0.95671 0.39826 0.412192
0.96051 0.415213 0.397055
0.965576 0.436805 0.377554
0.970459 0.461234 0.354192
0.97557 0.489158 0.321752
0.979171 0.520516 0.280812
0.982162 0.554437 0.227497
0.983612 0.589334 0.16347
0.0656138 0.364294 0.0378729
0.0350652 0.329732 0.0168154
0.00715648 0.297124 0.000213626
0.000366217 0.269368 0.000106813
0 0.249042 0.000259403
0 0.230137 3.0518e-05
0.000381476 0.219272 0.000396735
0.0154269 0.208911 0.000488289
0.0738384 0.198337 0.000442512
0.159121 0.190631 0.000320439
0.254185 0.182574 0.000167849
0.360632 0.165316 0.000137331
0.476921 0.151644 0
0.596353 0.140963 0.00015259
0.716518 0.141176 0.00408942
0.82649 0.162493 0.0582589
0.915496 0.240467 0.186526
0.928695 0.277882 0.30927
0.937438 0.314748 0.362753
0.948928 0.36527 0.41059
0.953597 0.382956 0.427832
0.953399 0.383383 0.425757
0.953826 0.385458 0.426795
0.955383 0.38999 0.421668
0.957473 0.398276 0.413703
0.959167 0.409354 0.402029
0.962524 0.424994 0.38677
0.966766 0.445441 0.368505
0.971801 0.468925 0.345998
0.976532 0.495094 0.315068
0.97969 0.525368 0.27364
0.9823 0.55819 0.221164
0.983764 0.592279 0.156924
0.117174 0.43386 0.0803235
0.0867018 0.391928 0.0543221
0.0600595 0.358495 0.0339818
0.0386816 0.333318 0.0192264
0.0206607 0.31368 0.0081178
0.0096437 0.299428 0.000732433
0.00030518 0.286183 0.000122072
0.00254826 0.273991 0.00047303
0.0358282 0.264729 1.5259e-05
0.113054 0.254261 6.10361e-05
0.216205 0.245991 1.5259e-05
0.322637 0.23563 0.000900282
0.431693 0.220111 0.00015259
0.555947 0.206271 0.000381476
0.682887 0.202747 0.000213626
0.794491 0.216632 0.00880446
0.900359 0.258732 0.10367
0.936584 0.310933 0.233433
0.943786 0.341161 0.315999
0.953552 0.382223 0.368185
0.960021 0.410864 0.403159
0.959045 0.40737 0.407126
0.959014 0.408316 0.403998
0.959915 0.411383 0.402014
0.96141 0.416632 0.396872
0.962692 0.424994 0.387121
0.965637 0.438376 0.375463
0.96875 0.457053 0.356359
0.973526 0.478721 0.335515
0.977951 0.50399 0.304814
0.980301 0.531731 0.263951
0.982483 0.563149 0.212787
0.983978 0.596185 0.148287
0.160235 0.496422 0.116258
0.134081 0.458503 0.0943618
0.111391 0.426276 0.0752728
0.0945754 0.402396 0.061738
0.0809491 0.384161 0.0499123
0.0698253 0.37055 0.0414893
0.0612955 0.358618 0.0342107
0.0531472 0.348409 0.0281682
0.051667 0.336812 0.0202487
0.0876478 0.324254 0.00610361
0.165591 0.315007 0.000366217
0.277058 0.305211 0.000106813
0.392721 0.294347 0
0.51548 0.279225 0
0.641672 0.272297 0.000213626
0.763485 0.269932 3.0518e-05
0.876249 0.302434 0.0393683
0.943938 0.356329 0.152895
0.952743 0.384558 0.25417
0.959533 0.409125 0.310353
0.966171 0.440757 0.364477
0.966003 0.438972 0.376944
0.965042 0.435996 0.37879
0.965408 0.436316 0.378927
0.966369 0.440253 0.375708
0.967666 0.446403 0.367163
0.969757 0.457496 0.356023
0.972137 0.472847 0.33991
0.975738 0.491859 0.320668
0.979782 0.515526 0.291493
0.980835 0.539956 0.250294
0.982696 0.56965 0.201343
0.984268 0.601343 0.136843
0.199176 0.552682 0.14931
0.17702 0.520363 0.130159
0.161166 0.497856 0.116381
0.147051 0.47744 0.104997
0.137362 0.462928 0.0965896
0.128634 0.450202 0.0896468
0.122347 0.441474 0.0847181
0.11371 0.430365 0.078233
0.107073 0.418357 0.0709087
0.112459 0.405463 0.0584573
0.150332 0.39205 0.0330663
0.230747 0.380591 0.00401312
0.348135 0.371206 0.000411994
0.477623 0.360082 0
0.600305 0.346716 0
0.723827 0.337652 0.000488289
0.844846 0.353628 0.00979629
0.944976 0.402899 0.0868696
0.961593 0.441382 0.1691
0.966354 0.452598 0.237232
0.972625 0.477058 0.303044
0.973129 0.475105 0.339162
0.972152 0.47042 0.344198
0.970886 0.467597 0.345953
0.971405 0.46775 0.346593
0.972366 0.471809 0.341085
0.973693 0.480537 0.330938
0.975677 0.492622 0.317143
0.978622 0.509316 0.29987
0.98088 0.529061 0.271901
0.981506 0.55053 0.232761
0.98294 0.578332 0.184985
0.984237 0.608606 0.121965
0.238727 0.609293 0.183627
0.222751 0.586969 0.170169
0.211231 0.570428 0.159731
0.201251 0.555688 0.151858
0.193378 0.543832 0.144839
0.186175 0.5337 0.138613
0.180117 0.52549 0.133639
0.175128 0.517433 0.129381
0.166598 0.505837 0.122332
0.161715 0.493584 0.11371
0.172671 0.480018 0.100526
0.221347 0.46392 0.0656748
0.30602 0.454047 0.014435
0.425971 0.444419 0
0.561334 0.430793 0.000579843
0.686366 0.41915 0.000137331
0.814374 0.423697 0
0.927871 0.458869 0.0430457
0.964782 0.496391 0.083772
0.969329 0.505959 0.141833
0.974655 0.51722 0.215259
0.980438 0.518959 0.286015
0.978164 0.510521 0.295445
0.977523 0.505562 0.302998
0.978531 0.503517 0.305089
0.977432 0.503487 0.306172
0.978286 0.508049 0.299413
0.978943 0.515938 0.28661
0.980743 0.52903 0.270344
0.981003 0.544915 0.244388
0.982132 0.56466 0.208484
0.983261 0.589502 0.163958
0.983688 0.618647 0.102785
0.305257 0.677333 0.243061
0.285588 0.661295 0.225345
0.267445 0.646616 0.209369
0.259052 0.636515 0.201404
0.251759 0.62739 0.194842
0.24477 0.61883 0.18909
0.240146 0.611917 0.185
0.23505 0.603815 0.180346
0.227314 0.592538 0.173129
0.220813 0.582498 0.167071
0.220081 0.569833 0.156939
0.241443 0.555611 0.139986
0.298024 0.543313 0.103075
0.388724 0.530434 0.031632
0.517128 0.52134 7.62951e-05
0.652781 0.51574 0
0.782727 0.517052 0.00015259
0.906722 0.536095 0.00769055
0.972015 0.563409 0.0450904
0.974182 0.572122 0.0462806
0.975418 0.569192 0.0971389
0.981186 0.564584 0.193042
0.981506 0.553338 0.228519
0.982315 0.546792 0.242527
0.980819 0.5411 0.249989
0.980362 0.539254 0.252644
0.980743 0.539178 0.253101
0.980667 0.543755 0.245487
0.982238 0.552911 0.231128
0.982269 0.566171 0.20795
0.982712 0.582879 0.176516
0.983429 0.605005 0.133272
0.982986 0.631495 0.0782177
0.40708 0.755642 0.337942
0.392294 0.744427 0.323842
0.379156 0.734707 0.311879
0.367224 0.726406 0.300557
0.356847 0.719265 0.290669
0.347478 0.712077 0.281773
0.339391 0.705837 0.274113
0.330632 0.698695 0.265934
0.320226 0.69012 0.256275
0.308049 0.680171 0.245014
0.295216 0.668589 0.231235
0.291783 0.655665 0.211688
0.319188 0.642222 0.185153
0.39057 0.632853 0.145006
0.490745 0.62475 0.0668498
0.620569 0.618708 4.57771e-05
0.759915 0.619821 0.000915541
0.879759 0.6206 0.000183108
0.970733 0.630808 0.00363165
0.978347 0.651011 0
0.978714 0.639002 0.00596628
0.981445 0.621332 0.0626078
0.983474 0.601999 0.135485
0.984222 0.593896 0.159716
0.983932 0.585016 0.174716
0.983215 0.578149 0.186145
0.983078 0.576333 0.189929
0.983001 0.57821 0.187915
0.983673 0.582589 0.177188
0.983093 0.590997 0.157702
0.983078 0.604196 0.129229
0.98349 0.625269 0.092256
0.98201 0.64828 0.0464027
0.518669 0.834943 0.445747
0.509194 0.82858 0.436576
0.500359 0.82266 0.428016
0.492363 0.817243 0.42031
0.485161 0.812375 0.413367
0.47834 0.807553 0.406821
0.471839 0.802563 0.400656
0.464302 0.796765 0.39353
0.455558 0.790326 0.384634
0.444846 0.782589 0.373465
0.430045 0.772335 0.358755
0.418158 0.760952 0.341466
0.421149 0.749813 0.318044
0.449546 0.741726 0.282933
0.510063 0.733349 0.211933
0.606195 0.726177 0.106752
0.729351 0.712779 0.00318914
0.856703 0.705867 3.0518e-05
0.967941 0.700282 0
0.981918 0.70605 1.5259e-05
0.981964 0.703044 0.000244144
0.981552 0.69221 0.000137331
0.981598 0.660685 0.0300145
0.982406 0.646601 0.0500496
0.982391 0.633585 0.0751049
0.983551 0.624872 0.0909438
0.9823 0.618189 0.102159
0.983444 0.61561 0.107454
0.982986 0.617151 0.104509
0.983108 0.623194 0.0946517
0.982254 0.63267 0.0729534
0.982483 0.648692 0.0436866
0.980789 0.66949 0.00704967
0.620615 0.902434 0.548898
0.615778 0.899748 0.544274
0.610742 0.896941 0.539437
0.606119 0.893858 0.534676
0.601785 0.890959 0.530205
0.597543 0.888121 0.525826
0.592737 0.884978 0.520821
0.586923 0.881209 0.514702
0.579355 0.876295 0.506706
0.571328 0.871031 0.498451
0.562066 0.864912 0.489036
0.549691 0.85658 0.4757
0.542214 0.84596 0.456413
0.548165 0.833417 0.426032
0.576226 0.820462 0.376852
0.632959 0.810162 0.28426
0.717922 0.800793 0.123491
0.825635 0.785138 0
0.937789 0.775525 0
0.98526 0.771527 0
0.983581 0.761578 7.62951e-05
0.983688 0.745602 0.000396735
0.982559 0.727871 3.0518e-05
0.981277 0.706981 7.62951e-05
0.980667 0.693202 0.00178531
0.978912 0.679057 0.00376898
0.981399 0.669581 0.0139315
0.980591 0.663066 0.0209659
0.981094 0.659724 0.0264134
0.982834 0.662638 0.0182956
0.981399 0.668055 0.0147402
0.98114 0.679393 0.00921645
0.98146 0.69688 0.00173953
0.662181 0.928283 0.592065
0.661616 0.927962 0.591516
0.661067 0.927657 0.590982
0.6607 0.927428 0.5906
0.660304 0.927184 0.590173
0.659907 0.92694 0.589746
0.65951 0.926696 0.589334
0.659205 0.926513 0.588998
0.658686 0.926207 0.588449
0.658 0.925811 0.587732
0.655512 0.924376 0.584985
0.651637 0.922179 0.580713
0.636896 0.910765 0.560967
0.629602 0.897063 0.53225
0.642329 0.884688 0.495293
0.67985 0.877028 0.445701
0.738781 0.869932 0.350317
0.809354 0.860624 0.135927
0.906767 0.844099 0.000244144
0.987701 0.834272 3.0518e-05
0.983841 0.82501 4.57771e-05
0.985626 0.803098 0
0.984329 0.773144 0
0.984009 0.757137 0.00030518
0.983093 0.748241 0.000198367
0.983124 0.738323 0.000274662
0.981765 0.732189 0
0.983047 0.719249 7.62951e-05
0.981598 0.713527 3.0518e-05
0.982208 0.710689 0.000106813
0.981384 0.711666 0.000106813
0.981659 0.717891 0.000122072
0.982605 0.729091 0.00015259
0.663661 0.929183 0.593484
0.663661 0.929183 0.593484
0.663661 0.929183 0.593484
0.663661 0.929183 0.593484
0.663661 0.929183 0.593484
0.663661 0.929183 0.593484
0.663661 0.929183 0.593484
0.663661 0.929183 0.593484
0.663661 0.929183 0.593484
0.663661 0.929183 0.593484
0.663661 0.929183 0.593484
0.66392 0.929244 0.593469
0.664408 0.929351 0.593423
0.67332 0.929366 0.590753
0.698024 0.932006 0.587137
0.727138 0.927153 0.558145
0.767803 0.921233 0.507683
0.824582 0.917479 0.411643
0.893462 0.911009 0.213199
0.967498 0.89485 0.0241703
0.988388 0.883345 3.0518e-05
0.987915 0.861357 3.0518e-05
0.986313 0.828031 0.000198367
0.986206 0.794171 0.000350958
0.983978 0.780499 9.15541e-05
0.984878 0.770809 0
0.98471 0.764553 1.5259e-05
0.984848 0.759747 0
0.984222 0.754498 0.000122072
0.983581 0.750454 0
0.983627 0.7505 0.000106813
0.983642 0.751156 0.000274662
0.982757 0.753475 7.62951e-05
0.663661 0.929183 0.593484
0.663661 0.929183 0.593484
0.663661 0.929183 0.593484
0.663661 0.929183 0.593484
0.663661 0.929183 0.593484
0.663661 0.929183 0.593484
0.663661 0.929183 0.593484
0.663661 0.929183 0.593484
0.663661 0.929183 0.593484
0.663661 0.929183 0.593484
0.663661 0.929183 0.593484
0.663661 0.929183 0.593484
0.665064 0.929473 0.593194
0.667811 0.929992 0.592721
0.690455 0.933043 0.592905
0.730007 0.939712 0.590204
0.783642 0.948699 0.584573
0.847578 0.959945 0.570962
0.89781 0.95697 0.477668
0.957366 0.951736 0.257816
0.990478 0.931762 0.0321508
0.988144 0.908339 0.00267033
0.987961 0.879088 6.10361e-05
0.986938 0.846006 0
0.986068 0.824552 0.000259403
0.985931 0.814191 4.57771e-05
0.985687 0.80206 0.000228885
0.985626 0.792172 0
0.984421 0.783658 0
0.985351 0.777462 6.10361e-05
0.985 0.772992 0.000106813
0.984833 0.773068 0.000122072
0.983688 0.772747 0.000122072
0.663661 0.929183 0.593484
0.663661 0.929183 0.593484
0.663661 0.929183 0.593484
0.663661 0.929183 0.593484
0.663661 0.929183 0.593484
0.663661 0.929183 0.593484
0.663661 0.929183 0.593484
0.663661 0.929183 0.593484
0.663661 0.929183 0.593484
0.663661 0.929183 0.593484
0.663722 0.929198 0.593484
0.663859 0.929229 0.5935
0.664012 0.929259 0.5935
0.672343 0.930587 0.593149
0.686351 0.932815 0.592554
0.717815 0.937865 0.591211
0.764401 0.945281 0.588098
0.820325 0.955703 0.579858
0.879866 0.967041 0.564813
0.936324 0.974823 0.516594
0.992508 0.97351 0.330709
0.995453 0.954879 0.169238
0.988464 0.926909 0.0137331
0.987915 0.89688 0.00102235
0.988067 0.86952 0.000335698
0.988403 0.857847 0.000137331
0.987762 0.846754 9.15541e-05
0.986786 0.836393 0.000366217
0.986419 0.82652 0.00030518
0.985565 0.817838 0
0.986267 0.811185 0.000167849
0.986328 0.806302 0.000106813
0.985016 0.803861 0
0.663661 0.929183 0.593484
0.663661 0.929183 0.593484
0.663661 0.929183 0.593484
0.663676 0.929183 0.593484
0.663676 0.929183 0.593484
0.663676 0.929183 0.593484
0.663691 0.929183 0.593484
0.663691 0.929183 0.593484
0.663691 0.929183 0.593484
0.663691 0.929183 0.593469
0.663706 0.929183 0.593469
0.66566 0.929397 0.593561
0.669139 0.929747 0.593698
0.673625 0.93022 0.593896
0.689174 0.932967 0.593118
0.712047 0.937102 0.591821
0.750317 0.943694 0.589532
0.798825 0.951766 0.584909
0.85214 0.961593 0.573114
0.909102 0.971771 0.549569
0.963027 0.981048 0.49752
0.996109 0.985992 0.424231
0.997528 0.97052 0.285328
0.992538 0.942397 0.0964523
0.988174 0.90753 0.00173953
0.987945 0.898344 0.000549325
0.987686 0.887785 0
0.987472 0.877317 0.000396735
0.988312 0.867308 0
0.987274 0.85832 0.000457771
0.987686 0.851209 1.5259e-05
0.987594 0.84448 0.000518807
0.987884 0.839521 0.000488289
0.663767 0.929213 0.593439
0.66389 0.929244 0.593408
0.664012 0.929274 0.593362
0.664134 0.92932 0.593332
0.664256 0.929351 0.593286
0.664363 0.929381 0.593256
0.664485 0.929412 0.593225
0.664637 0.929442 0.593164
0.66482 0.929488 0.593103
0.66508 0.929564 0.593027
0.665415 0.929641 0.59292
0.665858 0.929763 0.592782
0.670954 0.930617 0.592615
0.678767 0.931914 0.592416
0.688807 0.933577 0.592172
0.710597 0.937133 0.591501
0.739864 0.941924 0.590219
0.781262 0.948745 0.585992
0.829267 0.9579 0.578317
0.881392 0.967163 0.564843
0.934173 0.976791 0.532692
0.980636 0.984207 0.464759
0.996902 0.986633 0.425864
0.997131 0.977844 0.351888
0.996323 0.957046 0.18407
0.990524 0.937163 0.0583963
0.989761 0.926574 0.0242008
0.987915 0.915145 0.00300603
0.988022 0.905638 0.000274662
0.988251 0.897139 9.15541e-05
0.987518 0.8878 6.10361e-05
0.988251 0.880262 7.62951e-05
0.987823 0.875303 0.00015259
0.665019 0.929366 0.593454
0.665507 0.929427 0.593439
0.665995 0.929488 0.593423
0.666484 0.929549 0.593423
0.666972 0.929625 0.593408
0.667414 0.929671 0.593393
0.667903 0.929747 0.593378
0.668482 0.929824 0.593378
0.669261 0.929915 0.593347
0.670283 0.930053 0.593332
0.671702 0.930236 0.593301
0.673548 0.93048 0.593256
0.675944 0.930785 0.593194
0.684489 0.932296 0.592981
0.696117 0.934356 0.592706
0.710704 0.93695 0.592355
0.736446 0.9411 0.590112
0.768811 0.946441 0.587121
0.809232 0.95378 0.58291
0.855543 0.961822 0.572152
0.90428 0.970565 0.551797
0.957351 0.980545 0.511391
0.991257 0.986252 0.444678
0.996963 0.986633 0.425681
0.996918 0.980438 0.371221
0.997635 0.97081 0.290883
0.997635 0.965469 0.242802
0.996338 0.955779 0.181598
0.994385 0.94609 0.110185
0.991272 0.935241 0.0571298
0.989364 0.925063 0.0133059
0.988128 0.916777 0
0.987976 0.908339 0.000534066
0.672251 0.930571 0.593591
0.672938 0.930663 0.593591
0.673716 0.93077 0.593561
0.674403 0.930861 0.593545
0.675074 0.930953 0.59353
0.675853 0.931044 0.593515
0.676539 0.931136 0.5935
0.677409 0.931258 0.593484
0.678569 0.931411 0.593469
0.680125 0.931624 0.593423
0.68217 0.931884 0.593378
0.684886 0.93225 0.593332
0.688594 0.932738 0.59324
0.693645 0.93344 0.593103
0.704631 0.935286 0.59234
0.71873 0.937682 0.591379
0.736843 0.940734 0.590127
0.763546 0.945434 0.58822
0.796643 0.951324 0.584802
0.837964 0.958877 0.576791
0.880613 0.966705 0.562692
0.929885 0.975769 0.536965
0.974197 0.983612 0.48072
0.996017 0.986435 0.429252
0.996979 0.986603 0.425376
0.99736 0.98294 0.395682
0.997177 0.979507 0.366735
0.996979 0.97734 0.346212
0.997375 0.973083 0.309697
0.997482 0.969619 0.27657
