Luts/Fujifilm/FLog2C_to_CLASSIC-CHROME_VLog.cube
TITLE "Generated by Resolve"
LUT_3D_SIZE 9
0 0 0
0.00642405 0.00106813 0.000183108
0.306386 0.00924697 0.0177462
0.90277 0.116793 0.20029
0.95877 0.374456 0.4486
0.95877 0.374456 0.4486
0.958907 0.378058 0.446876
0.957702 0.477607 0.409033
0.95259 0.611719 0.334829
0.000854505 0.00541695 0.000366217
0.0033875 0.000579843 0
0.192828 0.0056611 0.0083772
0.740291 0.053254 0.0954299
0.961761 0.278019 0.39173
0.95877 0.374456 0.4486
0.957794 0.397818 0.438956
0.957732 0.487816 0.404257
0.952483 0.615564 0.331777
0.000122072 0.128313 0.000213626
0.000732433 0.0715496 0.000366217
0.0850385 0.0496834 0
0.519509 0.0662394 0.0250248
0.964309 0.227558 0.292576
0.958038 0.394247 0.441474
0.958267 0.42298 0.430243
0.95761 0.499748 0.397482
0.952331 0.620142 0.328145
0.00148013 0.461784 0.000671397
0.000488289 0.325002 0.000564584
0.0244144 0.277134 0.00077821
0.374899 0.254673 0.000564584
0.866361 0.346639 0.0951247
0.957168 0.486397 0.399008
0.957702 0.486717 0.404715
0.95462 0.533913 0.382788
0.951934 0.633265 0.317739
0.0184329 0.722255 0.00825513
0.0165103 0.694987 0.00579843
0.0141451 0.671534 0.00308232
0.279835 0.632074 0.0158541
0.762463 0.620081 0.0497292
0.951705 0.656718 0.194659
0.952361 0.617365 0.330632
0.953033 0.616327 0.331197
0.951904 0.669993 0.280308
0.0424353 0.919219 0.0282597
0.0418555 0.913817 0.0279088
0.0425727 0.908629 0.028275
0.184451 0.894072 0.0365911
0.680354 0.871687 0.100816
0.955215 0.865171 0.156909
0.951217 0.785168 0.128557
0.950942 0.75198 0.164645
0.950744 0.75108 0.166827
0.0771496 0.96762 0.0381323
0.113817 0.967056 0.0417029
0.157107 0.966415 0.0458991
0.281117 0.964675 0.0604562
0.580545 0.960861 0.114748
0.879698 0.970428 0.181827
0.960281 0.935302 0.188067
0.957183 0.895125 0.170581
0.955261 0.86833 0.157626
0.440162 0.961227 0.0883192
0.449119 0.961227 0.0898909
0.459144 0.961227 0.0916457
0.48983 0.961181 0.0970169
0.578546 0.9617 0.113329
0.760693 0.965331 0.15433
0.958404 0.973342 0.209705
0.964569 0.973037 0.212375
0.963928 0.971969 0.210285
0.793301 0.966293 0.162371
0.794354 0.966339 0.162631
0.795621 0.966384 0.162936
0.799451 0.966537 0.163912
0.811765 0.967025 0.167071
0.845457 0.968139 0.17467
0.924559 0.971664 0.195148
0.964569 0.973037 0.212375
0.964569 0.973037 0.212375
0 0 0
0.0031281 0.000564584 0
0.275639 0.00753796 0.0139315
0.877882 0.104311 0.178714
0.95877 0.374456 0.4486
0.95877 0.374456 0.4486
0.958984 0.378195 0.446921
0.957702 0.477684 0.409003
0.95259 0.611811 0.334752
0.000167849 0.00469978 0.0034638
0.000183108 9.15541e-05 6.10361e-05
0.168673 0.00515755 0.00708019
0.70428 0.0437018 0.0844739
0.962066 0.264164 0.3832
0.95877 0.374456 0.4486
0.957961 0.399435 0.439231
0.957732 0.487892 0.404211
0.952483 0.615564 0.331777
9.15541e-05 0.145769 0.00508125
0.000122072 0.0782635 4.57771e-05
0.0692302 0.0551003 6.10361e-05
0.484123 0.0682689 0.0187533
0.962615 0.220111 0.267002
0.958053 0.3991 0.439246
0.95787 0.424094 0.430701
0.95761 0.499748 0.397482
0.952331 0.620142 0.328145
0.0027924 0.49984 6.10361e-05
0.00015259 0.345968 3.0518e-05
0.00888075 0.288808 0.000274662
0.342397 0.26508 0.000183108
0.845121 0.348791 0.0741741
0.957488 0.488365 0.38703
0.957321 0.487144 0.404135
0.95462 0.533913 0.382788
0.951934 0.633265 0.317739
0.0205234 0.736889 0.00955215
0.0178378 0.707652 0.00622568
0.0153964 0.684138 0.00529488
0.236194 0.644938 0.0131991
0.738598 0.63035 0.0500801
0.951415 0.667231 0.175982
0.952728 0.619821 0.330678
0.953033 0.616327 0.331197
0.951904 0.669993 0.280308
0.0439307 0.930205 0.0300298
0.0425269 0.924727 0.0287633
0.0419928 0.918563 0.0277867
0.106554 0.904921 0.0327916
0.639582 0.879423 0.0980697
0.955901 0.872251 0.15935
0.951247 0.789319 0.128145
0.950942 0.752071 0.164492
0.950744 0.75108 0.166827
0.051194 0.967224 0.034226
0.0647746 0.967239 0.0354467
0.0809186 0.967254 0.0368963
0.150607 0.966415 0.0447089
0.476753 0.961807 0.0936446
0.84683 0.96791 0.172839
0.960998 0.943816 0.19086
0.957183 0.895125 0.170581
0.955261 0.86833 0.157626
0.370184 0.962707 0.0757153
0.379126 0.962707 0.0770581
0.389136 0.962707 0.0785687
0.419623 0.962707 0.0831922
0.507927 0.96199 0.0992752
0.704707 0.963806 0.140291
0.934234 0.972061 0.198764
0.964569 0.973037 0.212375
0.963928 0.971969 0.210285
0.783658 0.966278 0.157885
0.784741 0.966323 0.158145
0.786038 0.966384 0.158465
0.789929 0.966552 0.159411
0.802441 0.967071 0.162478
0.8374 0.968093 0.171542
0.918868 0.971359 0.193805
0.964569 0.973037 0.212375
0.964569 0.973037 0.212375
4.57771e-05 0.000534066 0.0426032
0.000167849 0.000350958 0.0245212
0.235004 0.00643931 0.0186618
0.841688 0.0869154 0.149706
0.95877 0.372076 0.447013
0.95877 0.374456 0.4486
0.958526 0.386145 0.443549
0.957595 0.486824 0.405905
0.95259 0.611811 0.334752
4.57771e-05 0.00215152 0.0903334
0.000335698 0.000259403 0.050782
0.145281 0.000808728 0.0352026
0.659709 0.0338293 0.0852216
0.962478 0.240269 0.370596
0.95877 0.374456 0.4486
0.95819 0.41146 0.434302
0.957122 0.49749 0.401236
0.952483 0.615564 0.331777
9.15541e-05 0.172824 0.186435
0.000320439 0.0937362 0.0928664
0.0595102 0.0603342 0.0592508
0.457816 0.0683452 0.0758221
0.942763 0.206607 0.264195
0.958328 0.408835 0.435248
0.957671 0.438315 0.424384
0.956497 0.510063 0.394476
0.952331 0.620142 0.328145
0.00959792 0.551247 0.21442
0.000198367 0.400046 0.0970016
0.000869764 0.3337 0.0631723
0.323232 0.290822 0.0603494
0.822019 0.349996 0.162982
0.956924 0.49572 0.40531
0.957183 0.504723 0.396704
0.95584 0.543999 0.37705
0.951934 0.633265 0.317739
0.0232395 0.765713 0.0146487
0.0206912 0.738872 0.00978103
0.0183871 0.715465 0.0087129
0.181506 0.672679 0.0118715
0.711162 0.646983 0.0572671
0.951949 0.683665 0.299916
0.952316 0.641443 0.353658
0.952407 0.628916 0.321996
0.951904 0.669993 0.280308
0.0454566 0.943343 0.0315557
0.0447395 0.938033 0.030518
0.0435187 0.931899 0.029099
0.0485389 0.917678 0.0281071
0.580957 0.8907 0.0898451
0.942657 0.87924 0.15848
0.952361 0.803143 0.227176
0.950896 0.764813 0.145586
0.950744 0.75108 0.166827
0.0479744 0.967239 0.0339666
0.0484169 0.967285 0.0341497
0.0489662 0.967346 0.0343786
0.0803388 0.967071 0.0379034
0.395651 0.962844 0.0804761
0.815076 0.966842 0.16849
0.962829 0.956985 0.198489
0.957961 0.906477 0.174197
0.955261 0.86833 0.157626
0.329366 0.963043 0.0693217
0.338201 0.962905 0.0708324
0.349218 0.962737 0.0727092
0.381231 0.962234 0.0781567
0.473533 0.961669 0.0936446
0.673854 0.963455 0.133318
0.917006 0.97174 0.1935
0.964569 0.973037 0.212375
0.963928 0.971969 0.210285
0.773846 0.965576 0.157504
0.77496 0.965621 0.157794
0.776303 0.965682 0.158145
0.780346 0.965835 0.159213
0.793378 0.966354 0.162615
0.829572 0.967788 0.171633
0.912032 0.971542 0.191104
0.964569 0.973037 0.212375
0.964569 0.973037 0.212375
0 4.57771e-05 0.18735
0 0.000106813 0.149142
0.223209 0.000259403 0.105562
0.814252 0.0634775 0.211749
0.95903 0.367224 0.452354
0.960403 0.377783 0.471107
0.959625 0.405814 0.488716
0.956786 0.513481 0.452918
0.952361 0.637522 0.315343
0.00166323 0.000106813 0.298955
0.000701915 1.5259e-05 0.220783
0.132799 0.000259403 0.158206
0.637171 0.0138552 0.207416
0.964584 0.198749 0.452506
0.959136 0.389258 0.515023
0.959243 0.433066 0.494484
0.956466 0.524849 0.453666
0.95227 0.641337 0.311757
0.00263981 0.192264 0.519585
0.00167849 0.104753 0.361517
0.0465248 0.0611582 0.254612
0.453498 0.0637827 0.243473
0.924056 0.181338 0.396872
0.959411 0.437827 0.535775
0.958831 0.462028 0.500298
0.956039 0.537804 0.45388
0.952148 0.645899 0.307515
0.0215305 0.591165 0.60972
0.007187 0.444389 0.447501
0.00134279 0.37232 0.369528
0.313161 0.313863 0.313069
0.807645 0.351385 0.366949
0.956817 0.509071 0.536034
0.955474 0.530587 0.513268
0.954253 0.572732 0.453529
0.951827 0.658991 0.29514
0.0378424 0.784405 0.457603
0.0343938 0.759106 0.415412
0.031693 0.735973 0.38439
0.128771 0.695705 0.340429
0.69276 0.662943 0.351125
0.953674 0.694636 0.503197
0.95349 0.66006 0.523476
0.952651 0.655146 0.44947
0.951598 0.694759 0.258427
0.0479896 0.945968 0.105318
0.0472114 0.942596 0.100587
0.0472572 0.938033 0.09691
0.0462043 0.925185 0.0925154
0.513039 0.900359 0.15404
0.923095 0.883574 0.319402
0.9579 0.814694 0.475868
0.954025 0.78291 0.399069
0.951125 0.773037 0.182284
0.0478676 0.967224 0.0339208
0.0478676 0.967224 0.0339208
0.0478676 0.967224 0.0339208
0.0589303 0.967071 0.0350805
0.284703 0.964263 0.0604257
0.767422 0.965835 0.154604
0.964233 0.961135 0.199695
0.958465 0.912047 0.180987
0.956497 0.885801 0.165301
0.286 0.963912 0.0626688
0.29482 0.963729 0.0641642
0.305867 0.9635 0.066041
0.337911 0.962844 0.0714733
0.429999 0.9617 0.0872969
0.637095 0.96257 0.127794
0.89102 0.96994 0.186252
0.964569 0.973037 0.212375
0.964569 0.973037 0.212375
0.75436 0.965255 0.153079
0.75552 0.965301 0.153323
0.756924 0.965331 0.153613
0.76109 0.965454 0.154482
0.774563 0.965835 0.157259
0.811872 0.966827 0.165011
0.896773 0.970382 0.187716
0.964569 0.973037 0.212375
0.964569 0.973037 0.212375
0.00373846 0.000427253 0.499199
0.00289921 0 0.46746
0.192813 1.5259e-05 0.313939
0.792615 0.0254673 0.380316
0.960876 0.354711 0.543572
0.959838 0.391913 0.571786
0.958923 0.43006 0.594354
0.954589 0.54876 0.600626
0.953201 0.667399 0.557122
0.00334173 0.000167849 0.661524
0.00311284 0.000289921 0.59559
0.106172 9.15541e-05 0.436728
0.614893 0.000320439 0.430961
0.966888 0.126146 0.59057
0.959167 0.382864 0.603159
0.95819 0.462211 0.608011
0.954192 0.559335 0.603586
0.95317 0.670802 0.557198
0.00419623 0.162264 0.825177
0.00378424 0.0981155 0.733364
0.0228428 0.0454871 0.594537
0.457282 0.0403296 0.523308
0.908965 0.142351 0.586191
0.959701 0.436713 0.631312
0.957336 0.495659 0.621454
0.953643 0.571206 0.606317
0.95314 0.674876 0.557336
0.0311437 0.609018 0.873823
0.0150759 0.469169 0.777783
0.00935378 0.395346 0.716686
0.291203 0.328206 0.637003
0.798672 0.342626 0.616693
0.957382 0.510689 0.670207
0.95465 0.566888 0.647807
0.953262 0.603265 0.614755
0.953048 0.686625 0.557519
0.0504005 0.798428 0.801923
0.0468452 0.77319 0.77435
0.0423743 0.751431 0.750103
0.0739147 0.710033 0.705364
0.672511 0.673182 0.672786
0.955688 0.697948 0.707668
0.954849 0.682109 0.67924
0.953521 0.676356 0.629526
0.953674 0.719646 0.555734
0.0707561 0.928725 0.684672
0.0706035 0.925505 0.679088
0.070222 0.922606 0.673701
0.0637217 0.914916 0.658839
0.425513 0.893919 0.649165
0.901503 0.883452 0.677012
0.963104 0.824186 0.691417
0.958831 0.793362 0.634501
0.957763 0.791852 0.538872
0.0607767 0.965698 0.363088
0.0607004 0.965881 0.363958
0.0606088 0.96611 0.365011
0.0606241 0.966369 0.367681
0.212985 0.961135 0.389731
0.70724 0.966705 0.420905
0.972793 0.967208 0.512215
0.968032 0.917983 0.529625
0.962585 0.894392 0.424811
0.286198 0.961898 0.216022
0.293294 0.961868 0.214313
0.302159 0.961807 0.212192
0.327871 0.961669 0.2056
0.404089 0.961227 0.187304
0.592645 0.962127 0.152972
0.852018 0.968597 0.176638
0.964569 0.973037 0.212375
0.964569 0.973037 0.212375
0.737774 0.967468 0.480873
0.738933 0.967498 0.480552
0.740322 0.967529 0.479896
0.744472 0.967636 0.478721
0.757855 0.967971 0.474113
0.795041 0.969207 0.461036
0.880446 0.973495 0.427878
0.96791 0.976867 0.321508
0.964569 0.973037 0.212375
0.0056611 0.000244144 0.816281
0.0056611 0.000244144 0.816281
0.0635233 0.000534066 0.670298
0.757336 0.00486763 0.606226
0.963073 0.244984 0.656825
0.960571 0.340063 0.668544
0.958694 0.400381 0.685191
0.955093 0.552544 0.703899
0.956237 0.692256 0.719768
0.00526436 0.000366217 0.944518
0.00520333 0.000289921 0.947829
0.00561532 0.000106813 0.815991
0.563546 0.000213626 0.72813
0.96379 0.0198367 0.756039
0.960311 0.343771 0.702373
0.960555 0.43032 0.69778
0.954894 0.564782 0.70808
0.956237 0.695262 0.720485
0.00567636 0.0245975 0.998917
0.00741588 0.0218357 0.999359
0.00520333 7.62951e-05 0.903487
0.425208 0.000900282 0.812268
0.891157 0.0688792 0.782467
0.960327 0.36994 0.73695
0.959243 0.464851 0.709285
0.954955 0.578927 0.713085
0.956237 0.698878 0.72137
0.0228275 0.51429 0.970428
0.0182803 0.453635 0.974472
0.010956 0.364477 0.951476
0.210712 0.286305 0.881971
0.781598 0.293309 0.825345
0.959121 0.454627 0.798093
0.954879 0.546136 0.733791
0.954437 0.615885 0.725902
0.956252 0.709163 0.723842
0.0509957 0.76051 0.95787
0.0485695 0.745907 0.9552
0.0475013 0.730785 0.942489
0.0425879 0.699367 0.918318
0.634485 0.667079 0.876982
0.957351 0.672389 0.857023
0.955444 0.686046 0.779583
0.956588 0.697047 0.754467
0.957641 0.73724 0.730541
0.0750744 0.897307 0.897612
0.0747845 0.894743 0.893217
0.0728313 0.892103 0.891524
0.070985 0.884291 0.881132
0.275502 0.867674 0.862287
0.862516 0.863096 0.862791
0.96698 0.829831 0.828977
0.962539 0.80119 0.786114
0.96202 0.800381 0.741222
0.0884565 0.958541 0.762905
0.0886244 0.958526 0.762539
0.0889296 0.95845 0.762127
0.0893568 0.958312 0.760693
0.0870527 0.959197 0.756207
0.608743 0.965499 0.775662
0.975708 0.965576 0.802152
0.975479 0.917922 0.780972
0.97145 0.897322 0.727428
0.190356 0.958709 0.699489
0.199588 0.958663 0.69926
0.211139 0.958633 0.699001
0.244724 0.958495 0.698085
0.346548 0.958877 0.696666
0.58291 0.963912 0.701991
0.833204 0.976257 0.675013
0.979065 0.985779 0.63714
0.975906 0.983017 0.545312
0.715175 0.971206 0.801114
0.71664 0.971283 0.80119
0.718395 0.971359 0.801266
0.723674 0.971603 0.801511
0.740688 0.972412 0.802243
0.781826 0.975097 0.802258
0.865034 0.981094 0.793393
0.983932 0.98938 0.750942
0.977737 0.984298 0.605859
0.00570687 0 0.997772
0.00570687 0 0.997772
0.00570687 0 0.997772
0.496818 0.000228885 0.897154
0.971649 0.0151827 0.878096
0.963851 0.209567 0.792828
0.960067 0.337499 0.790295
0.956436 0.503868 0.794644
0.955444 0.676722 0.80528
0.00570687 0 0.997772
0.00570687 0 0.997772
0.00570687 0 0.997772
0.238071 0.00015259 0.995071
0.898634 0.0129244 0.926329
0.963485 0.212222 0.833646
0.961013 0.36849 0.799969
0.956252 0.516869 0.797559
0.955657 0.680278 0.806241
0.00570687 0 0.997772
0.00570687 0 0.997772
0.00570687 0 0.997772
0.120867 0.000442512 0.999847
0.839994 0.0105287 0.962264
0.962936 0.224216 0.872114
0.960693 0.401892 0.808942
0.955962 0.531746 0.801038
0.955917 0.684581 0.807416
0.00608835 0.217624 0.998322
0.00608835 0.219196 0.99826
0.00576791 0.199542 0.998764
0.012253 0.127779 0.999512
0.732052 0.139345 0.983185
0.961334 0.319524 0.937865
0.956771 0.483711 0.827466
0.954589 0.571328 0.81059
0.95668 0.697078 0.810834
0.0455634 0.713832 0.959792
0.0330053 0.619318 0.964599
0.0317388 0.600122 0.965911
0.0294957 0.57612 0.965057
0.497948 0.566064 0.963333
0.933318 0.578408 0.960388
0.9552 0.635676 0.857374
0.955505 0.659998 0.83151
0.958358 0.730663 0.821363
0.0613565 0.828168 0.956329
0.062501 0.825711 0.956481
0.0601663 0.82417 0.957504
0.0580453 0.818173 0.957443
0.153765 0.807187 0.95581
0.78761 0.811612 0.962493
0.96585 0.801938 0.915801
0.96408 0.787503 0.866056
0.96347 0.801511 0.845182
0.0952468 0.947494 0.934264
0.0952926 0.947066 0.934447
0.0951858 0.946593 0.934768
0.0939345 0.9458 0.936263
0.0922255 0.941421 0.934646
0.440803 0.932326 0.927535
0.93669 0.938445 0.937194
0.978531 0.909514 0.903868
0.975372 0.892958 0.871946
0.0969253 0.95845 0.904616
0.0968795 0.958404 0.904051
0.0968032 0.958343 0.90338
0.0966049 0.958175 0.901396
0.116777 0.957671 0.895506
0.376181 0.959487 0.883787
0.795727 0.97792 0.885267
0.990936 0.993591 0.873304
0.988769 0.991638 0.839078
0.553872 0.965255 0.936309
0.556298 0.965362 0.936324
0.559197 0.965499 0.936339
0.56791 0.965911 0.93637
0.596094 0.967239 0.936416
0.670985 0.970932 0.936828
0.815427 0.980972 0.936996
0.976379 0.994873 0.931273
0.991028 0.994141 0.87686
0.00570687 0 0.997772
0.00570687 0 0.997772
0.00570687 0 0.997772
0.00570687 0 0.997772
0.643793 0.0034638 0.997436
0.971618 0.0169985 0.986938
0.963638 0.214923 0.910521
0.959289 0.400519 0.896361
0.955489 0.608743 0.887922
0.00570687 0 0.997772
0.00570687 0 0.997772
0.00570687 0 0.997772
0.00570687 0 0.997772
0.560647 0.00120546 0.999069
0.971695 0.016968 0.987594
0.963165 0.243046 0.916121
0.959091 0.413245 0.898146
0.95555 0.61297 0.888685
0.00560006 0.000183108 0.998398
0.0055848 0.000183108 0.998413
0.0055848 0.000198367 0.998444
0.00560006 0.00759899 0.998611
0.485283 0.000167849 0.999481
0.971695 0.016968 0.987594
0.962158 0.275715 0.920424
0.958999 0.428336 0.89987
0.955612 0.61799 0.889586
0.0149844 0.413642 0.980789
0.0150912 0.414725 0.980682
0.0152895 0.416892 0.980468
0.0158999 0.423362 0.979843
0.357168 1.5259e-05 0.999191
0.950256 0.0772564 0.981826
0.961273 0.35375 0.931746
0.957198 0.470649 0.905486
0.956008 0.632609 0.892302
0.0573434 0.802075 0.956664
0.0573892 0.802365 0.956649
0.057435 0.802655 0.956634
0.0347448 0.634256 0.963287
0.216922 0.330159 0.979477
0.818357 0.402518 0.969451
0.955352 0.518486 0.950042
0.955596 0.571344 0.917479
0.957977 0.672938 0.900313
0.0738231 0.879835 0.95111
0.0682231 0.861326 0.954101
0.0643015 0.842969 0.955612
0.0567178 0.802518 0.956802
0.0562753 0.730846 0.959487
0.66865 0.703746 0.957549
0.960876 0.729763 0.965026
0.960983 0.727886 0.945052
0.962692 0.756283 0.91841
0.0945449 0.945327 0.935714
0.0943923 0.943648 0.936828
0.0941482 0.941588 0.93817
0.0903182 0.936858 0.938888
0.0874037 0.92079 0.944228
0.382055 0.890745 0.951095
0.870878 0.883757 0.971023
0.97612 0.876631 0.973098
0.97438 0.868177 0.945357
0.099855 0.957229 0.933516
0.0998856 0.957259 0.933547
0.0999161 0.95729 0.933577
0.0999313 0.957244 0.933898
0.0999313 0.957031 0.934951
0.165835 0.955947 0.936049
0.696468 0.972091 0.960128
0.990814 0.995071 0.993927
0.992157 0.979721 0.968277
0.454994 0.960616 0.944869
0.457496 0.960708 0.944991
0.460517 0.96083 0.945144
0.469535 0.961181 0.945586
0.499641 0.962356 0.947066
0.583276 0.965972 0.951385
0.755703 0.975891 0.964645
0.949233 0.994369 0.989685
0.999344 0.999954 0.998596
0.0185855 0.457877 0.975311
0.0187228 0.459556 0.975143
0.0189059 0.46157 0.97496
0.0193942 0.467277 0.974426
0.0210575 0.486763 0.972595
0.730343 0.00563058 0.994415
0.970764 0.0239414 0.986542
0.96463 0.185229 0.975052
0.958312 0.446326 0.965103
0.0246738 0.529091 0.968643
0.0248112 0.53077 0.968475
0.0249638 0.532341 0.968353
0.025452 0.536919 0.968139
0.027039 0.551492 0.967437
0.716075 0.00582895 0.993912
0.969924 0.0326848 0.985428
0.964385 0.197345 0.974746
0.958144 0.451347 0.964935
0.0317998 0.595224 0.965316
0.0319219 0.596368 0.96527
0.0320745 0.597787 0.965194
0.032517 0.601801 0.965011
0.0336767 0.613123 0.964446
0.702449 0.00502022 0.995239
0.969314 0.0451667 0.984344
0.96408 0.211612 0.974395
0.957961 0.457435 0.964736
0.0450446 0.718547 0.960037
0.0450904 0.718898 0.960006
0.045182 0.7196 0.959976
0.0454108 0.721355 0.959869
0.0461891 0.727138 0.959548
0.6636 0.00381476 0.997391
0.96791 0.0977798 0.980758
0.963516 0.25153 0.973617
0.957397 0.474937 0.964172
0.0717021 0.872145 0.952667
0.0717174 0.872251 0.952651
0.0717784 0.87248 0.952605
0.0719005 0.873014 0.952514
0.0723735 0.874952 0.952163
0.562005 0.357153 0.970718
0.962371 0.296849 0.972
0.961486 0.361975 0.97052
0.957076 0.524285 0.962402
0.100328 0.955962 0.930877
0.100328 0.955962 0.930877
0.100328 0.955962 0.930877
0.100328 0.955962 0.930877
0.0715953 0.873472 0.952544
0.436042 0.726192 0.956558
0.896681 0.675547 0.960571
0.957015 0.598444 0.960449
0.956771 0.637736 0.961532
0.100328 0.955962 0.930877
0.100328 0.955962 0.930877
0.100328 0.955962 0.930877
0.100328 0.955962 0.930877
0.0975357 0.953246 0.932006
0.0975509 0.916899 0.945693
0.812375 0.888212 0.968048
0.973434 0.853162 0.975357
0.967666 0.808606 0.969894
0.0989548 0.956329 0.932616
0.0989548 0.956329 0.932616
0.0989548 0.956329 0.932616
0.0990768 0.956451 0.932738
0.0998245 0.957198 0.933486
0.100404 0.957061 0.935332
0.596674 0.966613 0.952514
0.968734 0.995697 0.991089
0.991821 0.972168 0.992584
0.320989 0.957504 0.93904
0.32401 0.957534 0.939101
0.327947 0.957641 0.939254
0.338643 0.957946 0.939635
0.373556 0.958923 0.940902
0.478126 0.961898 0.944945
0.69453 0.972015 0.960266
0.922683 0.991409 0.985351
1 1 1
