Luts/Fujifilm/FLog2C_to_ACROS_VLog.cube
TITLE "Generated by Resolve"
LUT_3D_SIZE 33
0 0 0
0 0 0
0 0 0
0 0 0
0.00373846 0.00373846 0.00373846
0.0159152 0.0159152 0.0159152
0.0306096 0.0306096 0.0306096
0.0503853 0.0503853 0.0503853
0.084947 0.084947 0.084947
0.127825 0.127825 0.127825
0.180011 0.180011 0.180011
0.24184 0.24184 0.24184
0.314229 0.314229 0.314229
0.400717 0.400717 0.400717
0.475486 0.475486 0.475486
0.539452 0.539452 0.539452
0.558587 0.558587 0.558587
0.558587 0.558587 0.558587
0.558587 0.558587 0.558587
0.558587 0.558587 0.558587
0.558587 0.558587 0.558587
0.558587 0.558587 0.558587
0.558587 0.558587 0.558587
0.558587 0.558587 0.558587
0.561334 0.561334 0.561334
0.574121 0.574121 0.574121
0.59057 0.59057 0.59057
0.607004 0.607004 0.607004
0.623392 0.623392 0.623392
0.64062 0.64062 0.64062
0.658747 0.658747 0.658747
0.676555 0.676555 0.676555
0.694774 0.694774 0.694774
0 0 0
0 0 0
0 0 0
0 0 0
0.00553903 0.00553903 0.00553903
0.018677 0.018677 0.018677
0.0332494 0.0332494 0.0332494
0.0535134 0.0535134 0.0535134
0.0888838 0.0888838 0.0888838
0.130983 0.130983 0.130983
0.182788 0.182788 0.182788
0.244114 0.244114 0.244114
0.315572 0.315572 0.315572
0.402945 0.402945 0.402945
0.476646 0.476646 0.476646
0.540154 0.540154 0.540154
0.558541 0.558541 0.558541
0.558587 0.558587 0.558587
0.558587 0.558587 0.558587
0.558587 0.558587 0.558587
0.558587 0.558587 0.558587
0.558587 0.558587 0.558587
0.558587 0.558587 0.558587
0.558587 0.558587 0.558587
0.564004 0.564004 0.564004
0.577478 0.577478 0.577478
0.593164 0.593164 0.593164
0.608911 0.608911 0.608911
0.624781 0.624781 0.624781
0.641718 0.641718 0.641718
0.659617 0.659617 0.659617
0.677165 0.677165 0.677165
0.695247 0.695247 0.695247
0 0 0
0 0 0
0 0 0
0 0 0
0.00747692 0.00747692 0.00747692
0.0216983 0.0216983 0.0216983
0.0359655 0.0359655 0.0359655
0.0567483 0.0567483 0.0567483
0.0907912 0.0907912 0.0907912
0.130892 0.130892 0.130892
0.179553 0.179553 0.179553
0.236866 0.236866 0.236866
0.303761 0.303761 0.303761
0.380667 0.380667 0.380667
0.449897 0.449897 0.449897
0.503075 0.503075 0.503075
0.550713 0.550713 0.550713
0.558556 0.558556 0.558556
0.558587 0.558587 0.558587
0.558587 0.558587 0.558587
0.558587 0.558587 0.558587
0.558587 0.558587 0.558587
0.558587 0.558587 0.558587
0.558587 0.558587 0.558587
0.567544 0.567544 0.567544
0.58056 0.58056 0.58056
0.595621 0.595621 0.595621
0.610758 0.610758 0.610758
0.626154 0.626154 0.626154
0.642863 0.642863 0.642863
0.660502 0.660502 0.660502
0.677806 0.677806 0.677806
0.69572 0.69572 0.69572
0 0 0
0 0 0
0 0 0
0 0 0
0.00399786 0.00399786 0.00399786
0.0137789 0.0137789 0.0137789
0.0267643 0.0267643 0.0267643
0.0432593 0.0432593 0.0432593
0.0700694 0.0700694 0.0700694
0.105364 0.105364 0.105364
0.147921 0.147921 0.147921
0.200412 0.200412 0.200412
0.25861 0.25861 0.25861
0.325048 0.325048 0.325048
0.401495 0.401495 0.401495
0.462531 0.462531 0.462531
0.512032 0.512032 0.512032
0.554925 0.554925 0.554925
0.558587 0.558587 0.558587
0.558587 0.558587 0.558587
0.558587 0.558587 0.558587
0.558587 0.558587 0.558587
0.558587 0.558587 0.558587
0.560464 0.560464 0.560464
0.570932 0.570932 0.570932
0.583581 0.583581 0.583581
0.598047 0.598047 0.598047
0.612634 0.612634 0.612634
0.627543 0.627543 0.627543
0.644022 0.644022 0.644022
0.661418 0.661418 0.661418
0.678462 0.678462 0.678462
0.696193 0.696193 0.696193
0.00468452 0.00468452 0.00468452
0.00505074 0.00505074 0.00505074
0.00492866 0.00492866 0.00492866
0.00175479 0.00175479 0.00175479
0.00164797 0.00164797 0.00164797
0.0102083 0.0102083 0.0102083
0.0205692 0.0205692 0.0205692
0.0336309 0.0336309 0.0336309
0.0541848 0.0541848 0.0541848
0.0838331 0.0838331 0.0838331
0.122454 0.122454 0.122454
0.165652 0.165652 0.165652
0.220295 0.220295 0.220295
0.280659 0.280659 0.280659
0.350896 0.350896 0.350896
0.427115 0.427115 0.427115
0.4822 0.4822 0.4822
0.534798 0.534798 0.534798
0.558526 0.558526 0.558526
0.558587 0.558587 0.558587
0.558587 0.558587 0.558587
0.558587 0.558587 0.558587
0.558892 0.558892 0.558892
0.564797 0.564797 0.564797
0.574731 0.574731 0.574731
0.586435 0.586435 0.586435
0.600397 0.600397 0.600397
0.614557 0.614557 0.614557
0.629007 0.629007 0.629007
0.645167 0.645167 0.645167
0.662272 0.662272 0.662272
0.679149 0.679149 0.679149
0.696651 0.696651 0.696651
0.0212406 0.0212406 0.0212406
0.021561 0.021561 0.021561
0.0178988 0.0178988 0.0178988
0.0126497 0.0126497 0.0126497
0.00877394 0.00877394 0.00877394
0.0129397 0.0129397 0.0129397
0.0185092 0.0185092 0.0185092
0.0269627 0.0269627 0.0269627
0.0420539 0.0420539 0.0420539
0.067277 0.067277 0.067277
0.100603 0.100603 0.100603
0.142397 0.142397 0.142397
0.191089 0.191089 0.191089
0.249348 0.249348 0.249348
0.314855 0.314855 0.314855
0.392401 0.392401 0.392401
0.459098 0.459098 0.459098
0.513512 0.513512 0.513512
0.558587 0.558587 0.558587
0.558587 0.558587 0.558587
0.558587 0.558587 0.558587
0.558999 0.558999 0.558999
0.561608 0.561608 0.561608
0.568765 0.568765 0.568765
0.578164 0.578164 0.578164
0.589136 0.589136 0.589136
0.602701 0.602701 0.602701
0.616434 0.616434 0.616434
0.630426 0.630426 0.630426
0.646357 0.646357 0.646357
0.663188 0.663188 0.663188
0.679774 0.679774 0.679774
0.697078 0.697078 0.697078
0.0379339 0.0379339 0.0379339
0.0383764 0.0383764 0.0383764
0.0338445 0.0338445 0.0338445
0.0257115 0.0257115 0.0257115
0.0195621 0.0195621 0.0195621
0.0215305 0.0215305 0.0215305
0.0259403 0.0259403 0.0259403
0.0338903 0.0338903 0.0338903
0.0443427 0.0443427 0.0443427
0.0638285 0.0638285 0.0638285
0.0926375 0.0926375 0.0926375
0.128603 0.128603 0.128603
0.17203 0.17203 0.17203
0.22858 0.22858 0.22858
0.290852 0.290852 0.290852
0.365743 0.365743 0.365743
0.440955 0.440955 0.440955
0.49723 0.49723 0.49723
0.55021 0.55021 0.55021
0.558587 0.558587 0.558587
0.558587 0.558587 0.558587
0.560189 0.560189 0.560189
0.565347 0.565347 0.565347
0.572839 0.572839 0.572839
0.581857 0.581857 0.581857
0.591882 0.591882 0.591882
0.604959 0.604959 0.604959
0.618311 0.618311 0.618311
0.631846 0.631846 0.631846
0.647501 0.647501 0.647501
0.664042 0.664042 0.664042
0.68043 0.68043 0.68043
0.697551 0.697551 0.697551
0.0568399 0.0568399 0.0568399
0.0572976 0.0572976 0.0572976
0.0513313 0.0513313 0.0513313
0.0420539 0.0420539 0.0420539
0.0347143 0.0347143 0.0347143
0.0341955 0.0341955 0.0341955
0.0367895 0.0367895 0.0367895
0.0431067 0.0431067 0.0431067
0.0515297 0.0515297 0.0515297
0.0686809 0.0686809 0.0686809
0.0940108 0.0940108 0.0940108
0.128817 0.128817 0.128817
0.168719 0.168719 0.168719
0.217609 0.217609 0.217609
0.27512 0.27512 0.27512
0.343816 0.343816 0.343816
0.423239 0.423239 0.423239
0.483711 0.483711 0.483711
0.537591 0.537591 0.537591
0.561883 0.561883 0.561883
0.562692 0.562692 0.562692
0.566629 0.566629 0.566629
0.571267 0.571267 0.571267
0.577569 0.577569 0.577569
0.586175 0.586175 0.586175
0.595148 0.595148 0.595148
0.60763 0.60763 0.60763
0.620539 0.620539 0.620539
0.633524 0.633524 0.633524
0.648875 0.648875 0.648875
0.66511 0.66511 0.66511
0.681163 0.681163 0.681163
0.698116 0.698116 0.698116
0.0851453 0.0851453 0.0851453
0.0849317 0.0849317 0.0849317
0.0724804 0.0724804 0.0724804
0.0608682 0.0608682 0.0608682
0.0523537 0.0523537 0.0523537
0.049836 0.049836 0.049836
0.0531777 0.0531777 0.0531777
0.0569162 0.0569162 0.0569162
0.0648051 0.0648051 0.0648051
0.0781109 0.0781109 0.0781109
0.100832 0.100832 0.100832
0.13254 0.13254 0.13254
0.170733 0.170733 0.170733
0.215595 0.215595 0.215595
0.270344 0.270344 0.270344
0.337911 0.337911 0.337911
0.416785 0.416785 0.416785
0.481407 0.481407 0.481407
0.534768 0.534768 0.534768
0.570855 0.570855 0.570855
0.57145 0.57145 0.57145
0.574792 0.574792 0.574792
0.578637 0.578637 0.578637
0.584176 0.584176 0.584176
0.591546 0.591546 0.591546
0.599588 0.599588 0.599588
0.611078 0.611078 0.611078
0.623468 0.623468 0.623468
0.635767 0.635767 0.635767
0.650706 0.650706 0.650706
0.666545 0.666545 0.666545
0.682261 0.682261 0.682261
0.698878 0.698878 0.698878
0.131258 0.131258 0.131258
0.121263 0.121263 0.121263
0.103761 0.103761 0.103761
0.0875868 0.0875868 0.0875868
0.0749523 0.0749523 0.0749523
0.0701152 0.0701152 0.0701152
0.0716716 0.0716716 0.0716716
0.074403 0.074403 0.074403
0.0810864 0.0810864 0.0810864
0.090898 0.090898 0.090898
0.110811 0.110811 0.110811
0.138979 0.138979 0.138979
0.173938 0.173938 0.173938
0.217838 0.217838 0.217838
0.271733 0.271733 0.271733
0.337713 0.337713 0.337713
0.415412 0.415412 0.415412
0.483909 0.483909 0.483909
0.533684 0.533684 0.533684
0.580118 0.580118 0.580118
0.583749 0.583749 0.583749
0.584436 0.584436 0.584436
0.587427 0.587427 0.587427
0.591867 0.591867 0.591867
0.597757 0.597757 0.597757
0.605081 0.605081 0.605081
0.615488 0.615488 0.615488
0.626963 0.626963 0.626963
0.638697 0.638697 0.638697
0.653132 0.653132 0.653132
0.668421 0.668421 0.668421
0.68365 0.68365 0.68365
0.69987 0.69987 0.69987
0.186969 0.186969 0.186969
0.162737 0.162737 0.162737
0.140734 0.140734 0.140734
0.12343 0.12343 0.12343
0.10988 0.10988 0.10988
0.102174 0.102174 0.102174
0.101518 0.101518 0.101518
0.103166 0.103166 0.103166
0.107332 0.107332 0.107332
0.115007 0.115007 0.115007
0.130632 0.130632 0.130632
0.154864 0.154864 0.154864
0.187655 0.187655 0.187655
0.227939 0.227939 0.227939
0.278691 0.278691 0.278691
0.342138 0.342138 0.342138
0.416373 0.416373 0.416373
0.489479 0.489479 0.489479
0.536614 0.536614 0.536614
0.581827 0.581827 0.581827
0.595987 0.595987 0.595987
0.59678 0.59678 0.59678
0.598123 0.598123 0.598123
0.60119 0.60119 0.60119
0.606287 0.606287 0.606287
0.612192 0.612192 0.612192
0.621164 0.621164 0.621164
0.631342 0.631342 0.631342
0.642664 0.642664 0.642664
0.65626 0.65626 0.65626
0.670924 0.670924 0.670924
0.685481 0.685481 0.685481
0.701198 0.701198 0.701198
0.230289 0.230289 0.230289
0.204868 0.204868 0.204868
0.18352 0.18352 0.18352
0.165499 0.165499 0.165499
0.15169 0.15169 0.15169
0.144106 0.144106 0.144106
0.142992 0.142992 0.142992
0.14342 0.14342 0.14342
0.145068 0.145068 0.145068
0.150729 0.150729 0.150729
0.16405 0.16405 0.16405
0.18587 0.18587 0.18587
0.21384 0.21384 0.21384
0.248325 0.248325 0.248325
0.294789 0.294789 0.294789
0.35346 0.35346 0.35346
0.421958 0.421958 0.421958
0.49308 0.49308 0.49308
0.543694 0.543694 0.543694
0.584894 0.584894 0.584894
0.611994 0.611994 0.611994
0.611154 0.611154 0.611154
0.610941 0.610941 0.610941
0.613001 0.613001 0.613001
0.616419 0.616419 0.616419
0.621073 0.621073 0.621073
0.628656 0.628656 0.628656
0.637232 0.637232 0.637232
0.647745 0.647745 0.647745
0.660304 0.660304 0.660304
0.674098 0.674098 0.674098
0.687907 0.687907 0.687907
0.702953 0.702953 0.702953
0.270329 0.270329 0.270329
0.245792 0.245792 0.245792
0.226612 0.226612 0.226612
0.211231 0.211231 0.211231
0.199725 0.199725 0.199725
0.194339 0.194339 0.194339
0.193301 0.193301 0.193301
0.192676 0.192676 0.192676
0.19324 0.19324 0.19324
0.197589 0.197589 0.197589
0.209689 0.209689 0.209689
0.226291 0.226291 0.226291
0.250797 0.250797 0.250797
0.28191 0.28191 0.28191
0.321065 0.321065 0.321065
0.370993 0.370993 0.370993
0.433204 0.433204 0.433204
0.500496 0.500496 0.500496
0.556176 0.556176 0.556176
0.592706 0.592706 0.592706
0.625879 0.625879 0.625879
0.62771 0.62771 0.62771
0.626413 0.626413 0.626413
0.626352 0.626352 0.626352
0.628473 0.628473 0.628473
0.631769 0.631769 0.631769
0.637751 0.637751 0.637751
0.645182 0.645182 0.645182
0.6542 0.6542 0.6542
0.665568 0.665568 0.665568
0.677836 0.677836 0.677836
0.691035 0.691035 0.691035
0.705272 0.705272 0.705272
0.306523 0.306523 0.306523
0.285237 0.285237 0.285237
0.270695 0.270695 0.270695
0.258 0.258 0.258
0.249287 0.249287 0.249287
0.247059 0.247059 0.247059
0.246509 0.246509 0.246509
0.245838 0.245838 0.245838
0.24686 0.24686 0.24686
0.251087 0.251087 0.251087
0.259541 0.259541 0.259541
0.274876 0.274876 0.274876
0.295537 0.295537 0.295537
0.321767 0.321767 0.321767
0.355703 0.355703 0.355703
0.397833 0.397833 0.397833
0.450904 0.450904 0.450904
0.511666 0.511666 0.511666
0.568475 0.568475 0.568475
0.603754 0.603754 0.603754
0.63679 0.63679 0.63679
0.645884 0.645884 0.645884
0.643687 0.643687 0.643687
0.642054 0.642054 0.642054
0.642664 0.642664 0.642664
0.64419 0.64419 0.64419
0.648524 0.648524 0.648524
0.654536 0.654536 0.654536
0.662318 0.662318 0.662318
0.672007 0.672007 0.672007
0.682643 0.682643 0.682643
0.695094 0.695094 0.695094
0.708309 0.708309 0.708309
0.344747 0.344747 0.344747
0.330495 0.330495 0.330495
0.319249 0.319249 0.319249
0.309422 0.309422 0.309422
0.306065 0.306065 0.306065
0.304555 0.304555 0.304555
0.303593 0.303593 0.303593
0.303105 0.303105 0.303105
0.304082 0.304082 0.304082
0.308171 0.308171 0.308171
0.316747 0.316747 0.316747
0.329564 0.329564 0.329564
0.345785 0.345785 0.345785
0.367453 0.367453 0.367453
0.397024 0.397024 0.397024
0.432898 0.432898 0.432898
0.476997 0.476997 0.476997
0.528389 0.528389 0.528389
0.583276 0.583276 0.583276
0.619852 0.619852 0.619852
0.648753 0.648753 0.648753
0.666835 0.666835 0.666835
0.663249 0.663249 0.663249
0.660777 0.660777 0.660777
0.659541 0.659541 0.659541
0.659403 0.659403 0.659403
0.661662 0.661662 0.661662
0.665949 0.665949 0.665949
0.671916 0.671916 0.671916
0.679866 0.679866 0.679866
0.688975 0.688975 0.688975
0.700298 0.700298 0.700298
0.712245 0.712245 0.712245
0.38912 0.38912 0.38912
0.378546 0.378546 0.378546
0.371542 0.371542 0.371542
0.36907 0.36907 0.36907
0.367483 0.367483 0.367483
0.366567 0.366567 0.366567
0.366278 0.366278 0.366278
0.366262 0.366262 0.366262
0.368582 0.368582 0.368582
0.372824 0.372824 0.372824
0.380423 0.380423 0.380423
0.390585 0.390585 0.390585
0.403433 0.403433 0.403433
0.421469 0.421469 0.421469
0.444862 0.444862 0.444862
0.474662 0.474662 0.474662
0.511818 0.511818 0.511818
0.555428 0.555428 0.555428
0.601373 0.601373 0.601373
0.640528 0.640528 0.640528
0.664942 0.664942 0.664942
0.684337 0.684337 0.684337
0.683848 0.683848 0.683848
0.680064 0.680064 0.680064
0.677501 0.677501 0.677501
0.676692 0.676692 0.676692
0.677134 0.677134 0.677134
0.679377 0.679377 0.679377
0.683284 0.683284 0.683284
0.68925 0.68925 0.68925
0.697047 0.697047 0.697047
0.706828 0.706828 0.706828
0.717281 0.717281 0.717281
0.437842 0.437842 0.437842
0.434699 0.434699 0.434699
0.433021 0.433021 0.433021
0.432959 0.432959 0.432959
0.433082 0.433082 0.433082
0.434073 0.434073 0.434073
0.435142 0.435142 0.435142
0.436454 0.436454 0.436454
0.437934 0.437934 0.437934
0.442527 0.442527 0.442527
0.448844 0.448844 0.448844
0.456321 0.456321 0.456321
0.466911 0.466911 0.466911
0.480995 0.480995 0.480995
0.499962 0.499962 0.499962
0.524559 0.524559 0.524559
0.554513 0.554513 0.554513
0.589639 0.589639 0.589639
0.628534 0.628534 0.628534
0.663264 0.663264 0.663264
0.684474 0.684474 0.684474
0.701915 0.701915 0.701915
0.706035 0.706035 0.706035
0.701106 0.701106 0.701106
0.697536 0.697536 0.697536
0.695293 0.695293 0.695293
0.694331 0.694331 0.694331
0.694362 0.694362 0.694362
0.696956 0.696956 0.696956
0.70071 0.70071 0.70071
0.706889 0.706889 0.706889
0.714946 0.714946 0.714946
0.723751 0.723751 0.723751
0.498436 0.498436 0.498436
0.498878 0.498878 0.498878
0.499428 0.499428 0.499428
0.500282 0.500282 0.500282
0.501213 0.501213 0.501213
0.502281 0.502281 0.502281
0.503944 0.503944 0.503944
0.506065 0.506065 0.506065
0.508797 0.508797 0.508797
0.512245 0.512245 0.512245
0.516625 0.516625 0.516625
0.523003 0.523003 0.523003
0.531853 0.531853 0.531853
0.542092 0.542092 0.542092
0.557473 0.557473 0.557473
0.577111 0.577111 0.577111
0.600427 0.600427 0.600427
0.628626 0.628626 0.628626
0.660441 0.660441 0.660441
0.690684 0.690684 0.690684
0.707576 0.707576 0.707576
0.721614 0.721614 0.721614
0.727962 0.727962 0.727962
0.723278 0.723278 0.723278
0.718898 0.718898 0.718898
0.715175 0.715175 0.715175
0.712703 0.712703 0.712703
0.711254 0.711254 0.711254
0.711986 0.711986 0.711986
0.714275 0.714275 0.714275
0.718181 0.718181 0.718181
0.724804 0.724804 0.724804
0.731868 0.731868 0.731868
0.564981 0.564981 0.564981
0.566125 0.566125 0.566125
0.567132 0.567132 0.567132
0.568292 0.568292 0.568292
0.569558 0.569558 0.569558
0.570626 0.570626 0.570626
0.571725 0.571725 0.571725
0.572946 0.572946 0.572946
0.574716 0.574716 0.574716
0.577615 0.577615 0.577615
0.581552 0.581552 0.581552
0.586267 0.586267 0.586267
0.593027 0.593027 0.593027
0.602487 0.602487 0.602487
0.613611 0.613611 0.613611
0.628901 0.628901 0.628901
0.647669 0.647669 0.647669
0.669688 0.669688 0.669688
0.695735 0.695735 0.695735
0.721462 0.721462 0.721462
0.737011 0.737011 0.737011
0.743053 0.743053 0.743053
0.748608 0.748608 0.748608
0.746059 0.746059 0.746059
0.740764 0.740764 0.740764
0.736461 0.736461 0.736461
0.732326 0.732326 0.732326
0.730449 0.730449 0.730449
0.729091 0.729091 0.729091
0.729747 0.729747 0.729747
0.731731 0.731731 0.731731
0.735805 0.735805 0.735805
0.74168 0.74168 0.74168
0.626368 0.626368 0.626368
0.627283 0.627283 0.627283
0.628229 0.628229 0.628229
0.629648 0.629648 0.629648
0.63093 0.63093 0.63093
0.632197 0.632197 0.632197
0.633433 0.633433 0.633433
0.634928 0.634928 0.634928
0.636698 0.636698 0.636698
0.639033 0.639033 0.639033
0.642191 0.642191 0.642191
0.646036 0.646036 0.646036
0.65156 0.65156 0.65156
0.658778 0.658778 0.658778
0.668833 0.668833 0.668833
0.681025 0.681025 0.681025
0.695338 0.695338 0.695338
0.712459 0.712459 0.712459
0.732876 0.732876 0.732876
0.753796 0.753796 0.753796
0.769421 0.769421 0.769421
0.770611 0.770611 0.770611
0.770077 0.770077 0.770077
0.769253 0.769253 0.769253
0.763134 0.763134 0.763134
0.758343 0.758343 0.758343
0.753658 0.753658 0.753658
0.75024 0.75024 0.75024
0.747906 0.747906 0.747906
0.74699 0.74699 0.74699
0.747265 0.747265 0.747265
0.749401 0.749401 0.749401
0.753353 0.753353 0.753353
0.681407 0.681407 0.681407
0.682261 0.682261 0.682261
0.683162 0.683162 0.683162
0.684123 0.684123 0.684123
0.685084 0.685084 0.685084
0.686 0.686 0.686
0.686961 0.686961 0.686961
0.688136 0.688136 0.688136
0.689693 0.689693 0.689693
0.69192 0.69192 0.69192
0.694743 0.694743 0.694743
0.698405 0.698405 0.698405
0.702831 0.702831 0.702831
0.709682 0.709682 0.709682
0.717937 0.717937 0.717937
0.727596 0.727596 0.727596
0.739651 0.739651 0.739651
0.753658 0.753658 0.753658
0.770794 0.770794 0.770794
0.788586 0.788586 0.788586
0.803113 0.803113 0.803113
0.801373 0.801373 0.801373
0.796185 0.796185 0.796185
0.790829 0.790829 0.790829
0.785504 0.785504 0.785504
0.780529 0.780529 0.780529
0.775525 0.775525 0.775525
0.771572 0.771572 0.771572
0.767102 0.767102 0.767102
0.765377 0.765377 0.765377
0.763867 0.763867 0.763867
0.76495 0.76495 0.76495
0.766949 0.766949 0.766949
0.725826 0.725826 0.725826
0.726848 0.726848 0.726848
0.727871 0.727871 0.727871
0.728985 0.728985 0.728985
0.730037 0.730037 0.730037
0.731136 0.731136 0.731136
0.732204 0.732204 0.732204
0.733501 0.733501 0.733501
0.735164 0.735164 0.735164
0.737224 0.737224 0.737224
0.739742 0.739742 0.739742
0.742947 0.742947 0.742947
0.747738 0.747738 0.747738
0.753994 0.753994 0.753994
0.760876 0.760876 0.760876
0.769055 0.769055 0.769055
0.779385 0.779385 0.779385
0.791501 0.791501 0.791501
0.805386 0.805386 0.805386
0.819135 0.819135 0.819135
0.83061 0.83061 0.83061
0.830457 0.830457 0.830457
0.823331 0.823331 0.823331
0.815442 0.815442 0.815442
0.807813 0.807813 0.807813
0.802396 0.802396 0.802396
0.796628 0.796628 0.796628
0.791684 0.791684 0.791684
0.787457 0.787457 0.787457
0.784054 0.784054 0.784054
0.781918 0.781918 0.781918
0.780911 0.780911 0.780911
0.781445 0.781445 0.781445
0.750881 0.750881 0.750881
0.751965 0.751965 0.751965
0.753094 0.753094 0.753094
0.754147 0.754147 0.754147
0.755276 0.755276 0.755276
0.756268 0.756268 0.756268
0.757366 0.757366 0.757366
0.758633 0.758633 0.758633
0.760311 0.760311 0.760311
0.762539 0.762539 0.762539
0.765591 0.765591 0.765591
0.769604 0.769604 0.769604
0.774762 0.774762 0.774762
0.78088 0.78088 0.78088
0.788312 0.788312 0.788312
0.796658 0.796658 0.796658
0.805859 0.805859 0.805859
0.817182 0.817182 0.817182
0.829389 0.829389 0.829389
0.842008 0.842008 0.842008
0.852979 0.852979 0.852979
0.856092 0.856092 0.856092
0.849653 0.849653 0.849653
0.839994 0.839994 0.839994
0.831708 0.831708 0.831708
0.825452 0.825452 0.825452
0.819471 0.819471 0.819471
0.813855 0.813855 0.813855
0.808759 0.808759 0.808759
0.803891 0.803891 0.803891
0.801022 0.801022 0.801022
0.798245 0.798245 0.798245
0.79762 0.79762 0.79762
0.766491 0.766491 0.766491
0.767346 0.767346 0.767346
0.768292 0.768292 0.768292
0.769131 0.769131 0.769131
0.770016 0.770016 0.770016
0.770871 0.770871 0.770871
0.771756 0.771756 0.771756
0.772793 0.772793 0.772793
0.774166 0.774166 0.774166
0.775998 0.775998 0.775998
0.778424 0.778424 0.778424
0.78143 0.78143 0.78143
0.785168 0.785168 0.785168
0.78999 0.78999 0.78999
0.79646 0.79646 0.79646
0.804578 0.804578 0.804578
0.814374 0.814374 0.814374
0.826078 0.826078 0.826078
0.839719 0.839719 0.839719
0.854047 0.854047 0.854047
0.866194 0.866194 0.866194
0.874861 0.874861 0.874861
0.870344 0.870344 0.870344
0.863279 0.863279 0.863279
0.85275 0.85275 0.85275
0.847028 0.847028 0.847028
0.841581 0.841581 0.841581
0.83624 0.83624 0.83624
0.831113 0.831113 0.831113
0.82623 0.82623 0.82623
0.822171 0.822171 0.822171
0.817792 0.817792 0.817792
0.815518 0.815518 0.815518
0.780804 0.780804 0.780804
0.781399 0.781399 0.781399
0.78204 0.78204 0.78204
0.782635 0.782635 0.782635
0.78323 0.78323 0.78323
0.783795 0.783795 0.783795
0.78439 0.78439 0.78439
0.785122 0.785122 0.785122
0.786084 0.786084 0.786084
0.787366 0.787366 0.787366
0.789105 0.789105 0.789105
0.791348 0.791348 0.791348
0.794476 0.794476 0.794476
0.79852 0.79852 0.79852
0.803708 0.803708 0.803708
0.809842 0.809842 0.809842
0.817441 0.817441 0.817441
0.827298 0.827298 0.827298
0.839002 0.839002 0.839002
0.85182 0.85182 0.85182
0.865934 0.865934 0.865934
0.87924 0.87924 0.87924
0.883864 0.883864 0.883864
0.879347 0.879347 0.879347
0.8719 0.8719 0.8719
0.865095 0.865095 0.865095
0.860533 0.860533 0.860533
0.856092 0.856092 0.856092
0.851453 0.851453 0.851453
0.846723 0.846723 0.846723
0.842298 0.842298 0.842298
0.838453 0.838453 0.838453
0.835035 0.835035 0.835035
0.79295 0.79295 0.79295
0.793408 0.793408 0.793408
0.793866 0.793866 0.793866
0.794324 0.794324 0.794324
0.794781 0.794781 0.794781
0.795193 0.795193 0.795193
0.795651 0.795651 0.795651
0.796201 0.796201 0.796201
0.796933 0.796933 0.796933
0.797894 0.797894 0.797894
0.799222 0.799222 0.799222
0.800961 0.800961 0.800961
0.803204 0.803204 0.803204
0.806104 0.806104 0.806104
0.809888 0.809888 0.809888
0.814633 0.814633 0.814633
0.820752 0.820752 0.820752
0.828382 0.828382 0.828382
0.838224 0.838224 0.838224
0.849149 0.849149 0.849149
0.861692 0.861692 0.861692
0.873732 0.873732 0.873732
0.882994 0.882994 0.882994
0.884764 0.884764 0.884764
0.883787 0.883787 0.883787
0.879347 0.879347 0.879347
0.875578 0.875578 0.875578
0.872465 0.872465 0.872465
0.868345 0.868345 0.868345
0.864332 0.864332 0.864332
0.860319 0.860319 0.860319
0.856428 0.856428 0.856428
0.853208 0.853208 0.853208
0.802243 0.802243 0.802243
0.802563 0.802563 0.802563
0.80293 0.80293 0.80293
0.80325 0.80325 0.80325
0.803571 0.803571 0.803571
0.803937 0.803937 0.803937
0.804242 0.804242 0.804242
0.804654 0.804654 0.804654
0.805203 0.805203 0.805203
0.805936 0.805936 0.805936
0.806882 0.806882 0.806882
0.808164 0.808164 0.808164
0.809888 0.809888 0.809888
0.812085 0.812085 0.812085
0.815015 0.815015 0.815015
0.818769 0.818769 0.818769
0.82359 0.82359 0.82359
0.830152 0.830152 0.830152
0.838056 0.838056 0.838056
0.847211 0.847211 0.847211
0.858 0.858 0.858
0.868833 0.868833 0.868833
0.880049 0.880049 0.880049
0.884581 0.884581 0.884581
0.884764 0.884764 0.884764
0.884764 0.884764 0.884764
0.884535 0.884535 0.884535
0.883284 0.883284 0.883284
0.881651 0.881651 0.881651
0.878676 0.878676 0.878676
0.87541 0.87541 0.87541
0.872374 0.872374 0.872374
0.869078 0.869078 0.869078
0.809079 0.809079 0.809079
0.809354 0.809354 0.809354
0.809598 0.809598 0.809598
0.809873 0.809873 0.809873
0.810101 0.810101 0.810101
0.810376 0.810376 0.810376
0.81062 0.81062 0.81062
0.810941 0.810941 0.810941
