Luts/Fujifilm/FLog2C_to_Velvia_VLog.cube
TITLE "Generated by Resolve"
LUT_3D_SIZE 33
0 0 0
0 0 0
0 0 0
0 0 0
0.000762951 0 0
0.032639 0.000213626 0.00030518
0.0929732 0.000640879 0.000671397
0.205814 3.0518e-05 0.000747692
0.362905 0 0
0.538643 0 0.00601205
0.730709 0.000320439 0.0381933
0.931121 1.5259e-05 0.111406
0.999222 0.0207065 0.251392
0.999664 0.0733501 0.417029
0.999619 0.153201 0.486732
0.999924 0.255695 0.491676
0.999893 0.286793 0.492287
0.999893 0.286793 0.492287
0.999893 0.286793 0.492287
0.999893 0.286793 0.492287
0.999893 0.286793 0.492287
0.999893 0.286793 0.492287
0.999893 0.286793 0.492287
0.999893 0.286793 0.492287
0.99971 0.291905 0.490394
0.999527 0.317266 0.462501
0.99971 0.3505 0.431601
0.999222 0.381949 0.392233
0.999634 0.417914 0.351995
0.999512 0.452689 0.304707
0.999313 0.490486 0.250874
0.998688 0.528801 0.185489
0.99942 0.570703 0.106096
0 0 0
0 0 0
0 0 0
0 0 0
0.00248722 0 0
0.0434424 0.000549325 0.000259403
0.106981 0.000381476 0.00108339
0.221485 1.5259e-05 4.57771e-05
0.378622 0 0
0.551675 0 0.00706493
0.740414 0.000335698 0.0404822
0.938125 1.5259e-05 0.114855
0.999222 0.0216068 0.254261
0.999664 0.0745861 0.421118
0.999619 0.154818 0.486839
0.999924 0.256916 0.491798
0.999893 0.286717 0.492287
0.999893 0.286793 0.492287
0.999893 0.286793 0.492287
0.999893 0.286793 0.492287
0.999893 0.286793 0.492287
0.999893 0.286793 0.492287
0.999893 0.286793 0.492287
0.999893 0.286793 0.492287
0.999649 0.297063 0.485359
0.999573 0.324437 0.45536
0.999802 0.355169 0.426291
0.999252 0.38584 0.38735
0.999603 0.421027 0.34818
0.999527 0.454871 0.301701
0.999268 0.492363 0.248096
0.998688 0.530144 0.183078
0.99942 0.571817 0.103578
0 0 0
0 0 0
0 0 0
0 0 0
0.0053254 4.57771e-05 0
0.0551614 0.00106813 0.000122072
0.125078 0.000289921 0.00170901
0.237324 1.5259e-05 0.000106813
0.386816 3.0518e-05 3.0518e-05
0.552346 6.10361e-05 0.0074464
0.728985 0.000320439 0.0368353
0.916884 6.10361e-05 0.107362
0.999634 0.0136263 0.227131
0.999451 0.0625315 0.378286
0.999496 0.117464 0.48043
0.999649 0.193957 0.48719
0.999985 0.273289 0.492332
0.999878 0.286656 0.492348
0.999893 0.286793 0.492287
0.999893 0.286793 0.492287
0.999893 0.286793 0.492287
0.999893 0.286793 0.492287
0.999893 0.286793 0.492287
0.999893 0.286793 0.492287
0.999619 0.30396 0.47718
0.999603 0.33106 0.448768
0.999893 0.35964 0.421225
0.999268 0.389593 0.382635
0.999573 0.42414 0.344381
0.999527 0.45716 0.298589
0.999222 0.494224 0.245289
0.998703 0.531609 0.180285
0.999435 0.572946 0.101061
0 0 0
0 0 0
0 0 0
0 0 0
0.0016022 0.000396735 1.5259e-05
0.0249027 0.00077821 0.000183108
0.0794995 0.00109865 0.000732433
0.16347 0.000381476 0.00263981
0.29276 9.15541e-05 0.000320439
0.45626 0 0.00402838
0.615808 0.00047303 0.0136263
0.799802 0 0.0525978
0.980117 0 0.137942
0.999969 0.0298466 0.273106
0.999481 0.0734569 0.4177
1 0.134386 0.486
0.999924 0.2103 0.485985
0.999832 0.279957 0.492927
0.999893 0.286793 0.492287
0.999893 0.286793 0.492287
0.999893 0.286793 0.492287
0.999893 0.286793 0.492287
0.999893 0.286793 0.492287
0.999802 0.290242 0.489281
0.999573 0.310887 0.469642
0.999634 0.337484 0.442359
0.999969 0.364096 0.416175
0.999298 0.393515 0.377874
0.999573 0.427131 0.34049
0.999512 0.45951 0.295109
0.999237 0.496117 0.242145
0.998718 0.533074 0.177478
0.999451 0.57406 0.0985428
0.00062562 0.00062562 0.00062562
0.000686656 0.000686656 0.000686656
0.000747692 0.000747692 0.000747692
0 0 0
0.000335698 7.62951e-05 0
0.0123293 0.000717174 1.5259e-05
0.044419 0.000991836 1.5259e-05
0.112215 0.000671397 0.000564584
0.217166 0 0.00158694
0.361425 0 0.000289921
0.517067 0.000122072 0.00419623
0.681834 7.62951e-05 0.0263676
0.862913 0.000289921 0.0798352
0.998535 7.62951e-05 0.18526
0.999924 0.0475166 0.32256
0.999985 0.0929427 0.461921
0.999313 0.161791 0.488472
0.999649 0.246586 0.491539
0.999893 0.286687 0.492287
0.999893 0.286793 0.492287
0.999893 0.286793 0.492287
0.999893 0.286793 0.492287
0.999878 0.287266 0.49189
0.999588 0.298222 0.482353
0.999527 0.319493 0.462104
0.999695 0.342809 0.436759
0.999939 0.369116 0.41062
0.999329 0.39791 0.373098
0.999603 0.430076 0.336187
0.999496 0.46186 0.291508
0.999252 0.497902 0.239185
0.998734 0.534646 0.174441
0.999451 0.575143 0.0960861
0.000335698 0.0114137 0.000503548
0.000320439 0.0117342 0.00047303
3.0518e-05 0.00787366 0.000244144
0.000427253 0.00410468 0.000427253
0.000762951 0.00196841 0.00103761
0.00434882 0.00128176 7.62951e-05
0.0261692 0.00137331 0.000122072
0.0726177 0.00204471 0.000289921
0.157397 0.000503548 0.00157168
0.280537 7.62951e-05 0.000610361
0.431479 1.5259e-05 0.000915541
0.595987 3.0518e-05 0.0111391
0.769116 0 0.0482643
0.953246 0 0.126833
0.999725 0.0228122 0.249195
0.999603 0.066865 0.403494
0.999985 0.128435 0.487205
0.999985 0.213062 0.488594
0.999893 0.286793 0.492287
0.999893 0.286793 0.492287
0.999893 0.286793 0.492287
0.999741 0.287617 0.491981
0.999725 0.291737 0.488212
0.999512 0.306477 0.474174
0.999466 0.327306 0.455253
0.999741 0.347814 0.43151
0.999924 0.374044 0.405158
0.999359 0.402197 0.368444
0.999634 0.432929 0.332006
0.999481 0.464317 0.287755
0.999283 0.499794 0.236042
0.998764 0.536095 0.171695
0.999466 0.576165 0.0938125
0 0.0317235 0.00030518
0 0.0326543 0.000320439
0.000259403 0.0251164 0.000289921
1.5259e-05 0.015259 1.5259e-05
0.000167849 0.00888075 0.000411994
0.000106813 0.00694286 7.62951e-05
0.0120546 0.00546273 0.000137331
0.0449989 0.00476081 0
0.117968 0.00390631 0.000564584
0.227893 0.00140383 4.57771e-05
0.373495 7.62951e-05 0.000213626
0.532158 0 0.00321965
0.700069 0 0.0293278
0.888273 1.5259e-05 0.0887617
0.999802 0.0030518 0.199863
0.999939 0.054551 0.353155
0.999878 0.106355 0.478798
1 0.188708 0.483925
0.999985 0.272755 0.490654
0.999893 0.286793 0.492287
0.999893 0.286793 0.492287
0.999268 0.290059 0.491066
0.99968 0.29865 0.482475
0.999588 0.316075 0.463539
0.999359 0.334218 0.448157
0.999802 0.352926 0.426139
0.999893 0.378882 0.399786
0.99939 0.406485 0.36379
0.99968 0.435782 0.32784
0.999466 0.466667 0.284153
0.999298 0.501534 0.233127
0.998779 0.53756 0.168887
0.999466 0.577279 0.0912947
0 0.0720073 4.57771e-05
0 0.0729992 1.5259e-05
0.000137331 0.0619821 0.000686656
0.000198367 0.0416724 0.000839246
9.15541e-05 0.0267185 0.00015259
0.000717174 0.0209506 3.0518e-05
0.00331121 0.0172274 0.000259403
0.0275273 0.0148928 0.000732433
0.0831617 0.0141451 7.62951e-05
0.181476 0.0124056 0
0.325338 0.00587472 0.000183108
0.483604 0.00154116 0
0.65388 6.10361e-05 0.00526436
0.83032 0 0.0466011
0.998093 0.00114443 0.143923
1 0.0475471 0.291661
0.999924 0.0907454 0.440925
0.999802 0.168597 0.479713
0.999405 0.252201 0.487495
0.999954 0.293965 0.48925
0.999893 0.295033 0.486107
0.999512 0.301869 0.480201
0.999817 0.310597 0.47248
0.999542 0.326314 0.452583
0.999191 0.341207 0.44007
0.999847 0.359594 0.418967
0.999878 0.384573 0.393469
0.99942 0.411582 0.358251
0.999725 0.43917 0.322896
0.999435 0.469505 0.27982
0.999329 0.503746 0.229465
0.998795 0.539254 0.165637
0.999481 0.578637 0.0882734
0 0.140169 0
9.15541e-05 0.139788 7.62951e-05
6.10361e-05 0.109957 9.15541e-05
0.000869764 0.0813153 0.000106813
0.000122072 0.0636301 0.000640879
0.000259403 0.0506905 0.000411994
0.000854505 0.0443885 0.000381476
0.0132448 0.0386358 0.000427253
0.0587015 0.036286 0.000671397
0.143465 0.0339513 0.000137331
0.276661 0.0289769 0
0.437171 0.0212863 0
0.60209 0.0161898 0
0.773648 0.0118563 0.00321965
0.94403 0.0233616 0.0590066
0.999557 0.0661631 0.189364
0.999496 0.112993 0.347341
0.999924 0.183169 0.441932
0.999939 0.253407 0.459998
1 0.310307 0.471733
0.999954 0.311971 0.469322
0.999313 0.318608 0.463249
0.99939 0.325597 0.456031
0.999146 0.338293 0.440879
0.999069 0.350591 0.429313
0.999924 0.369162 0.408545
0.999725 0.391562 0.384222
0.999466 0.41828 0.350988
0.999771 0.443687 0.316304
0.999405 0.473289 0.274022
0.999359 0.506676 0.224582
0.998825 0.541726 0.160876
0.999496 0.580438 0.0842451
0 0.251057 0
0.00015259 0.227283 0.000122072
3.0518e-05 0.18291 0.000122072
0.00030518 0.14551 0.000198367
0.00030518 0.114656 0.000244144
3.0518e-05 0.0994736 0.000122072
0.000137331 0.0901503 0.000183108
0.00128176 0.0824598 6.10361e-05
0.0319066 0.0783246 0.000732433
0.106706 0.0720684 0
0.23035 0.0677043 0.000610361
0.38732 0.0618601 3.0518e-05
0.553796 0.0561074 0
0.720577 0.0565499 9.15541e-05
0.881849 0.0731365 0.00447089
0.999176 0.102754 0.0727855
0.999527 0.150484 0.235309
0.999832 0.216648 0.384314
0.999634 0.268116 0.416846
0.999847 0.32987 0.444816
0.99942 0.3364 0.442954
0.999298 0.338552 0.44097
0.999466 0.343297 0.437476
0.999054 0.353338 0.426505
0.999176 0.364034 0.414267
1 0.380865 0.395621
0.999466 0.400366 0.371923
0.999527 0.425544 0.341878
0.999847 0.449577 0.307698
0.999359 0.478309 0.266361
0.999405 0.510567 0.218143
0.998856 0.5449 0.154818
0.999527 0.582788 0.0789502
0 0.39202 0.000213626
3.0518e-05 0.333623 0.000289921
9.15541e-05 0.276387 0.000213626
0.000274662 0.232761 0.000335698
6.10361e-05 0.197208 3.0518e-05
0.000198367 0.175586 0
0.000320439 0.16257 6.10361e-05
0.000610361 0.149493 0.000137331
0.00787366 0.14078 0.00030518
0.0682383 0.13135 4.57771e-05
0.177249 0.126284 0.00062562
0.33756 0.118639 0.000213626
0.508095 0.113603 0.000122072
0.666972 0.117891 0
0.821683 0.133547 0
0.983566 0.162722 0.00575265
0.999954 0.203555 0.102785
0.999832 0.259983 0.278645
0.999588 0.295903 0.361044
0.999588 0.345464 0.401846
0.999802 0.361761 0.416648
0.999573 0.362737 0.414969
0.999664 0.36492 0.414908
0.999451 0.372732 0.405905
0.99939 0.380545 0.39585
1 0.395315 0.378866
0.999359 0.412039 0.35642
0.999603 0.434546 0.330312
0.999802 0.457496 0.2972
0.999313 0.484779 0.256504
0.999466 0.515709 0.209598
0.998901 0.549065 0.146807
0.999542 0.585931 0.0718853
0.000122072 0.493797 0.000167849
1.5259e-05 0.436347 4.57771e-05
0.000183108 0.381933 0.000579843
0.000671397 0.339498 3.0518e-05
3.0518e-05 0.303639 0.00015259
0.000244144 0.281804 0
0 0.266224 7.62951e-05
0 0.250446 0.000244144
0.000961318 0.237903 0.000198367
0.0235447 0.225299 0.00047303
0.128313 0.213458 0
0.284352 0.203632 0.000122072
0.455558 0.195636 0.000808728
0.612421 0.197131 0.000411994
0.762112 0.21265 0.00030518
0.926879 0.235538 0.000320439
0.999649 0.2654 0.00851453
0.999481 0.308202 0.143816
0.999771 0.338186 0.282628
0.999863 0.369741 0.34197
0.999725 0.394293 0.380667
0.999817 0.39118 0.38265
0.999573 0.391745 0.380743
0.999619 0.395987 0.377325
0.999237 0.401938 0.370977
0.999985 0.41352 0.356954
0.999741 0.428153 0.336965
0.999603 0.446571 0.31426
0.999741 0.467628 0.283833
0.999161 0.493538 0.243763
0.999542 0.522438 0.198154
0.998962 0.554604 0.136202
0.999588 0.590097 0.062562
0.000137331 0.577081 0.000564584
0.000213626 0.52958 0.000656138
0 0.484947 0.000366217
0 0.452003 0.00047303
0 0.423056 0
0 0.402121 0.000289921
6.10361e-05 0.38735 4.57771e-05
1.5259e-05 0.371847 0.000503548
3.0518e-05 0.355688 0.000488289
0.00297551 0.341253 0.000488289
0.0558328 0.328176 0.0009308
0.206165 0.312474 3.0518e-05
0.390524 0.299596 3.0518e-05
0.556008 0.294972 0.000122072
0.705028 0.303685 0
0.863539 0.315572 3.0518e-05
0.996948 0.337697 0.000381476
0.999252 0.366949 0.0160067
0.999557 0.396414 0.174228
0.999252 0.406104 0.258366
0.999435 0.427955 0.326726
0.999466 0.42591 0.341085
0.999481 0.423072 0.345388
0.999359 0.423392 0.343252
0.999466 0.428473 0.338109
0.999893 0.435691 0.329107
0.999908 0.446448 0.312978
0.999481 0.462745 0.291539
0.999619 0.480735 0.264698
0.998962 0.504891 0.227222
0.999649 0.531136 0.182361
0.999069 0.56173 0.122377
0.999634 0.595605 0.0502174
0 0.644297 9.15541e-05
0 0.607767 1.5259e-05
3.0518e-05 0.577523 0
6.10361e-05 0.553948 7.62951e-05
1.5259e-05 0.534813 0.000183108
7.62951e-05 0.520226 0.000396735
1.5259e-05 0.50869 0.000549325
7.62951e-05 0.494896 0.000244144
1.5259e-05 0.481727 4.57771e-05
0 0.468223 0.000183108
0.00929274 0.45388 0.00030518
0.11548 0.434394 0.000350958
0.310048 0.414221 0.000122072
0.495125 0.400885 0
0.650584 0.398856 1.5259e-05
0.800107 0.402594 0
0.960983 0.414984 1.5259e-05
0.999817 0.433127 3.0518e-05
0.999435 0.456352 0.0354772
0.999283 0.455543 0.154299
0.999832 0.467308 0.244633
0.999817 0.463798 0.28954
0.999115 0.459678 0.294286
0.998978 0.457099 0.298512
0.999786 0.457008 0.299062
0.999771 0.461341 0.292546
0.999832 0.469047 0.280797
0.999496 0.481773 0.262699
0.999359 0.497566 0.237507
0.998886 0.518532 0.204654
0.999771 0.542306 0.162066
0.999268 0.571023 0.104067
0.999588 0.603159 0.0369421
0 0.708904 0.000640879
0 0.684672 0.000656138
1.5259e-05 0.665736 0.000350958
0.000137331 0.648661 9.15541e-05
7.62951e-05 0.634836 0.000381476
7.62951e-05 0.62414 0.000335698
0.000106813 0.616037 9.15541e-05
1.5259e-05 0.606577 0.000411994
0 0.594369 0.000122072
0 0.582589 4.57771e-05
0 0.571069 0.000671397
0.0366674 0.552407 0.000396735
0.212497 0.528298 0.000259403
0.420035 0.508812 0.000244144
0.59115 0.497047 1.5259e-05
0.742733 0.49102 0.000122072
0.908431 0.493904 0.000366217
0.999008 0.498192 0.000228885
0.999069 0.516915 0.000106813
0.999268 0.518303 0.0297704
0.999344 0.513176 0.131594
0.99971 0.507668 0.220859
0.998962 0.499825 0.236133
0.998917 0.495003 0.242512
0.999802 0.491539 0.246555
0.99971 0.492119 0.246723
0.999664 0.496712 0.238514
0.999527 0.505684 0.225177
0.999374 0.518257 0.203204
0.999008 0.534874 0.174563
0.999756 0.557336 0.133486
0.999527 0.582986 0.0805219
0.999405 0.613352 0.0234226
0 0.779019 0.000579843
0 0.762203 0.000259403
0 0.748043 7.62951e-05
0.000427253 0.736996 0.000900282
0.000564584 0.727489 0.000976577
0.000350958 0.719234 0.000198367
0.000442512 0.71223 0.000183108
0.000610361 0.704082 0.000366217
0.000488289 0.695155 0.000396735
0.000137331 0.684276 0.000122072
0.000122072 0.67451 0
1.5259e-05 0.659098 0
0.0871595 0.638437 0.000762951
0.326329 0.611475 0.000350958
0.523354 0.592981 4.57771e-05
0.682689 0.578454 0
0.842924 0.563333 0.000381476
0.984619 0.551644 0
0.99913 0.561166 0
0.999619 0.587732 3.0518e-05
0.99884 0.572183 0.0128328
0.999588 0.557931 0.111025
0.99968 0.545892 0.1561
0.998734 0.536217 0.171313
0.999176 0.53109 0.181277
0.999237 0.530251 0.185397
0.999542 0.529519 0.185275
0.999268 0.535088 0.175082
0.999344 0.543832 0.158404
0.999557 0.558282 0.130846
0.999603 0.57673 0.095491
0.999435 0.598611 0.0476844
0.999176 0.626413 0.00610361
0 0.85095 0.000915541
1.5259e-05 0.841733 0.000717174
3.0518e-05 0.833814 0.000244144
1.5259e-05 0.825544 0.000579843
0 0.818219 0.000961318
0.000106813 0.811688 0.000640879
0.000198367 0.806058 0.000320439
0.000137331 0.799207 0.00015259
0 0.790829 1.5259e-05
6.10361e-05 0.781842 0.000183108
9.15541e-05 0.770703 0.000579843
3.0518e-05 0.759579 0.000366217
0.00988785 0.745525 0.00030518
0.19234 0.717937 0.000259403
0.435782 0.684291 0.000167849
0.617533 0.65687 0.000213626
0.776196 0.635737 4.57771e-05
0.94995 0.616419 0
0.998978 0.605035 7.62951e-05
0.999756 0.625254 9.15541e-05
0.999039 0.63299 0
0.998932 0.618189 0.0108644
0.999619 0.597208 0.0504005
0.999542 0.584848 0.0764172
0.999405 0.577417 0.0917372
0.999374 0.571221 0.103807
0.999161 0.568933 0.109316
0.999466 0.569162 0.107698
0.999146 0.574578 0.0961013
0.999619 0.585473 0.0747082
0.999619 0.60032 0.0433814
0.999054 0.618479 0.00466926
0.999237 0.643198 0
1.5259e-05 0.920485 0.000137331
0 0.914382 0.000427253
0 0.90869 0.000701915
0 0.902876 0.000671397
0 0.897597 0.000640879
0 0.892729 0.000564584
0 0.888319 0.000350958
0 0.883162 0.000122072
0.000137331 0.877531 0.000320439
0.000350958 0.870832 0.000793469
9.15541e-05 0.862531 0.000198367
9.15541e-05 0.853239 0.000183108
0.00047303 0.842863 0.000503548
0.0258335 0.820447 0.000106813
0.31133 0.773999 0.000244144
0.536904 0.73753 0.000183108
0.707195 0.710262 0
0.877729 0.685267 1.5259e-05
0.994079 0.666087 0.000106813
0.998825 0.665766 0
0.9991 0.668254 1.5259e-05
0.999222 0.669917 0
0.99968 0.654871 6.10361e-05
0.998825 0.64033 0.000991836
0.99939 0.628809 0.004654
0.999252 0.61976 0.0122988
0.999298 0.613977 0.0209812
0.999832 0.611719 0.0269627
0.999817 0.612528 0.0157931
0.999435 0.618067 0.0162051
0.999313 0.628351 0.00880446
0.999542 0.643442 0.000793469
0.999466 0.66421 0
0 0.988342 0.000198367
0 0.985122 0.000167849
0 0.981765 0.000137331
0.000137331 0.977951 0.000442512
0.000274662 0.97435 0.000762951
0.000396735 0.97084 0.00105287
0.000396735 0.967193 0.00102235
0.000259403 0.963012 0.000656138
7.62951e-05 0.957565 0.000183108
0 0.951278 0.000457771
0 0.943709 0.00128176
0 0.935546 0.000427253
0 0.925612 7.62951e-05
0.00593576 0.914031 0.000213626
0.133684 0.874434 1.5259e-05
0.425589 0.826246 0.000244144
0.628305 0.791287 0.000442512
0.799222 0.762585 0.000335698
0.972793 0.736522 0.000274662
0.999329 0.723461 0
0.999237 0.721172 0.00047303
0.998917 0.702388 1.5259e-05
0.999222 0.695537 0.000228885
0.999344 0.689342 0.000106813
0.999008 0.680797 0
0.999374 0.675654 9.15541e-05
0.999252 0.663569 0.00015259
0.999542 0.659251 0.000183108
0.999191 0.655772 0
0.999161 0.657221 1.5259e-05
0.998947 0.663432 0
0.999344 0.672587 0.000137331
0.998947 0.683864 0
0 1 0.000289921
0 1 0.000289921
0 1 0.000289921
0 1 0.000289921
0 1 0.000289921
0 1 0.000289921
0 1 0.000289921
0 0.999771 0.000289921
0 0.999252 0.000289921
0 0.998566 0.000289921
0 0.997757 0.00030518
0 0.996826 0.00030518
6.10361e-05 0.995804 0.000411994
1.5259e-05 0.994659 0.000366217
0.0165408 0.979614 0.000122072
0.261418 0.929198 0.000915541
0.523095 0.884565 4.57771e-05
0.712886 0.85095 0
0.896895 0.819272 0.000213626
0.999252 0.796246 0
0.999634 0.790249 0.000259403
0.999466 0.765164 6.10361e-05
0.999069 0.73228 0
0.999695 0.715938 0.000167849
0.999542 0.708919 0.000534066
0.999466 0.703304 7.62951e-05
0.99881 0.698085 0.000274662
0.99881 0.694301 0
0.999268 0.691661 0.000122072
0.99942 0.691432 0.000137331
0.999359 0.692241 0
0.999466 0.693721 4.57771e-05
0.999191 0.697948 0.000274662
0 1 0.000289921
0 1 0.000289921
0 1 0.000289921
0 1 0.000289921
0 1 0.000289921
0 1 0.000289921
0 1 0.000289921
0 1 0.000289921
0 1 0.000289921
0 1 0.000289921
0 1 0.000289921
0 1 0.000289921
0 1 0.000289921
0 1 0.000289921
0 1 0.000289921
0.0614328 0.997269 0.000503548
0.383169 0.976165 1.5259e-05
0.612146 0.938323 1.5259e-05
0.805676 0.904784 1.5259e-05
0.970016 0.875731 0.000320439
0.998642 0.858595 0.000106813
0.999603 0.834775 0.000518807
0.999405 0.797269 6.10361e-05
0.999176 0.760143 0
0.999115 0.743389 0.000396735
0.998917 0.732723 0.000213626
0.999237 0.723888 0.000122072
0.999527 0.718044 4.57771e-05
0.999268 0.713558 0.000106813
0.999268 0.710964 0.000244144
0.999023 0.71017 0.000198367
0.999191 0.710262 0.000274662
0.999786 0.712947 0.000442512
0 1 0.000289921
0 1 0.000289921
0 1 0.000289921
0 1 0.000289921
0 1 0.000289921
0 1 0.000289921
0 1 0.000289921
0 1 0.000289921
0 1 0.000289921
0 1 0.000289921
0 1 0.000289921
0 1 0.000289921
0 1 0.000289921
0 1 0.000289921
0 1 0.000289921
0.0055848 0.999985 0.000289921
0.181415 0.999969 6.10361e-05
0.493324 0.998291 0.000427253
0.703502 0.979812 9.15541e-05
0.902831 0.946044 0.000183108
0.998657 0.918135 0
0.999115 0.895949 0
0.998611 0.86421 3.0518e-05
0.998749 0.824491 0.000198367
0.999512 0.799298 0.00015259
0.999725 0.783917 0.00015259
0.99881 0.77023 9.15541e-05
0.999573 0.758175 0
0.999222 0.746319 0.000198367
0.99942 0.740566 0.000228885
0.999374 0.735256 0
0.999496 0.734249 9.15541e-05
0.999161 0.734157 0.000335698
0 1 0.000289921
0 1 0.000289921
0 1 0.000289921
0 1 0.000289921
0 1 0.000289921
0 1 0.000289921
0 1 0.000289921
0 1 0.000289921
0 1 0.000289921
0 1 0.000289921
0 1 0.000289921
0 1 0.000289921
0 1 0.000289921
0 1 0.000289921
0 1 0.000289921
0 1 0.000289921
0.00573739 1 0.000289921
0.288746 0.999588 7.62951e-05
0.580331 0.999969 0.000808728
0.785519 0.992126 0.000442512
0.971679 0.96434 0.000137331
0.9991 0.941527 0
0.999207 0.91931 3.0518e-05
0.999786 0.88716 1.5259e-05
0.999176 0.856626 0.000549325
0.998825 0.840604 7.62951e-05
0.998856 0.826658 0.00015259
0.998917 0.813092 0.000137331
0.998947 0.801205 0.000228885
0.999451 0.789532 0
0.999207 0.781216 0.000198367
0.999268 0.775082 4.57771e-05
0.999557 0.771939 0.000167849
0 1 0.000289921
0 1 0.000289921
0 1 0.000289921
0 1 0.000289921
0 1 0.000289921
0 1 0.000289921
0 1 0.000289921
0 1 0.000289921
0 1 0.000289921
0 1 0.000289921
0 1 0.000289921
0 1 0.000289921
0 1 0.000289921
0 1 0.000289921
0 1 0.000289921
0 1 0.000289921
0 1 0.000289921
0.0785229 1 0.000366217
0.395331 1 0.0009308
0.653483 0.999985 4.57771e-05
0.855894 0.992401 0.000396735
0.99237 0.968734 0
0.998993 0.95581 0.000228885
0.99968 0.936721 4.57771e-05
0.998718 0.904189 0
0.999283 0.890898 0.000411994
0.999298 0.878309 9.15541e-05
0.999298 0.86569 0.000228885
0.999298 0.853803 0
0.999161 0.842145 0
0.999268 0.83183 0
0.999405 0.823682 0.000198367
0.998978 0.817823 0
0 1 0.000289921
0 1 0.000289921
0 1 0.000289921
0 1 0.000289921
0 1 0.000289921
0 1 0.000289921
0 1 0.000289921
0 1 0.000289921
0 1 0.000289921
0 1 0.000289921
0 1 0.000289921
0 1 0.000289921
0 1 0.000289921
0 1 0.000289921
0 1 0.000289921
0 1 0.000289921
0 1 0.000289921
0 1 0.000289921
0.271687 0.999588 6.10361e-05
0.542641 0.999924 9.15541e-05
0.742504 0.999054 0.000213626
0.925536 0.983642 0.000228885
0.999344 0.968566 0.000244144
0.9991 0.963623 0.000396735
0.999649 0.948394 0
0.998718 0.932586 0
0.999435 0.92285 0
0.999405 0.91223 0.000137331
0.999222 0.900755 0.000366217
0.999222 0.890211 6.10361e-05
0.999313 0.880034 3.0518e-05
0.999039 0.870344 0
0.999542 0.862699 0
0 1 0.000289921
0 1 0.000289921
0 1 0.000289921
0 1 0.000289921
0 1 0.000289921
0 1 0.000289921
0 1 0.000289921
0 1 0.000289921
0 1 0.000289921
0 1 0.000289921
0 1 0.000289921
0 1 0.000289921
0 1 0.000289921
0 1 0.000289921
0 1 0.000289921
0 1 0.000289921
0 1 0.000289921
0.0241245 0.999985 0.000381476
0.169604 0.999908 0.000915541
0.43621 0.999786 0.000854505
0.647395 0.999908 0.000137331
0.827619 0.995163 0
0.967865 0.976013 4.57771e-05
0.998596 0.968673 0.000198367
0.999298 0.967361 0.000595102
0.999054 0.960586 0.000381476
0.998489 0.954833 0
0.998764 0.947295 0.000106813
0.999298 0.939895 0
0.999542 0.930495 0
0.998917 0.921324 0
0.9991 0.913298 0
0.998611 0.904906 4.57771e-05
0 1 0.000289921
0 1 0.000289921
0 1 0.000289921
0 1 0.000289921
0 1 0.000289921
0 1 0.000289921
0 1 0.000289921
0 1 0.000289921
0 1 0.000289921
0 1 0.000289921
0 1 0.000289921
0 1 0.000289921
0 1 0.000289921
0 1 0.000289921
0 1 0.000289921
0 1 0.000289921
0 1 0.000289921
0 1 0.000289921
0.0585184 0.999954 0.000289921
0.334752 0.999756 0.000320439
0.552987 0.999374 0.000640879
0.732662 0.999893 0.000808728
0.902434 0.986267 4.57771e-05
0.99472 0.971633 3.0518e-05
0.998627 0.968658 0.000183108
0.99939 0.968353 0.000213626
0.99881 0.968154 0.000167849
0.999222 0.966781 0.000701915
0.9991 0.962753 0
0.998779 0.959304 0.000122072
0.999664 0.953323 0.000122072
0.998611 0.946777 1.5259e-05
0.999298 0.940246 0.000167849
0 1 0.000289921
0 1 0.000289921
0 1 0.000289921
0 1 0.000289921
0 1 0.000289921
0 1 0.000289921
0 1 0.000289921
0 1 0.000289921
0 1 0.000289921
