Luts/Fujifilm/FLog2C_to_REALA-ACE_VLog.cube
TITLE "Generated by Resolve"
LUT_3D_SIZE 9
0 0 0
0.0110018 0.00141909 0.000350958
0.357107 0.000259403 0.0166476
0.873075 0.122347 0.226017
0.940826 0.327153 0.473701
0.940826 0.327153 0.473701
0.940902 0.330694 0.473457
0.963836 0.430701 0.382132
0.983001 0.577996 0.188617
0.000213626 0.0078584 7.62951e-05
0.00518807 6.10361e-05 7.62951e-05
0.216678 0.000198367 0.00810254
0.720592 0.000122072 0.0798505
0.920958 0.235142 0.431601
0.940826 0.327153 0.473701
0.945602 0.34963 0.457145
0.96585 0.441398 0.371313
0.98323 0.582177 0.179339
0.000137331 0.20177 0
0 0.107942 0.000183108
0.125322 0.085008 0.000137331
0.547066 0.039704 0.00190738
0.911772 0.200977 0.322011
0.944488 0.345281 0.460807
0.950866 0.373053 0.435126
0.969055 0.455238 0.359365
0.98349 0.587121 0.168368
0.160235 0.496422 0.116258
0.0809491 0.384161 0.0499123
0.051667 0.336812 0.0202487
0.392721 0.294347 0
0.876249 0.302434 0.0393683
0.966171 0.440757 0.364477
0.966369 0.440253 0.375708
0.975738 0.491859 0.320668
0.984268 0.601343 0.136843
0.40708 0.755642 0.337942
0.356847 0.719265 0.290669
0.320226 0.69012 0.256275
0.319188 0.642222 0.185153
0.759915 0.619821 0.000915541
0.978714 0.639002 0.00596628
0.983932 0.585016 0.174716
0.983673 0.582589 0.177188
0.98201 0.64828 0.0464027
0.663661 0.929183 0.593484
0.663661 0.929183 0.593484
0.663661 0.929183 0.593484
0.664408 0.929351 0.593423
0.767803 0.921233 0.507683
0.988388 0.883345 3.0518e-05
0.983978 0.780499 9.15541e-05
0.984222 0.754498 0.000122072
0.982757 0.753475 7.62951e-05
0.663767 0.929213 0.593439
0.664256 0.929351 0.593286
0.66482 0.929488 0.593103
0.670954 0.930617 0.592615
0.739864 0.941924 0.590219
0.934173 0.976791 0.532692
0.996323 0.957046 0.18407
0.988022 0.905638 0.000274662
0.987823 0.875303 0.00015259
0.694514 0.933654 0.592065
0.69691 0.934096 0.592004
0.699596 0.934585 0.591928
0.70782 0.93608 0.591699
0.737346 0.940887 0.58996
0.835081 0.958434 0.57644
0.993317 0.986587 0.43975
0.996979 0.986648 0.425681
0.997436 0.98407 0.404379
0.857847 0.962554 0.571496
0.858686 0.962707 0.571252
0.859693 0.96289 0.570977
0.862699 0.963455 0.570138
0.872419 0.965255 0.567452
0.900282 0.970306 0.554665
0.969635 0.982971 0.492927
0.996979 0.986648 0.425681
0.996979 0.986648 0.425681
0 0 0
0.00462348 4.57771e-05 4.57771e-05
0.323308 0 0.0116121
0.850477 0.0886091 0.191989
0.940826 0.327153 0.473701
0.940826 0.327153 0.473701
0.941009 0.331014 0.471855
0.963836 0.430777 0.382055
0.983001 0.578103 0.188388
4.57771e-05 0.00766003 0.00939956
0.000213626 0.000106813 0
0.181277 0.000274662 0.00474556
0.687602 0 0.0643015
0.91902 0.224475 0.423285
0.940826 0.327153 0.473701
0.945571 0.350439 0.456641
0.965866 0.441489 0.371237
0.98323 0.582177 0.179339
3.0518e-05 0.216724 9.15541e-05
0 0.127794 0.000549325
0.104097 0.0949874 0.000732433
0.519036 0.0505837 0.00015259
0.910506 0.198962 0.287312
0.945922 0.349737 0.456474
0.950591 0.374273 0.434516
0.969055 0.455238 0.359365
0.98349 0.587121 0.168368
0.1785 0.523705 0.132418
0.0907912 0.398062 0.0584115
0.0546731 0.347341 0.0271916
0.359731 0.308492 1.5259e-05
0.853697 0.302754 0.0215152
0.967193 0.443915 0.349172
0.966583 0.440742 0.374228
0.975738 0.491859 0.320668
0.984268 0.601343 0.136843
0.432181 0.774548 0.362829
0.381476 0.736614 0.314061
0.340154 0.706676 0.275135
0.313039 0.658061 0.206104
0.727153 0.633585 1.5259e-05
0.979477 0.651041 0.00144961
0.982834 0.58558 0.17145
0.983673 0.582589 0.177188
0.98201 0.64828 0.0464027
0.663661 0.929183 0.593484
0.663661 0.929183 0.593484
0.663661 0.929183 0.593484
0.663661 0.929183 0.593484
0.757382 0.929458 0.54345
0.987655 0.893309 0.000335698
0.985367 0.783551 3.0518e-05
0.984222 0.754574 0.000122072
0.982757 0.753475 7.62951e-05
0.663661 0.929183 0.593484
0.663661 0.929183 0.593484
0.663661 0.929183 0.593484
0.664897 0.92929 0.593484
0.704646 0.935668 0.591516
0.903181 0.970413 0.551568
0.997208 0.966247 0.260197
0.988022 0.905638 0.000274662
0.987823 0.875303 0.00015259
0.680507 0.931365 0.593454
0.682277 0.931685 0.593362
0.684245 0.932036 0.593271
0.690257 0.933104 0.592996
0.712596 0.936889 0.59173
0.799039 0.951965 0.583719
0.977646 0.984283 0.475532
0.996979 0.986648 0.425681
0.997436 0.98407 0.404379
0.852491 0.96202 0.572534
0.853315 0.962158 0.57229
0.854307 0.962341 0.571984
0.857282 0.96286 0.571099
0.86685 0.964523 0.568231
0.894896 0.969528 0.557092
0.964431 0.981918 0.498863
0.996979 0.986648 0.425681
0.996979 0.986648 0.425681
0.000854505 0 0.0682383
0.000701915 0 0.0425422
0.283009 4.57771e-05 0.0257115
0.814603 0.0411841 0.14931
0.940429 0.3252 0.472938
0.940826 0.327153 0.473701
0.943694 0.338277 0.46659
0.966171 0.441169 0.375647
0.983001 0.578103 0.188388
1.5259e-05 1.5259e-05 0.154391
6.10361e-05 0 0.0771954
0.175402 0.000289921 0.0663767
0.649821 0 0.0791638
0.91487 0.206271 0.413886
0.940826 0.327153 0.473701
0.948394 0.361242 0.445106
0.968719 0.452506 0.364233
0.98323 0.582177 0.179339
0.000503548 0.197604 0.205097
0.000381476 0.13434 0.124636
0.105821 0.10692 0.105516
0.486732 0.0463111 0.0811322
0.910155 0.195621 0.285161
0.948486 0.359701 0.448173
0.955261 0.389364 0.420401
0.971542 0.466239 0.348623
0.98349 0.587121 0.168368
0.179706 0.555276 0.194659
0.102449 0.422339 0.0866255
0.0649424 0.366369 0.0443275
0.333776 0.318624 0.00231937
0.835233 0.294179 0.0784314
0.968154 0.451118 0.373098
0.970687 0.460655 0.353628
0.977478 0.504677 0.30251
0.984268 0.601343 0.136843
0.506065 0.826535 0.434119
0.4551 0.790509 0.384237
0.408759 0.757595 0.339513
0.347051 0.700374 0.260914
0.697704 0.659983 0.000549325
0.984207 0.663157 0.0697032
0.987076 0.608606 0.186938
0.984009 0.597391 0.146181
0.98201 0.64828 0.0464027
0.663661 0.929183 0.593484
0.663661 0.929183 0.593484
0.663661 0.929183 0.593484
0.663661 0.929183 0.593484
0.747097 0.940108 0.581827
0.987121 0.905638 0.00178531
0.986816 0.823911 0.000137331
0.983673 0.763836 0
0.982757 0.753475 7.62951e-05
0.663661 0.929183 0.593484
0.663661 0.929183 0.593484
0.663661 0.929183 0.593484
0.663661 0.929183 0.593484
0.686656 0.932845 0.592569
0.878859 0.966644 0.564553
0.997177 0.976669 0.339498
0.988617 0.919417 0.00706493
0.987823 0.875303 0.00015259
0.675013 0.930632 0.593637
0.676417 0.930892 0.593591
0.678157 0.931228 0.593545
0.683238 0.932219 0.593408
0.703136 0.935637 0.592508
0.780697 0.948623 0.585855
0.964126 0.982162 0.501091
0.996979 0.986648 0.425681
0.997436 0.98407 0.404379
0.846159 0.960464 0.574426
0.846983 0.960616 0.574197
0.847974 0.960815 0.573938
0.85095 0.961379 0.573129
0.860578 0.963195 0.570565
0.888273 0.968093 0.559701
0.95874 0.980758 0.505089
0.996979 0.986648 0.425681
0.996979 0.986648 0.425681
0.00015259 1.5259e-05 0.324819
3.0518e-05 0.00047303 0.263935
0.290379 0 0.196185
0.788479 7.62951e-05 0.230701
0.939544 0.321035 0.485496
0.941878 0.333425 0.505333
0.948135 0.360296 0.518654
0.971618 0.466835 0.426886
0.9841 0.606775 0.125475
0.00062562 0.00015259 0.438621
0.000900282 0.000396735 0.361471
0.199588 1.5259e-05 0.283558
0.626581 3.0518e-05 0.271916
0.908446 0.203738 0.53492
0.944289 0.346319 0.560357
0.953368 0.385107 0.518135
0.97406 0.479118 0.421683
0.983795 0.611368 0.116884
0.000961318 0.147387 0.526589
0.000213626 0.0914168 0.412253
0.0549325 0.0557259 0.334966
0.471 0.0316472 0.318685
0.908904 0.187396 0.448203
0.953902 0.392691 0.571267
0.960204 0.414374 0.515694
0.976928 0.492958 0.416022
0.983413 0.616907 0.10663
0.0291905 0.548135 0.557519
0.000122072 0.396582 0.384329
0.000122072 0.336629 0.322454
0.324117 0.324361 0.323934
0.825742 0.28542 0.342763
0.970138 0.464271 0.54789
0.974411 0.483482 0.502876
0.984451 0.530892 0.397269
0.982391 0.632792 0.0771191
0.512062 0.842283 0.559564
0.469093 0.811795 0.505913
0.432441 0.784207 0.460639
0.367468 0.730419 0.379339
0.69276 0.67924 0.21239
0.997147 0.673518 0.394751
0.99707 0.625177 0.440589
0.993927 0.623865 0.329335
0.981476 0.682185 0.00737011
0.663661 0.929183 0.593484
0.663661 0.929183 0.593484
0.663661 0.929183 0.593484
0.663661 0.929183 0.593484
0.725139 0.938994 0.590951
0.986343 0.961669 0.251545
0.99617 0.830213 0.242008
0.991409 0.791547 0.140307
0.985626 0.781704 9.15541e-05
0.663661 0.929183 0.593484
0.663661 0.929183 0.593484
0.663661 0.929183 0.593484
0.663661 0.929183 0.593484
0.672679 0.930785 0.593118
0.844205 0.959945 0.575586
0.997436 0.980072 0.371099
0.990066 0.93019 0.0290532
0.988052 0.894484 7.62951e-05
0.670298 0.930388 0.592798
0.671366 0.930541 0.592798
0.672709 0.930724 0.592782
0.6766 0.931289 0.592767
0.693065 0.933959 0.592371
0.763012 0.945098 0.587991
0.941375 0.978012 0.523949
0.996979 0.986648 0.425681
0.996979 0.986648 0.425681
0.83473 0.958175 0.577356
0.835523 0.958328 0.577157
0.836484 0.958526 0.576928
0.839323 0.959091 0.576226
0.848493 0.960922 0.573983
0.875685 0.965759 0.564355
0.946258 0.97818 0.518715
0.996979 0.986648 0.425681
0.996979 0.986648 0.425681
0.000503548 1.5259e-05 0.613687
0.000320439 1.5259e-05 0.591516
0.246189 7.62951e-05 0.453193
0.767742 0.0121462 0.454643
0.933242 0.328634 0.60502
0.935622 0.36524 0.629511
0.941451 0.40148 0.645304
0.976074 0.50161 0.618097
0.998413 0.63212 0.488457
0.0871595 0.00134279 0.668956
0.0478065 0.000213626 0.652903
0.129061 0.000259403 0.557061
0.597009 0.0535897 0.541024
0.865934 0.302983 0.704875
0.920058 0.375067 0.664408
0.950027 0.428595 0.653696
0.978134 0.511971 0.618112
0.998489 0.63624 0.486275
0.180957 0.158572 0.759167
0.116136 0.0799573 0.69807
0.0557717 0.0132601 0.639338
0.44715 0.0821241 0.600717
0.866682 0.287495 0.675715
0.930053 0.423117 0.688609
0.959258 0.457832 0.663005
0.980392 0.52369 0.617014
0.998581 0.641169 0.483711
0.209491 0.57467 0.844343
0.0958419 0.41062 0.783032
0.000381476 0.313695 0.714092
0.269764 0.27483 0.678813
0.799237 0.336919 0.675319
0.946365 0.495003 0.723445
0.979095 0.521691 0.677134
0.987549 0.556329 0.61323
0.99884 0.655406 0.476005
0.467262 0.815732 0.806256
0.423911 0.788861 0.775021
0.383459 0.763851 0.74844
0.302586 0.71046 0.694469
0.691508 0.69221 0.69163
0.997864 0.669795 0.717662
0.998062 0.639368 0.66743
0.99881 0.63682 0.592523
0.998871 0.697795 0.448493
0.65211 0.936049 0.764813
0.651942 0.935912 0.761959
0.652979 0.935866 0.759258
0.652049 0.936126 0.751827
0.684703 0.938628 0.735958
0.938293 0.930663 0.53843
0.998596 0.819562 0.584543
0.998581 0.784619 0.513237
0.998154 0.79443 0.365438
0.660121 0.929671 0.619013
0.660304 0.929793 0.619562
0.660517 0.929931 0.620218
0.660777 0.930236 0.622156
0.666484 0.931792 0.627237
0.800961 0.952956 0.607034
0.995438 0.988418 0.488014
0.99823 0.964401 0.388296
0.996124 0.946441 0.180926
0.675654 0.930861 0.595682
0.676616 0.930983 0.595483
0.677806 0.931167 0.595224
0.68127 0.931655 0.594461
0.694469 0.933761 0.593057
0.750576 0.943343 0.589563
0.909743 0.972274 0.548852
0.997147 0.988418 0.438178
0.996979 0.986648 0.425681
0.816251 0.956817 0.620325
0.816983 0.956939 0.620005
0.817884 0.957076 0.619486
0.820523 0.957504 0.618326
0.829068 0.958877 0.614206
0.855131 0.963149 0.601175
0.92462 0.975387 0.557534
0.99617 0.988067 0.447822
0.996979 0.986648 0.425681
0.104463 0.0109865 0.681208
0.104463 0.0109865 0.681208
0.143908 0.0154574 0.672816
0.699901 0.213581 0.689097
0.869551 0.348653 0.737163
0.885786 0.384527 0.734981
0.8972 0.42237 0.747616
0.946303 0.528115 0.752834
0.996368 0.649821 0.726345
0.1308 0.0285039 0.693812
0.132311 0.0295872 0.694545
0.127031 0.0203098 0.687144
0.529671 0.194064 0.766278
0.841016 0.372839 0.825757
0.876814 0.401938 0.768414
0.902586 0.446693 0.759045
0.949874 0.53846 0.755673
0.996567 0.653132 0.725933
0.185229 0.122744 0.747539
0.185763 0.121462 0.746792
0.143145 0.0477455 0.704768
0.446555 0.170504 0.777951
0.833097 0.367834 0.824964
0.875776 0.428717 0.797498
0.910094 0.47155 0.766674
0.953948 0.550759 0.758801
0.996811 0.657115 0.725444
0.180072 0.472663 0.831632
0.168154 0.422431 0.826932
0.155581 0.345052 0.81825
0.323262 0.28304 0.806699
0.767361 0.396353 0.840024
0.88539 0.501823 0.849699
0.930053 0.534478 0.789425
0.965728 0.582483 0.767895
0.997497 0.668467 0.72401
0.325612 0.728679 0.859327
0.304128 0.715373 0.85803
0.290425 0.704204 0.857542
0.255421 0.667811 0.855329
0.646937 0.651133 0.925505
0.927947 0.673991 0.914397
0.969482 0.651194 0.815305
0.987701 0.65716 0.779431
0.99881 0.702358 0.716793
0.588754 0.8925 0.896666
0.586587 0.890394 0.89456
0.581384 0.886671 0.890242
0.574685 0.883223 0.882551
0.59028 0.887221 0.873808
0.882994 0.883345 0.883207
0.998413 0.812497 0.825498
0.998749 0.777768 0.769482
0.998398 0.78143 0.691203
0.651041 0.936461 0.8047
0.65095 0.9364 0.804257
0.650752 0.936248 0.803647
0.650294 0.935866 0.802014
0.650355 0.935927 0.80174
0.750637 0.954086 0.805753
0.992187 0.993072 0.737728
0.998169 0.935561 0.683589
0.99852 0.914855 0.594858
0.657206 0.936934 0.764614
0.658167 0.936996 0.764157
0.659373 0.937072 0.763561
0.662867 0.937285 0.761761
0.677409 0.938949 0.757641
0.739757 0.949432 0.752682
0.8701 0.970474 0.709056
0.994751 0.990799 0.579019
0.995224 0.988754 0.512154
0.795178 0.962936 0.819165
0.795956 0.963088 0.819196
0.796902 0.963256 0.819211
0.799725 0.963775 0.819303
0.80885 0.965469 0.819501
0.832822 0.969711 0.817685
0.890303 0.979034 0.798016
0.994324 0.992813 0.676066
0.994751 0.989548 0.554101
0.12192 0.0295262 0.693462
0.122042 0.0295567 0.693416
0.122179 0.0295872 0.693385
0.528084 0.20734 0.791074
0.841016 0.372839 0.825757
0.844984 0.387121 0.829648
0.85948 0.432212 0.842222
0.895933 0.522957 0.846601
0.949264 0.650889 0.848508
0.144808 0.0387121 0.701473
0.145144 0.0386816 0.701564
0.145876 0.0386358 0.701778
0.3935 0.146685 0.768444
0.841016 0.372839 0.825757
0.846326 0.389548 0.830777
0.86334 0.449836 0.84947
0.898756 0.53228 0.849607
0.950378 0.654063 0.849348
0.159701 0.0452888 0.706371
0.160067 0.0454108 0.706432
0.160372 0.0455177 0.706493
0.325826 0.118135 0.755779
0.812985 0.355322 0.822965
0.847807 0.394171 0.832074
0.869535 0.469001 0.856672
0.902007 0.543008 0.852979
0.95172 0.657908 0.850385
0.176837 0.243107 0.789181
0.176593 0.243977 0.789502
0.178134 0.232807 0.785641
0.24445 0.198749 0.776013
0.730114 0.337285 0.822156
0.858503 0.434669 0.845701
0.883513 0.519081 0.871138
0.910887 0.572137 0.8607
0.955627 0.669108 0.853376
0.25156 0.667185 0.855253
0.2065 0.565332 0.84361
0.199832 0.547433 0.840711
0.193805 0.525109 0.837766
0.550393 0.547448 0.893217
0.905455 0.599619 0.897581
0.915648 0.629404 0.901106
0.931975 0.643107 0.877531
0.96733 0.702495 0.859281
0.450492 0.801022 0.866514
0.448707 0.799664 0.865675
0.444526 0.797787 0.865644
0.434424 0.79144 0.864469
0.423545 0.775174 0.871473
0.801282 0.807187 0.976059
0.959945 0.789837 0.949554
0.973648 0.766262 0.900206
0.991119 0.775296 0.867887
0.646311 0.926848 0.921569
0.646235 0.926696 0.921859
0.646174 0.926574 0.922087
0.646204 0.926604 0.922057
0.643992 0.92575 0.922576
0.695552 0.942275 0.937102
0.956939 0.956359 0.956313
0.998734 0.911101 0.905699
0.998474 0.891539 0.861997
0.65066 0.930877 0.903914
0.650706 0.930968 0.903487
0.650752 0.931075 0.902983
0.650889 0.931411 0.901518
0.652781 0.932586 0.897231
0.684504 0.941421 0.891142
0.840314 0.975219 0.888411
0.994781 0.997299 0.801663
0.995346 0.995422 0.762829
0.730358 0.95198 0.934874
0.731167 0.952178 0.934966
0.732143 0.952438 0.935088
0.735042 0.95317 0.935424
0.744472 0.955581 0.936446
0.774441 0.962921 0.938109
0.852186 0.979446 0.938476
0.980545 0.996918 0.900816
0.99501 0.997253 0.802472
0.148074 0.0403906 0.70248
0.14815 0.0404974 0.702419
0.148241 0.0406195 0.702342
0.148638 0.0409247 0.702266
0.656611 0.267445 0.803586
0.841016 0.372839 0.825757
0.846265 0.391073 0.831281
0.868376 0.467796 0.855665
0.907958 0.609537 0.900618
0.159228 0.0446632 0.705425
0.159411 0.0447242 0.705425
0.15964 0.0448157 0.70544
0.160327 0.0450599 0.70547
0.598535 0.238727 0.796933
0.841016 0.372839 0.825757
0.848722 0.399252 0.833768
0.870466 0.475471 0.858152
0.908919 0.612909 0.90161
0.201572 0.103532 0.741299
0.202914 0.105699 0.742626
0.204562 0.108354 0.744244
0.205142 0.11487 0.746899
0.550515 0.216953 0.792798
0.841016 0.372839 0.825757
0.852567 0.410529 0.838148
0.873045 0.48481 0.861372
0.910063 0.616922 0.902785
0.159258 0.376608 0.822354
0.159457 0.377554 0.822446
0.159854 0.379446 0.822644
0.161028 0.385138 0.82324
0.467369 0.179767 0.781933
0.842466 0.376379 0.826368
0.861097 0.444068 0.848081
0.880613 0.511711 0.869917
0.913252 0.628794 0.906432
0.403677 0.774105 0.861708
0.404288 0.774441 0.861738
0.404883 0.774777 0.861769
0.211521 0.580545 0.844465
0.362936 0.333135 0.823941
0.81181 0.483421 0.867536
0.890578 0.542046 0.880201
0.900511 0.580697 0.891844
0.921843 0.663249 0.916899
0.539544 0.85893 0.888884
0.502983 0.834882 0.877424
0.473533 0.815793 0.87097
0.406638 0.775433 0.862165
0.284169 0.681666 0.860151
0.678157 0.676875 0.932464
0.937591 0.72105 0.934066
0.935409 0.713008 0.931563
0.943969 0.743557 0.940597
0.643214 0.925841 0.920851
0.642222 0.925246 0.920577
0.641032 0.924514 0.920241
0.63772 0.922255 0.920821
0.611215 0.905348 0.912627
0.630335 0.896437 0.920134
0.882551 0.889693 0.995422
0.977951 0.867613 0.977462
0.978363 0.863325 0.974121
0.646983 0.927047 0.922377
0.646983 0.927047 0.922377
0.646983 0.927047 0.922377
0.646555 0.926925 0.922515
0.645121 0.926558 0.922972
0.654719 0.930663 0.923949
0.782635 0.965301 0.957076
0.99086 0.996658 0.99472
0.996323 0.987579 0.971496
0.700648 0.943587 0.936767
0.701335 0.943786 0.936965
0.702159 0.944015 0.937194
0.704616 0.944717 0.937881
0.712825 0.947082 0.940185
0.738415 0.953735 0.946731
0.813733 0.972168 0.964309
0.942428 0.996078 0.990707
0.997665 0.997864 0.996643
0.166583 0.41474 0.826322
0.166934 0.416251 0.82649
0.167361 0.418067 0.826688
0.168566 0.423194 0.827253
0.172671 0.440711 0.82919
0.715618 0.299184 0.811078
0.841016 0.372839 0.825757
0.845624 0.38764 0.830732
0.87689 0.497566 0.865782
0.181598 0.478752 0.833371
0.181949 0.480262 0.833524
0.182315 0.481712 0.833692
0.18352 0.486046 0.834165
0.187366 0.49984 0.835645
0.705043 0.293446 0.81004
0.841016 0.372839 0.825757
0.846647 0.39086 0.831662
0.877852 0.500755 0.866697
0.198917 0.541253 0.840131
0.199222 0.542336 0.840253
0.199603 0.543679 0.840406
0.200656 0.547478 0.840803
0.204227 0.558801 0.842145
0.694484 0.287755 0.808301
0.841016 0.372839 0.825757
0.847837 0.394629 0.832746
0.879011 0.504631 0.867826
0.257801 0.672938 0.85568
0.258259 0.67335 0.855711
0.25919 0.674174 0.855756
0.261494 0.676234 0.855863
0.269123 0.683024 0.85626
0.663417 0.271565 0.804379
0.842145 0.375402 0.826917
0.851484 0.407904 0.836362
0.882338 0.515755 0.871061
0.523476 0.848692 0.884321
0.52369 0.848829 0.884382
0.524102 0.849104 0.88452
0.525124 0.849775 0.88484
0.528801 0.852216 0.88603
0.601648 0.402274 0.848585
0.858488 0.432288 0.845151
0.864775 0.455787 0.852277
0.891875 0.548928 0.881971
0.647959 0.928695 0.91989
0.647959 0.928695 0.91989
0.647959 0.928695 0.91989
0.647959 0.928695 0.91989
0.526848 0.850721 0.884978
0.480369 0.685435 0.899229
0.907866 0.681636 0.924605
0.905272 0.601083 0.898283
0.913954 0.631983 0.907668
0.647959 0.928695 0.91989
0.647959 0.928695 0.91989
0.647959 0.928695 0.91989
0.647959 0.928695 0.91989
0.646799 0.927153 0.921294
0.641901 0.923293 0.922652
0.814466 0.896422 0.986969
0.969573 0.837201 0.968841
0.956588 0.788617 0.954711
0.646983 0.927153 0.921828
0.646983 0.927123 0.92195
0.646983 0.927092 0.922118
0.646983 0.927047 0.922377
0.646983 0.927047 0.922377
0.646494 0.927428 0.923476
0.742077 0.954726 0.947784
0.963806 0.997711 0.993561
0.995651 0.969192 0.996765
0.673732 0.936156 0.928588
0.674144 0.936263 0.928695
0.674937 0.936492 0.928908
0.677089 0.937087 0.929519
0.684092 0.939025 0.931502
0.706081 0.945083 0.937697
0.781918 0.965103 0.956985
0.920394 0.993683 0.987594
0.998047 0.998047 0.998047
