Luts/Fujifilm/FLog2C_to_CLASSIC-Neg._VLog.cube
TITLE "Generated by Resolve"
LUT_3D_SIZE 5
0 0 0
0.254383 0.0201114 0.000228885
0.951064 0.281895 0.277256
0.951186 0.285237 0.27689
0.955749 0.552056 0.22446
0.00357061 0.136782 0.0213931
0.0813916 0.0702983 0.000640879
0.940429 0.167437 0.101778
0.951614 0.329778 0.270512
0.956085 0.563317 0.220676
0.0226902 0.709194 0.118654
0.0204776 0.643427 0.107729
0.774151 0.600122 7.62951e-05
0.955856 0.559335 0.222293
0.956756 0.633158 0.197696
0.0292973 0.944442 0.157092
0.0292973 0.944442 0.157092
0.0536049 0.944854 0.153994
0.94725 0.961074 0.0330358
0.956847 0.895598 0.0263218
0.57734 0.975357 0.0854658
0.58587 0.97586 0.0843671
0.644984 0.979294 0.0768444
0.886992 0.993667 0.0451057
0.933883 0.995666 0.0392767
0.00755322 0.00354009 0.0507668
0.199512 0.0150912 0.000579843
0.950957 0.2795 0.275135
0.952117 0.29337 0.275654
0.955764 0.552178 0.22443
0.0124819 0.182483 0.208652
0.0778668 0.0894026 0.0744488
0.922255 0.170443 0.0882887
0.952682 0.346044 0.267582
0.956085 0.563317 0.220676
0.0295567 0.768048 0.272206
0.0258793 0.708583 0.22295
0.711498 0.643122 0.111574
0.958251 0.593423 0.251621
0.956756 0.633158 0.197696
0.0292973 0.944442 0.157092
0.0292973 0.944442 0.157092
0.0294041 0.94435 0.157244
0.940383 0.979095 0.0350195
0.956847 0.895598 0.0263218
0.5458 0.974273 0.0915084
0.554345 0.974777 0.0903639
0.613458 0.978256 0.082414
0.874708 0.992798 0.047303
0.933883 0.995666 0.0392767
0.122026 0.0535744 0.426429
0.22475 0.0285191 0.230518
0.955932 0.276799 0.384314
0.960357 0.360327 0.467567
0.968414 0.642664 0.482383
0.257389 0.300206 0.828489
0.185595 0.137118 0.538262
0.923674 0.172915 0.42623
0.964874 0.437201 0.518074
0.968811 0.653117 0.485008
0.058793 0.824445 0.985519
0.0553597 0.780819 0.928985
0.766918 0.720226 0.710857
0.975311 0.673701 0.63856
0.971099 0.7149 0.498283
0.0523995 0.942901 0.740307
0.0523995 0.942763 0.741054
0.0535897 0.940703 0.747448
0.96759 0.982116 0.585901
0.972961 0.9187 0.445869
0.586801 0.973114 0.677928
0.593256 0.973526 0.675959
0.638041 0.976425 0.663188
0.873518 0.990356 0.572137
0.944579 0.994369 0.229557
0.65243 0.2934 0.924331
0.654139 0.292699 0.924437
0.965454 0.101411 0.745846
0.968933 0.329976 0.707912
0.981918 0.690974 0.791959
0.683726 0.293919 0.919036
0.684184 0.293919 0.918929
0.941024 0.209506 0.835431
0.972351 0.400793 0.742702
0.982177 0.700404 0.796109
0.370825 0.807446 0.999847
0.474952 0.743893 0.999924
0.858473 0.733516 0.971069
0.983108 0.661768 0.842039
0.984619 0.754757 0.819623
0.0666819 0.941299 0.999786
0.0664988 0.940795 0.999725
0.137758 0.941436 0.999908
0.971206 0.962097 0.960723
0.991455 0.915206 0.88954
0.676432 0.979568 0.999527
0.680964 0.979843 0.999512
0.712291 0.981826 0.999359
0.8878 0.992813 0.987778
0.986679 0.995605 0.908141
0.575875 0.658564 0.995758
0.574075 0.660746 0.995941
0.561837 0.675532 0.997238
0.974182 0.279622 0.876188
0.983963 0.564477 0.921248
0.495903 0.739498 0.999695
0.494118 0.741024 0.999695
0.4813 0.749935 0.999725
0.975708 0.309895 0.881819
0.984268 0.574365 0.923537
0.0732433 0.895125 0.999786
0.073106 0.895338 0.999786
0.0720073 0.896941 0.999725
0.981994 0.496025 0.913054
0.985779 0.63418 0.935409
0.067277 0.942596 1
0.067277 0.942596 1
0.0672313 0.942473 1
0.931334 0.938537 0.996185
0.993286 0.864805 0.975464
0.493263 0.968215 0.99971
0.499214 0.968597 0.999695
0.539895 0.971206 0.999634
0.821439 0.988144 0.999527
1 1 1
