Luts/Fujifilm/FLog2C_to_Velvia_VLog.cube
TITLE "Generated by Resolve"
LUT_3D_SIZE 5
0 0 0
0.362905 0 0
0.999893 0.286793 0.492287
0.99971 0.291905 0.490394
0.99942 0.570703 0.106096
0 0.140169 0
0.0587015 0.036286 0.000671397
0.999496 0.112993 0.347341
0.999069 0.350591 0.429313
0.999496 0.580438 0.0842451
0 0.85095 0.000915541
0 0.790829 1.5259e-05
0.776196 0.635737 4.57771e-05
0.999405 0.577417 0.0917372
0.999237 0.643198 0
0 1 0.000289921
0 1 0.000289921
0 1 0.000289921
0.999649 0.948394 0
0.999542 0.862699 0
0.4542 0.999649 0.000503548
0.462699 0.999634 0.000488289
0.521553 0.999649 0.000335698
0.887037 0.988342 0.000320439
0.998627 0.968948 0
0 0.000289921 0.0344854
0.277928 4.57771e-05 0.00486763
0.999893 0.284092 0.492256
0.999786 0.303014 0.478706
0.99942 0.570809 0.105837
6.10361e-05 0.179278 0.198947
0.0402991 0.0413214 0.040116
0.999191 0.104463 0.300618
0.999664 0.369863 0.407218
0.999496 0.580438 0.0842451
0 0.898116 0.000671397
0.000411994 0.839582 0.000579843
0.692805 0.668528 1.5259e-05
0.999451 0.598367 0.113863
0.999237 0.643198 0
0 1 0.000289921
0 1 0.000289921
0 1 0.000289921
0.999451 0.963668 0.000106813
0.999542 0.862699 0
0.407111 0.999481 0.000106813
0.416236 0.999481 0.000106813
0.479438 0.999435 7.62951e-05
0.850416 0.992462 7.62951e-05
0.998627 0.968948 0
0.0361028 0.000366217 0.712566
0.288518 0.000274662 0.49633
0.999908 0.24329 0.651438
0.999863 0.331991 0.667811
0.999374 0.596994 0.431067
0.081651 0.0657969 0.999664
0.124941 3.0518e-05 0.858488
0.999756 0.000320439 0.876692
0.999969 0.402487 0.660578
0.999435 0.605493 0.424475
0.000732433 0.854154 0.870802
0.000274662 0.796902 0.788357
0.638682 0.639109 0.639124
0.999435 0.592691 0.614862
0.999725 0.659434 0.380743
0 1 0.00376898
0 0.999985 0.00386053
0 0.999985 0.00360113
0.998871 0.999802 0.0423896
0.998962 0.956832 0.000427253
0.337118 0.999588 0.0162966
0.345312 0.999588 0.0151217
0.401968 0.999649 0.00868238
0.750134 0.999908 3.0518e-05
0.998627 0.968612 0.000228885
0.493523 0.000244144 0.999664
0.494163 7.62951e-05 0.999146
1 0 0.99971
0.999985 0.144564 0.999329
0.999969 0.556832 0.893721
0.530877 0.000167849 0.999481
0.531334 0.00015259 0.999573
1 0 0.99971
0.999603 0.231037 0.999908
0.999954 0.565072 0.893187
0.000350958 0.687816 0.999893
0.0537881 0.528023 1
0.675196 0.424872 0.999496
0.999939 0.491066 0.999451
0.999847 0.617746 0.889189
0.000442512 0.983581 0.999725
0.000183108 0.982986 0.999588
0.000167849 0.98027 0.999466
0.948882 0.95491 0.953826
0.999969 0.879789 0.817884
0.195834 0.999802 0.997787
0.205142 0.999802 0.997559
0.269505 0.999756 0.99585
0.625925 0.999756 0.951782
0.99942 0.999756 0.687404
0.28574 0.349416 1
0.281575 0.353872 1
0.253223 0.384268 1
1 0 0.99971
0.999985 0.188296 0.999619
0.0941482 0.518288 1
0.0897536 0.521523 1
0.0673228 0.542092 1
1 0 0.99971
0.999969 0.204059 0.999695
0.000442512 0.903883 0.999817
0.000442512 0.904311 0.999817
0.000381476 0.907607 0.999771
0.999847 0.00820935 0.999634
0.999924 0.296239 0.999146
0.000579843 0.986755 0.999649
0.000579843 0.986755 0.999649
0.000549325 0.986328 0.999878
0.786252 0.881254 0.999741
0.999619 0.675975 0.999619
0.00479133 0.991699 0.999893
0.00721752 0.992035 0.999908
0.0311589 0.994583 0.999924
0.455543 0.999847 0.999924
1 1 1
