Luts/Fujifilm/FLog2C_to_FLog2C-709_VLog.cube
TITLE "Generated by Resolve"
LUT_3D_SIZE 5
0 0 0
0.320424 0 0
0.674464 0 0
0.977325 0.102937 0
1 0.469505 0
0 0.263874 0
0.230762 0.238193 0
0.615885 0.18436 0
0.959792 0.228016 0
1 0.478126 0
0 0.534234 0
0.00825513 0.526223 0
0.48455 0.501289 0
0.896666 0.460136 0
1 0.528603 0
0.125658 0.804578 0
0.167681 0.803616 0
0.346517 0.79765 0
0.74316 0.770596 0
1 0.735119 0
0.4878 1 0
0.490105 1 0
0.506004 1 0
0.629648 1 0
0.992981 1 0
0 0 0.24477
0.314656 0 0.243168
0.672328 0 0.234607
0.976135 0.0729686 0.154635
1 0.469596 0
0 0.246983 0.224857
0.220691 0.220508 0.220783
0.613306 0.160098 0.211414
0.95848 0.211933 0.140658
1 0.478126 0
0 0.52517 0.162722
0.00460822 0.517113 0.160632
0.481285 0.491829 0.151537
0.895369 0.451575 0.0834669
1 0.528603 0
0.113954 0.798184 0.00865187
0.158236 0.797208 0.00755322
0.341558 0.791226 0.00297551
0.741238 0.76466 0
1 0.735119 0
0.486015 1 0.00457771
0.488334 1 0.00447089
0.50428 1 0.00350958
0.628183 1 0
0.992432 1 0
0 0 0.509575
0.280629 0 0.508873
0.66508 0 0.506264
0.971389 0 0.483253
1 0.435966 0.410178
0 0.200473 0.499855
0.179171 0.168795 0.498695
0.604028 0.0847944 0.494774
0.953872 0.148486 0.478096
1 0.445106 0.409155
0 0.502876 0.472694
0 0.494057 0.472053
0.468101 0.467994 0.468101
0.890593 0.422629 0.459541
1 0.499001 0.402365
0.0814527 0.783719 0.420264
0.131304 0.782635 0.420142
0.32958 0.776562 0.419089
0.735866 0.74873 0.412497
1 0.714122 0.367483
0.480201 1 0.350027
0.482536 1 0.349905
0.49868 1 0.349462
0.623453 1 0.345449
0.990433 1 0.305715
0 0 0.780667
0 0 0.780468
0.614145 0 0.777035
0.957 0 0.76527
1 0.382788 0.737453
0 0.145541 0.77351
0 0.149905 0.773404
0.5579 0.0102083 0.770764
0.94081 0.0285954 0.762341
1 0.392996 0.736873
0 0.478889 0.758419
0 0.462486 0.757763
0.427131 0.426398 0.756207
0.879515 0.373999 0.751492
1 0.452522 0.733257
0.0132601 0.757824 0.726436
0.0331884 0.756741 0.72636
0.291157 0.750072 0.725887
0.721965 0.721569 0.72192
1 0.682231 0.713863
0.464378 1 0.678248
0.466789 1 0.678233
0.483391 1 0.67808
0.611856 1 0.677195
0.986404 0.997513 0.671122
0 0.249607 1
0 0.250919 1
0 0.259892 1
0.882017 0.0668345 1
1 0.330861 1
0 0.300984 1
0 0.301991 1
0 0.308476 1
0.873121 0.145006 1
1 0.341283 1
0 0.466163 1
0 0.466438 1
0 0.468528 1
0.828687 0.350988 1
1 0.40206 1
0 0.73817 1
0 0.73547 1
0 0.722942 1
0.683864 0.684215 1
1 0.640192 0.999542
0.417609 1 0.980438
0.420493 1 0.980423
0.439078 1 0.980377
0.583047 0.999161 0.979873
0.975555 0.975387 0.975982
