Luts/Leica/L-Log_to_Natural_VLog.cube
TITLE "Generated by Resolve"
LUT_3D_SIZE 5
0 0 0
0.25452 0 0
0.804471 0 0.0221866
1 0 0.0759442
1 0 0.0801404
0 0.142 0
0.115755 0.111894 0
0.791226 0 0.020737
1 0 0.0759136
1 0 0.0801404
0 0.631449 0
0 0.626825 0
0.582498 0.584817 0
1 0 0.075639
1 0 0.0801404
0 1 0.449165
0 1 0.448859
0 1 0.445563
0.98822 0.999832 0.406317
1 0 0.0801404
0 1 0.823728
0 1 0.823728
0 1 0.823728
0 1 0.823728
1 1 0.816571
0 0 0.123308
0.241459 0 0.120653
0.802411 0 0.111574
1 0 0.0759289
1 0 0.0801404
0 0.130343 0.100221
0.0973831 0.0983902 0.0987564
0.789441 0 0.0901808
1 0 0.0758984
1 0 0.0801404
0 0.628534 0
0 0.62414 0
0.580514 0.582238 0
1 0 0.0756237
1 0 0.0801404
0 1 0.448859
0 1 0.448569
0 1 0.445258
0.988449 0.999847 0.406958
1 0 0.0801404
0 1 0.823728
0 1 0.823728
0 1 0.823728
0 1 0.823728
1 1 0.816571
0 0.000137331 0.590784
0.0113222 0 0.589624
0.779049 0 0.587549
1 0 0.517617
1 0 0.0801404
0 0.000106813 0.586892
0 0.000106813 0.586435
0.766033 0 0.583947
1 0 0.512123
1 0 0.0801404
0 0.593957 0.541711
0 0.589822 0.54107
0.543648 0.545983 0.546654
1 0 0.470466
1 0 0.0801404
0 1 0.446464
0 1 0.445869
0 1 0.442863
0.989899 0.999939 0.410117
1 0 0.0801404
0 1 0.823728
0 1 0.823728
0 1 0.823728
0 1 0.823728
1 1 0.816571
0.167437 0.64535 0.987442
0.167437 0.64535 0.987442
0.52105 0.63537 0.987594
1 0.461997 0.99382
1 0 0.985473
0.166979 0.64506 0.987381
0.166522 0.64477 0.98732
0.492927 0.636286 0.987427
1 0.462531 0.993759
1 0 0.985412
0.162814 0.642512 0.986847
0.162341 0.642222 0.986786
0.161883 0.641932 0.986725
1 0.463935 0.993255
1 0 0.984497
0 0.986053 0.953063
0 0.985885 0.953063
0 0.984985 0.952911
0.959197 0.960021 0.959854
1 0 0.964126
0 1 0.823728
0 1 0.823728
0 1 0.823728
0 1 0.823728
1 1 0.816571
0.719783 0.949966 1
0.719783 0.949966 1
0.719783 0.949966 1
0.948287 0.94342 1
1 0.912016 1
0.719783 0.949966 1
0.719783 0.949966 1
0.719783 0.949966 1
0.947112 0.943465 1
1 0.912016 1
0.719783 0.949966 1
0.719783 0.949966 1
0.719783 0.949966 1
0.938308 0.943786 1
1 0.912016 1
0.719783 0.949966 1
0.719783 0.949966 1
0.719783 0.949966 1
0.719783 0.949966 1
1 0.912016 1
0 1 1
0 1 1
0 1 1
0 1 1
1 1 1
