Luts/Leica/L-Log_to_Classic_VLog.cube
TITLE "Generated by Resolve"
LUT_3D_SIZE 33
0.00347906 0.00161746 0.00302129
0.00347906 0.00161746 0.00302129
0.0125124 0.00863661 0.0104219
0.0534829 0.0291447 0.0255589
0.113878 0.0457465 0.0282902
0.164218 0.0552682 0.0255741
0.212543 0.0594644 0.019501
0.268147 0.0565347 0.00764477
0.331624 0.0401465 0.000320439
0.401022 0.0140383 0
0.471641 0 0
0.538277 0 0
0.601114 0 0
0.667628 0 0
0.724727 0 0
0.76022 0 0
0.778317 0 0
0.787015 0 0.0294652
0.792233 0 0.0737316
0.79556 0 0.0938277
0.79762 0 0.101976
0.798505 0 0.103517
0.798856 0 0.104158
0.798947 0 0.104372
0.798993 0 0.104463
0.799008 0 0.104524
0.799008 0 0.10457
0.799023 0 0.104585
0.799023 0 0.104585
0.799023 0 0.104585
0.799023 0 0.104585
0.799023 0 0.104585
0.799023 0 0.104585
0.00347906 0.00161746 0.00302129
0.00347906 0.00161746 0.00302129
0.00863661 0.00581369 0.00762951
0.0296941 0.0189059 0.0190585
0.0922408 0.0409094 0.0293889
0.145495 0.052018 0.0266117
0.194781 0.05832 0.0220645
0.251286 0.0583505 0.01178
0.318135 0.0452888 0.000442512
0.390387 0.0179904 0
0.463645 0 0
0.533043 0 0
0.597436 0 0
0.664851 0 0
0.722927 0 0
0.759457 0 0
0.778042 0 0
0.786908 0 0.0289921
0.792203 0 0.0734875
0.795544 0 0.0937209
0.797604 0 0.101961
0.798505 0 0.103517
0.798856 0 0.104158
0.798947 0 0.104372
0.798993 0 0.104463
0.799008 0 0.104524
0.799008 0 0.10457
0.799023 0 0.104585
0.799023 0 0.104585
0.799023 0 0.104585
0.799023 0 0.104585
0.799023 0 0.104585
0.799023 0 0.104585
0.00512703 0.00308232 0.00469978
0.00468452 0.00268559 0.00424201
0.00538643 0.00323491 0.00482185
0.0160983 0.0111391 0.0127871
0.0684215 0.0340887 0.0276036
0.1252 0.0482795 0.0277256
0.174624 0.0570382 0.0249638
0.232883 0.0603189 0.0163119
0.303273 0.0509651 0.000564584
0.378897 0.0222477 0
0.454841 0 0
0.526619 0 0
0.59353 0 0
0.661555 0 0
0.721279 0 0
0.758709 0 0
0.777707 0 0
0.786816 0 0.0286564
0.792157 0 0.0732586
0.795529 0 0.0936446
0.797604 0 0.101961
0.798505 0 0.103517
0.798856 0 0.104158
0.798947 0 0.104372
0.798993 0 0.104463
0.799008 0 0.104524
0.799008 0 0.10457
0.799023 0 0.104585
0.799023 0 0.104585
0.799023 0 0.104585
0.799023 0 0.104585
0.799023 0 0.104585
0.799023 0 0.104585
0.00833143 0.00610361 0.00793469
0.0078584 0.00561532 0.0074464
0.00735485 0.00512703 0.0069276
0.010193 0.00727855 0.00918593
0.0357671 0.0218509 0.021088
0.0953078 0.0416419 0.0291447
0.145144 0.0522164 0.0264897
0.20325 0.0593576 0.0216373
0.279652 0.0562142 0.00390631
0.367971 0.0263371 0
0.447654 0 0
0.522103 0 0
0.588937 0 0
0.658259 0 0
0.719829 0 0
0.757855 0 0
0.777432 0 0
0.786725 0 0.0283055
0.792126 0 0.0730297
0.795499 0 0.0935683
0.797604 0 0.101946
0.798505 0 0.103502
0.798856 0 0.104158
0.798947 0 0.104372
0.798993 0 0.104463
0.799008 0 0.104524
0.799008 0 0.10457
0.799023 0 0.104585
0.799023 0 0.104585
0.799023 0 0.104585
0.799023 0 0.104585
0.799023 0 0.104585
0.799023 0 0.104585
0.0163882 0.0174411 0.017731
0.0149386 0.0148928 0.0157321
0.0132448 0.0119783 0.0134279
0.0118257 0.00972 0.0115206
0.0188754 0.0141756 0.0155642
0.0679484 0.0347143 0.0285344
0.120287 0.0474098 0.0282444
0.176013 0.0570687 0.0242313
0.245838 0.0599374 0.0104219
0.328984 0.0414435 0.000671397
0.420157 0.00222782 0
0.515297 0 0
0.585733 0 0
0.654459 0 0
0.718013 0 0
0.757092 0 0
0.777111 0 0
0.786618 0 0.0278325
0.792081 0 0.0727855
0.795483 0 0.093492
0.797589 0 0.10193
0.798505 0 0.103502
0.798856 0 0.104158
0.798947 0 0.104372
0.798993 0 0.104463
0.799008 0 0.104524
0.799008 0 0.10457
0.799023 0 0.104585
0.799023 0 0.104585
0.799023 0 0.104585
0.799023 0 0.104585
0.799023 0 0.104585
0.799023 0 0.104585
0.0184176 0.0494698 0.0363317
0.018616 0.0452735 0.0340887
0.0187991 0.0411841 0.0318914
0.0190127 0.0365759 0.0294041
0.0204318 0.0274968 0.0245365
0.0366827 0.0311437 0.0278477
0.0952468 0.0429999 0.0301518
0.153124 0.0548867 0.0269169
0.224628 0.0604105 0.0164492
0.306554 0.0496071 0.00151064
0.39321 0.0104524 0
0.485298 0 0
0.575128 0 0
0.651926 0 0
0.715831 0 0
0.756344 0 0
0.776837 0 0
0.786496 0 0.0273747
0.79205 0 0.0725567
0.795468 0 0.0934157
0.797589 0 0.10193
0.798489 0 0.103502
0.798856 0 0.104143
0.798947 0 0.104372
0.798993 0 0.104463
0.799008 0 0.104524
0.799008 0 0.10457
0.799023 0 0.104585
0.799023 0 0.104585
0.799023 0 0.104585
0.799023 0 0.104585
0.799023 0 0.104585
0.799023 0 0.104585
0.00180056 0.0810407 0.0461433
0.00340276 0.0774395 0.0451362
0.00534066 0.0738842 0.0440223
0.00727855 0.0703136 0.0429236
0.0120851 0.0595102 0.0394751
0.018143 0.0530251 0.0373693
0.0579995 0.0504311 0.0357977
0.127947 0.057023 0.0317082
0.203143 0.0615854 0.0246738
0.288792 0.0559243 0.00643931
0.376745 0.0275731 0.000213626
0.464485 0.000183108 0
0.553277 0 0
0.64126 0 0
0.714382 0 0
0.755703 0 0
0.776501 0 0
0.786389 0 0.0269169
0.79202 0 0.0723125
0.795453 0 0.0933089
0.797589 0 0.101915
0.798489 0 0.103502
0.798856 0 0.104143
0.798947 0 0.104372
0.798993 0 0.104463
0.799008 0 0.104524
0.799008 0 0.10457
0.799023 0 0.104585
0.799023 0 0.104585
0.799023 0 0.104585
0.799023 0 0.104585
0.799023 0 0.104585
0.799023 0 0.104585
0 0.112047 0.0512703
0.000167849 0.109178 0.0507973
0.000320439 0.106691 0.0503853
0.000488289 0.1037 0.0498817
0.000854505 0.0990158 0.0491188
0.00262455 0.086305 0.0468757
0.0138552 0.0804913 0.0453956
0.0901808 0.0784772 0.0410163
0.17557 0.0753033 0.0325628
0.267292 0.0681468 0.0123751
0.361456 0.0484779 0.000946059
0.451698 0.00843824 0
0.531044 0 0
0.620066 0 0
0.707057 0 0
0.75462 0 0
0.776165 0 0
0.786252 0 0.0263371
0.791959 0 0.0720073
0.795422 0 0.0932326
0.797574 0 0.1019
0.798489 0 0.103487
0.798856 0 0.104143
0.798947 0 0.104372
0.798993 0 0.104463
0.799008 0 0.104524
0.799008 0 0.10457
0.799023 0 0.104585
0.799023 0 0.104585
0.799023 0 0.104585
0.799023 0 0.104585
0.799023 0 0.104585
0.799023 0 0.104585
0 0.153826 0.0525673
0 0.151019 0.0525368
0 0.148272 0.0524453
0 0.145525 0.0523537
0 0.142626 0.0522621
0 0.130709 0.0518959
0 0.119875 0.0512093
0.0243229 0.11545 0.049897
0.130327 0.112551 0.0428626
0.235294 0.102907 0.0282292
0.339315 0.0849622 0.00448615
0.438849 0.0479896 0
0.524926 0.000915541 0
0.594339 0 0
0.686976 0 0
0.751217 0 0
0.775464 0 0
0.786038 0 0.0255131
0.791913 0 0.0716869
0.795392 0 0.09308
0.797574 0 0.101884
0.798489 0 0.103487
0.798856 0 0.104143
0.798947 0 0.104372
0.798978 0 0.104463
0.799008 0 0.104524
0.799008 0 0.10457
0.799023 0 0.104585
0.799023 0 0.104585
0.799023 0 0.104585
0.799023 0 0.104585
0.799023 0 0.104585
0.799023 0 0.104585
0 0.205921 0.0448005
0 0.203357 0.0459907
0 0.200992 0.0463111
0 0.198428 0.0466468
0 0.196063 0.0469673
0 0.193301 0.0473335
0 0.177218 0.0499123
0 0.162112 0.0514076
0.0466773 0.159823 0.0487221
0.179522 0.154818 0.0352178
0.302083 0.142535 0.00901808
0.415991 0.115938 0
0.516579 0.0559396 0
0.595132 0 0
0.658457 0 0
0.737591 0 0
0.774685 0 0
0.785779 0 0.0244755
0.791806 0 0.0707103
0.795346 0 0.0928817
0.797543 0 0.101869
0.798489 0 0.103471
0.798856 0 0.104143
0.798947 0 0.104372
0.798978 0 0.104463
0.799008 0 0.104524
0.799008 0 0.10457
0.799023 0 0.104585
0.799023 0 0.104585
0.799023 0 0.104585
0.799023 0 0.104585
0.799023 0 0.104585
0.799023 0 0.104585
0 0.265141 0.0129397
0 0.263081 0.0134432
0 0.261021 0.0139467
0 0.259007 0.0147097
0 0.257038 0.0158236
0 0.25507 0.0169375
0 0.252888 0.0181888
0 0.234684 0.0297246
0 0.213031 0.0392157
0.0749065 0.212543 0.0316472
0.238544 0.206577 0.00817884
0.37557 0.190188 0
0.493996 0.153307 0
0.593408 0.0769055 0
0.668681 0 0
0.717906 0 0
0.767163 0 0
0.785611 0 0.023621
0.791623 0 0.0692302
0.795285 0 0.0926223
0.797528 0 0.101823
0.798474 0 0.103456
0.798856 0 0.104143
0.798947 0 0.104372
0.798978 0 0.104463
0.799008 0 0.104524
0.799008 0 0.10457
0.799023 0 0.104585
0.799023 0 0.104585
0.799023 0 0.104585
0.799023 0 0.104585
0.799023 0 0.104585
0.799023 0 0.104585
0 0.326894 0
0 0.325521 0
0 0.324147 0
0 0.322789 0
0 0.321187 0
0 0.319829 0
0 0.318227 6.10361e-05
0 0.316625 0.000442512
0 0.299123 0.00285344
0 0.27097 0.0112306
0.112535 0.274739 0.00273136
0.305699 0.267277 0
0.45243 0.245457 0
0.572671 0.200671 0
0.673045 0.116365 0
0.736553 0.00883497 1.5259e-05
0.76022 0 0
0.781415 0 0.00143435
0.791485 0 0.0679179
0.795209 0 0.0922866
0.797498 0 0.101778
0.798474 0 0.103441
0.798856 0 0.104143
0.798947 0 0.104372
0.798978 0 0.104463
0.799008 0 0.104524
0.799008 0 0.10457
0.799023 0 0.104585
0.799023 0 0.104585
0.799023 0 0.104585
0.799023 0 0.104585
0.799023 0 0.104585
0.799023 0 0.104585
0 0.389013 0
0 0.388144 0
0 0.38706 0
0 0.386175 0
0 0.385306 0
0 0.384222 0
0 0.383337 0
0 0.381811 0
0 0.380285 0
0 0.366033 0
0 0.333959 0.000244144
0.163989 0.343526 0
0.378317 0.33463 0
0.531609 0.307561 0.000259403
0.653239 0.260975 0.000106813
0.749096 0.175814 9.15541e-05
0.796994 0.0392309 0.0087129
0.787762 0.000335698 0.0309148
0.788632 0 0.045655
0.795148 0 0.0919814
0.797467 0 0.101717
0.798459 0 0.103426
0.798856 0 0.104128
0.798947 0 0.104372
0.798978 0 0.104463
0.799008 0 0.104524
0.799008 0 0.10457
0.799023 0 0.104585
0.799023 0 0.104585
0.799023 0 0.104585
0.799023 0 0.104585
0.799023 0 0.104585
0.799023 0 0.104585
0 0.448554 0
0 0.447929 0
0 0.447303 0
0 0.446464 0
0 0.446052 0
0 0.445212 0
0 0.444587 0
0 0.444175 0
0 0.442924 0
0 0.441672 0
0 0.429908 0
0 0.401389 0
0.224964 0.416571 0
0.455146 0.404868 1.5259e-05
0.61146 0.376333 0.000366217
0.729763 0.328084 1.5259e-05
0.817105 0.250919 0.000701915
0.841856 0.140612 0.0483711
0.805676 0.00892653 0.0987411
0.793118 0 0.0799268
0.797421 0 0.10164
0.798444 0 0.103395
0.79884 0 0.104128
0.798947 0 0.104372
0.798978 0 0.104463
0.799008 0 0.104509
0.799008 0 0.10457
0.799023 0 0.104585
0.799023 0 0.104585
0.799023 0 0.104585
0.799023 0 0.104585
0.799023 0 0.104585
0.799023 0 0.104585
0 0.504738 0
0 0.504341 0
0 0.504143 0
0 0.503746 0
0 0.503349 0
0 0.503151 0
0 0.502754 0
0 0.502159 0
0 0.501564 0
0 0.500771 0
0 0.499779 0
0 0.48893 0
0 0.470451 0
0.296117 0.491203 0
0.533883 0.477684 0
0.687343 0.447471 0
0.798581 0.400656 0
0.875456 0.327153 0.00578317
0.871962 0.230625 0.0603952
0.820111 0.0352331 0.109499
0.796185 0 0.0968185
0.798413 0 0.103365
0.79884 0 0.104112
0.798947 0 0.104356
0.798978 0 0.104463
0.799008 0 0.104509
0.799008 0 0.10457
0.799023 0 0.104585
0.799023 0 0.104585
0.799023 0 0.104585
0.799023 0 0.104585
0.799023 0 0.104585
0.799023 0 0.104585
0 0.559594 0
0 0.559213 0
0 0.558648 0
0 0.557702 0
0 0.557519 0
0 0.557336 0
0 0.557137 0
0 0.556771 0
0 0.556573 0
0 0.556008 0
0 0.555642 0
0 0.554513 0
0 0.544213 0
0.00689708 0.538582 0
0.377325 0.565423 0
0.614237 0.551965 0
0.75877 0.520912 0
0.860075 0.473213 0
0.91548 0.401709 0.00105287
0.900252 0.305318 0.0453346
0.83714 0.0905318 0.11043
0.797864 0 0.102556
0.798825 0 0.104097
0.798947 0 0.104356
0.798978 0 0.104463
0.799008 0 0.104509
0.799008 0 0.10457
0.799023 0 0.104585
0.799023 0 0.104585
0.799023 0 0.104585
0.799023 0 0.104585
0.799023 0 0.104585
0.799023 0 0.104585
0 0.604395 0.00628672
0 0.604273 0.00624094
0 0.603998 0.00614939
0 0.603738 0.00607309
0 0.603601 0.00602731
0 0.603342 0.00593576
0 0.603067 0.00585946
0 0.602808 0.00576791
0 0.601877 0.00546273
0 0.601877 0.00546273
0 0.60148 0.00534066
0 0.60148 0.00534066
0 0.600946 0.00515755
0 0.591546 0.00177005
0.0261845 0.604471 0
0.465537 0.637201 0
0.692012 0.623957 0
0.825772 0.59472 0
0.91194 0.545464 0
0.944137 0.475364 0
0.927031 0.378256 0.0234531
0.858427 0.168399 0.101335
0.798611 0 0.1037
0.798947 0 0.104356
0.798978 0 0.104463
0.799008 0 0.104509
0.799008 0 0.10457
0.799023 0 0.104585
0.799023 0 0.104585
0.799023 0 0.104585
0.799023 0 0.104585
0.799023 0 0.104585
0.799023 0 0.104585
0 0.641215 0.0671397
0 0.641093 0.066804
0 0.640955 0.0664836
0 0.640696 0.0658274
0 0.640574 0.065507
0 0.640436 0.0651865
0 0.640177 0.0645304
0 0.640055 0.0641947
0 0.639796 0.0635538
0 0.639414 0.062562
0 0.638895 0.061265
0 0.637858 0.0586557
0 0.637995 0.0589761
0 0.637858 0.0586557
0 0.629267 0.0395972
0.103349 0.660487 0
0.551278 0.701518 0
0.762219 0.693217 0
0.884474 0.664424 0
0.950286 0.617609 0
0.96643 0.549355 0
0.950851 0.449973 0.0100404
0.883848 0.25005 0.0835126
0.799054 0 0.104387
0.798978 0 0.104448
0.799008 0 0.104509
0.799008 0 0.10457
0.799023 0 0.104585
0.799023 0 0.104585
0.799023 0 0.104585
0.799023 0 0.104585
0.799023 0 0.104585
0.799023 0 0.104585
0 0.668894 0.142779
0 0.668803 0.14255
0 0.668727 0.142306
0 0.668635 0.142061
0 0.668559 0.141817
0 0.668467 0.141573
0 0.668391 0.141329
0 0.668299 0.141085
0 0.668132 0.140597
0 0.667964 0.140124
0 0.667704 0.139391
0 0.667369 0.138415
0 0.666941 0.137209
0 0.666178 0.135027
0 0.666529 0.136004
0 0.659525 0.11603
0.268635 0.704509 0
0.643519 0.756756 0
0.828489 0.75581 0
0.933547 0.730205 0
0.978576 0.686305 0
0.985962 0.621744 0
0.971496 0.523232 0.00598154
0.910445 0.324941 0.0633707
0.799451 0 0.104845
0.799008 0 0.104509
0.799008 0 0.10457
0.799023 0 0.104585
0.799023 0 0.104585
0.799023 0 0.104585
0.799023 0 0.104585
0.799023 0 0.104585
0.799023 0 0.104585
0 0.690028 0.204593
0 0.690028 0.204593
0 0.689952 0.204395
0 0.689891 0.204181
0 0.689815 0.203967
0 0.689815 0.203967
0 0.689738 0.203754
0 0.689662 0.20354
0 0.689601 0.203326
0 0.689448 0.202899
0 0.689311 0.202472
0 0.689097 0.201846
0 0.688807 0.200992
0 0.688365 0.19971
0 0.687861 0.19823
0 0.687648 0.197589
0 0.681575 0.179004
0.411185 0.738613 0.000411994
0.735607 0.795346 0
0.889693 0.805936 0
0.969451 0.789395 0
0.995804 0.752483 0
0.997696 0.691859 0
0.989807 0.596094 0.00199893
0.93611 0.400595 0.0446479
0.799802 0 0.105257
0.799008 0 0.104555
0.799023 0 0.104585
0.799023 0 0.104585
0.799023 0 0.104585
0.799023 0 0.104585
0.799023 0 0.104585
0.799023 0 0.104585
0 0.710643 0.273732
0 0.710643 0.273732
0 0.710567 0.273487
0 0.710567 0.273487
0 0.710491 0.273243
0 0.710491 0.273243
0 0.710414 0.272984
0 0.710353 0.27274
0 0.710277 0.272496
0 0.710201 0.272251
0 0.710124 0.271992
0 0.709911 0.27126
0 0.709697 0.270512
0 0.709392 0.26952
0 0.709041 0.268284
0 0.708522 0.266545
0 0.707729 0.263813
0 0.703273 0.245014
0.521508 0.765164 0.00943008
0.824323 0.81944 0
0.941207 0.844663 0
0.995834 0.839796 0
0.999985 0.810224 0
0.999985 0.756085 0
0.999619 0.669795 7.62951e-05
0.961059 0.478065 0.0261082
0.800412 0.00172427 0.105455
0.799023 0 0.104585
0.799023 0 0.104585
0.799023 0 0.104585
0.799023 0 0.104585
0.799023 0 0.104585
0.799023 0 0.104585
0 0.724788 0.345464
0 0.724788 0.345464
0 0.724773 0.345251
0 0.724773 0.345251
0 0.724743 0.345052
0 0.724743 0.345052
0 0.724743 0.345052
0 0.724712 0.344839
0 0.724697 0.34464
0 0.724666 0.344442
0 0.724651 0.344228
0 0.72462 0.34403
0 0.724544 0.343404
0 0.724483 0.342794
0 0.724392 0.34197
0 0.724269 0.340948
0 0.723934 0.339055
0 0.723461 0.336736
0 0.719875 0.316594
0.607431 0.788754 0.0453651
0.892454 0.839353 0
0.982864 0.86804 0
0.999985 0.874571 0.000198367
0.999985 0.858839 0.00125124
0.999985 0.814359 0.00480659
0.999985 0.735866 0.00125124
0.981979 0.553338 0.00939956
0.8009 0.00468452 0.105196
0.799023 0 0.104585
0.799023 0 0.104585
0.799023 0 0.104585
0.799023 0 0.104585
0.799023 0 0.104585
0 0.732174 0.404822
0 0.732128 0.404593
0 0.732128 0.404593
0 0.732128 0.404593
0 0.732128 0.404593
0 0.732097 0.404364
0 0.732097 0.404364
0 0.732097 0.404364
0 0.732067 0.404135
0 0.732036 0.403922
0 0.732036 0.403922
0 0.73196 0.403464
0 0.731929 0.403235
0 0.731823 0.402548
0 0.731716 0.401877
0 0.731579 0.400961
0 0.731395 0.399832
0 0.731121 0.398016
0 0.73077 0.395743
0 0.729015 0.378103
0.676844 0.821347 0.140414
0.937392 0.862104 0.0413825
0.996826 0.88542 0.0301518
0.999985 0.889479 0.0301213
0.999985 0.88188 0.0253452
0.999985 0.857832 0.0169375
0.999985 0.795743 0.0260929
0.996735 0.630961 0.000610361
0.800641 0.00502022 0.104723
0.799023 0 0.104585
0.799023 0 0.104585
0.799023 0 0.104585
0.799023 0 0.104585
0 0.741848 0.470024
0 0.741848 0.470024
0 0.741848 0.470024
0 0.741848 0.470024
0 0.741817 0.46978
0 0.741817 0.46978
0 0.741817 0.46978
0 0.741817 0.46978
0 0.741787 0.469551
0 0.741787 0.469551
0 0.741741 0.469306
0 0.741711 0.469062
0 0.74168 0.468833
0 0.741619 0.468345
0 0.741558 0.467872
0 0.741466 0.467155
0 0.741329 0.466194
0 0.741176 0.465003
0 0.740948 0.463325
0 0.740597 0.460685
0 0.736751 0.437186
0.731868 0.857328 0.304829
0.957809 0.8907 0.180255
0.999725 0.900801 0.1561
0.999985 0.902571 0.152605
0.999985 0.89955 0.147601
0.999985 0.887068 0.115007
0.999985 0.84596 0.0796674
0.999924 0.711513 0.00691234
0.850538 0.158312 0.099321
0.799023 0 0.104585
0.799023 0 0.104585
0.799023 0 0.104585
0 0.74934 0.534905
0 0.74934 0.534905
0 0.74934 0.534905
0 0.74934 0.534905
0 0.74934 0.534905
0 0.749325 0.534707
0 0.749325 0.534707
0 0.749325 0.534707
0 0.749325 0.534707
0 0.74931 0.534493
0 0.74931 0.534493
0 0.749294 0.534279
0 0.749264 0.534066
0 0.749249 0.533852
0 0.749218 0.53344
0 0.749187 0.533013
0 0.749126 0.532387
0 0.749065 0.531533
0 0.748974 0.53048
0 0.748837 0.528801
0 0.748669 0.526696
0 0.746151 0.501152
0.792981 0.886473 0.41355
0.982132 0.911543 0.330343
1 0.915434 0.294438
1 0.917144 0.292927
0.999985 0.916152 0.286824
0.999985 0.909407 0.257374
0.999985 0.883131 0.179797
0.999985 0.811322 0.0679332
0.952087 0.456825 0.0344244
0.799023 0 0.104585
0.799023 0 0.104585
0 0.752499 0.589914
0 0.752499 0.589914
0 0.752499 0.589914
0 0.752499 0.589914
0 0.752499 0.589914
0 0.752499 0.589914
0 0.752499 0.589914
0 0.752499 0.589731
0 0.752499 0.589731
0 0.752499 0.589731
0 0.752499 0.589731
0 0.752483 0.589563
0 0.752483 0.589563
0 0.752483 0.58938
0 0.752468 0.589029
0 0.752468 0.588861
0 0.752453 0.58851
0 0.752438 0.587808
0 0.752422 0.587106
0 0.752407 0.586236
0 0.752361 0.584833
0 0.752316 0.583078
0 0.751736 0.561028
0.844953 0.91339 0.514992
0.992676 0.930571 0.451759
1 0.931533 0.418585
1 0.932204 0.412955
1 0.930602 0.400397
1 0.925124 0.366812
0.999985 0.91223 0.298756
0.999985 0.878279 0.170611
0.996551 0.668208 0.0019379
0.799023 0 0.104585
0 0.754223 0.635203
0 0.754223 0.635203
0 0.754223 0.635203
0 0.754223 0.635203
0 0.754223 0.635203
0 0.754223 0.635203
0 0.754223 0.63505
0 0.754223 0.63505
0 0.754223 0.63505
0 0.754223 0.63505
0 0.754223 0.63505
0 0.754208 0.634897
0 0.754208 0.634897
0 0.754208 0.63476
0 0.754192 0.634607
0 0.754192 0.634455
0 0.754177 0.634165
0 0.754162 0.63386
0 0.754131 0.633417
0 0.754116 0.632822
0 0.75407 0.63209
0 0.754025 0.631052
0 0.753948 0.629572
0 0.75285 0.607691
0.88661 0.935439 0.605463
0.997269 0.946746 0.558587
1 0.946853 0.529488
1 0.947051 0.525124
1 0.945434 0.5122
1 0.940581 0.476692
1 0.931212 0.411353
0.999985 0.911772 0.296345
0.999985 0.795697 0.0523232
0 0.757275 0.672557
0 0.757275 0.672557
0 0.757275 0.672557
0 0.757275 0.672557
0 0.757275 0.672557
0 0.757275 0.672557
0 0.757275 0.672557
0 0.757275 0.672557
0 0.757275 0.672557
