Luts/Leica/L-Log_to_Natural_VLog.cube
TITLE "Generated by Resolve"
LUT_3D_SIZE 33
0 0 0
0 0 0
0.0119478 0 0
0.0559548 0 0
0.100481 0 0
0.137667 0 0
0.170382 0 0
0.207706 0 0
0.25452 0 0
0.312016 0 0
0.376745 0 0
0.445731 0 0
0.516716 0 0
0.588373 0 0.00177005
0.660639 0 0.00717174
0.732738 0 0.0143893
0.804471 0 0.0221866
0.874266 0 0.0301976
0.942855 0 0.0383459
0.996429 0 0.0486305
1 0 0.0571145
1 0 0.0638743
1 0 0.0691691
1 0 0.0731212
1 0 0.0759442
1 0 0.0778668
1 0 0.0790875
1 0 0.0797894
1 0 0.0801404
1 0 0.0801404
1 0 0.0801404
1 0 0.0801404
1 0 0.0801404
0 0 0
0 0 0
0.00218204 0 0
0.0384375 0 0
0.0838636 0 0
0.124086 0 0
0.158587 0 0
0.196338 0 0
0.243885 0 0
0.302754 0 0
0.368978 0 0
0.439933 0 0
0.512489 0 0
0.585489 0 0.00164797
0.65803 0 0.0069276
0.730938 0 0.0142061
0.803189 0 0.0220493
0.873274 0 0.0300908
0.942168 0 0.0382239
0.996368 0 0.0485389
1 0 0.0570535
1 0 0.0638437
1 0 0.0691539
1 0 0.073106
1 0 0.0759442
1 0 0.0778668
1 0 0.0790875
1 0 0.0797894
1 0 0.0801404
1 0 0.0801404
1 0 0.0801404
1 0 0.0801404
1 0 0.0801404
0 0 0
0 0 0
0 0 0
0.0209964 0 0
0.0666667 0 0
0.109178 0 0
0.14519 0 0
0.183932 0 0
0.232166 0 0
0.292775 0 0
0.360433 0 0
0.432807 0 0
0.508019 0 0
0.582101 0 0.00151064
0.655695 0 0.00671397
0.729137 0 0.014023
0.801663 0 0.0218814
0.872526 0 0.0299992
0.941482 0 0.038117
0.996338 0 0.0484779
1 0 0.0570382
1 0 0.0638285
1 0 0.0691386
1 0 0.073106
1 0 0.0759289
1 0 0.0778668
1 0 0.0790875
1 0 0.0797894
1 0 0.0801404
1 0 0.0801404
1 0 0.0801404
1 0 0.0801404
1 0 0.0801404
0 0.00704967 0
0 0.00480659 0
0 0.00244144 0
0 0.000122072 0
0.0420233 0 0
0.0896925 0 0
0.129717 0 0
0.171496 0 0
0.221256 0 0
0.283711 0 0
0.353445 0 0
0.427787 0 0
0.502739 0 0
0.578698 0 0.00137331
0.653605 0 0.00653086
0.727077 0 0.0138094
0.800397 0 0.0217441
0.871778 0 0.0299077
0.940795 0 0.0380102
0.996307 0 0.0484016
1 0 0.0570077
1 0 0.0638132
1 0 0.0691234
1 0 0.0730907
1 0 0.0759289
1 0 0.0778668
1 0 0.0790875
1 0 0.0797894
1 0 0.0801404
1 0 0.0801404
1 0 0.0801404
1 0 0.0801404
1 0 0.0801404
0 0.0300603 0
0 0.0271763 0
0 0.0238346 0
0 0.0199283 0
0.0147097 0.0144503 0
0.0652934 0.00854505 0
0.10985 0.00260929 0
0.155322 0 0
0.207675 0 0
0.271504 0 0
0.344747 0 0
0.422934 0 0
0.499046 0 0
0.574777 0 0.00120546
0.650996 0 0.00628672
0.725261 0 0.0136263
0.798871 0 0.0215763
0.870787 0 0.0298009
0.940108 0 0.0378882
0.996262 0 0.0483406
1 0 0.0569619
1 0 0.0637827
1 0 0.0691081
1 0 0.0730907
1 0 0.0759289
1 0 0.0778515
1 0 0.0790875
1 0 0.0797894
1 0 0.0801404
1 0 0.0801404
1 0 0.0801404
1 0 0.0801404
1 0 0.0801404
0 0.0554055 0
0 0.0523995 0
0 0.0494698 0
0 0.0461585 0
0 0.0404212 0
0.0357824 0.0342718 0
0.0875563 0.027451 0
0.13727 0.019379 0
0.192859 0.0077821 0
0.259083 0 0
0.334615 0 0
0.414832 0 0
0.49546 0 0
0.572168 0 0.00109865
0.647868 0 0.0059968
0.723461 0 0.0134279
0.797589 0 0.0214389
0.869795 0 0.0296788
0.939422 0 0.0377813
0.996231 0 0.0482795
1 0 0.0569314
1 0 0.0637522
1 0 0.0690929
1 0 0.0730755
1 0 0.0759289
1 0 0.0778515
1 0 0.0790723
1 0 0.0797894
1 0 0.0801404
1 0 0.0801404
1 0 0.0801404
1 0 0.0801404
1 0 0.0801404
0 0.0812085 0
0 0.0782025 0
0 0.0753033 0
0 0.0723888 0
0 0.0679179 0
0.00544747 0.0620432 0
0.0588235 0.0558328 0
0.116732 0.0469825 0
0.176043 0.0354772 0
0.245014 0.0183261 0
0.323445 0.00108339 0
0.406592 0 0
0.489296 0 0
0.569665 0 0.00117494
0.645792 0 0.00581369
0.72192 0 0.0132753
0.796063 0 0.0212711
0.868803 0 0.029572
0.938735 0 0.0376745
0.99617 0 0.048188
1 0 0.0568704
1 0 0.0637217
1 0 0.0690776
1 0 0.0730755
1 0 0.0759136
1 0 0.0778515
1 0 0.0790723
1 0 0.0797894
1 0 0.0801404
1 0 0.0801404
1 0 0.0801404
1 0 0.0801404
1 0 0.0801404
0 0.108949 0
0 0.106386 0
0 0.104158 0
0 0.101488 0
0 0.0986343 0
0 0.0937209 0
0.0162661 0.088365 0
0.0849928 0.0814069 0
0.153063 0.0708324 0
0.226017 0.0551461 0
0.308766 0.0302434 0
0.39585 0.00134279 0
0.480964 0 0
0.564157 0 0.00117494
0.644221 0 0.00611887
0.719341 0 0.0130159
0.794537 0 0.0211032
0.867552 0 0.0294347
0.937819 0 0.0375219
0.996139 0 0.048127
1 0 0.0568246
1 0 0.0637064
1 0 0.0690623
1 0 0.0730755
1 0 0.0759136
1 0 0.0778515
1 0 0.0790723
1 0 0.0797894
1 0 0.0801404
1 0 0.0801404
1 0 0.0801404
1 0 0.0801404
1 0 0.0801404
0 0.142 0
0 0.139788 0
0 0.137621 0
0 0.135454 0
0 0.13315 0
0 0.129976 0
0 0.126009 0
0.0273594 0.120302 0
0.115755 0.111894 0
0.197589 0.0995193 0
0.286885 0.0798505 0
0.3794 0.0486152 0
0.470298 0.00138857 0
0.556466 0 0.000656138
0.639124 0 0.00686656
0.718059 0 0.0132296
0.791226 0 0.020737
0.865812 0 0.029221
0.936904 0 0.0373693
0.996063 0 0.0480049
1 0 0.0567788
1 0 0.0636606
1 0 0.0690471
1 0 0.0730602
1 0 0.0759136
1 0 0.0778515
1 0 0.0790723
1 0 0.0797894
1 0 0.0801404
1 0 0.0801404
1 0 0.0801404
1 0 0.0801404
1 0 0.0801404
0 0.181491 0
0 0.179431 0
0 0.17763 0
0 0.175692 0
0 0.173907 0
0 0.171817 0
0 0.168872 0
0 0.164553 0
0.0447547 0.157702 0
0.152941 0.147738 0
0.252689 0.132799 0
0.355856 0.109346 0
0.453529 0.0735027 0
0.544945 0.0135805 4.57771e-05
0.631006 0 0.00483711
0.713191 0 0.0150912
0.791165 0 0.0209354
0.863569 0 0.0289616
0.935454 0 0.0372015
0.995987 0 0.047837
1 0 0.056672
1 0 0.0635996
1 0 0.0690166
1 0 0.0730449
1 0 0.0758984
1 0 0.0778363
1 0 0.0790723
1 0 0.0797894
1 0 0.0801404
1 0 0.0801404
1 0 0.0801404
1 0 0.0801404
1 0 0.0801404
0 0.230701 0
0 0.228779 0
0 0.226856 0
0 0.225071 0
0 0.223453 0
0 0.221836 0
0 0.22005 0
0 0.216983 0
0 0.211322 0
0.0644694 0.20322 0
0.198749 0.190661 0
0.317357 0.172564 0
0.428244 0.145052 0
0.526726 0.10547 0
0.618967 0.0319066 0.0009308
0.704997 0 0.0124819
0.785885 0 0.0239567
0.862333 0 0.0288396
0.933257 0 0.0369573
0.995865 0 0.0476234
1 0 0.0565499
1 0 0.0635233
1 0 0.0689555
1 0 0.0730144
1 0 0.0758831
1 0 0.0778363
1 0 0.0790723
1 0 0.0797894
1 0 0.0801404
1 0 0.0801404
1 0 0.0801404
1 0 0.0801404
1 0 0.0801404
0 0.289281 0
0 0.287846 0
0 0.286427 0
0 0.285008 0
0 0.283345 0
0 0.281926 0
0 0.280293 0
0 0.278798 0
0 0.275639 0
0 0.268803 0
0.0876326 0.258854 0
0.253315 0.243809 0
0.386816 0.222446 0
0.499901 0.190677 0
0.600473 0.144869 0
0.692073 0.061677 0.00259403
0.777813 0 0.020676
0.85771 0 0.0330816
0.931319 0 0.0367285
0.995697 0 0.0473335
1 0 0.0563668
1 0 0.0634165
1 0 0.0688945
1 0 0.0729839
1 0 0.0758679
1 0 0.077821
1 0 0.0790723
1 0 0.0797742
1 0 0.0801404
1 0 0.0801404
1 0 0.0801404
1 0 0.0801404
1 0 0.0801404
0 0.355093 0
0 0.354101 0
0 0.35285 0
0 0.351858 0
0 0.350866 0
0 0.349615 0
0 0.348623 0
0 0.346883 0
0 0.345144 0
0 0.341634 0
0 0.33434 0
0.118624 0.323445 0
0.316289 0.306828 0
0.456046 0.282795 0
0.571374 0.24828 0
0.672419 0.194781 1.5259e-05
0.764263 0.101717 0.00494392
0.849195 0.00103761 0.0287022
0.927367 0 0.0420386
0.99556 0 0.0470741
1 0 0.0561379
1 0 0.0633097
1 0 0.0688182
1 0 0.0729381
1 0 0.0758373
1 0 0.0778058
1 0 0.079057
1 0 0.0797742
1 0 0.0801404
1 0 0.0801404
1 0 0.0801404
1 0 0.0801404
1 0 0.0801404
0 0.423865 0
0 0.423102 0
0 0.422354 0
0 0.421363 0
0 0.420859 0
0 0.419852 0
0 0.419104 0
0 0.418601 0
0 0.417105 0
0 0.41561 0
0 0.411856 0
0 0.404746 0
0.167422 0.392828 0
0.38233 0.374807 0
0.524773 0.35024 0
0.640818 0.312963 0
0.742153 0.256397 0
0.834546 0.154406 0.00570687
0.918944 0.00573739 0.0358892
0.993164 0 0.0502785
1 0 0.055848
1 0 0.0631266
1 0 0.0686961
1 0 0.0728771
1 0 0.0758068
1 0 0.0777905
1 0 0.079057
1 0 0.0797742
1 0 0.0801404
1 0 0.0801404
1 0 0.0801404
1 0 0.0801404
1 0 0.0801404
0 0.492241 0
0 0.491737 0
0 0.491493 0
0 0.49099 0
0 0.490501 0
0 0.490257 0
0 0.489754 0
0 0.489006 0
0 0.488258 0
0 0.487266 0
0 0.48603 0
0 0.48304 0
0 0.475166 0
0.2309 0.462852 0
0.44976 0.445151 0
0.592111 0.419898 0
0.708507 0.383139 0
0.810101 0.324956 0
0.902113 0.218509 0.00491341
0.984115 0.0219577 0.0412146
1 0 0.0567483
1 0 0.0628519
1 0 0.0685588
1 0 0.0727855
1 0 0.075761
1 0 0.0777752
1 0 0.0790417
1 0 0.0797742
1 0 0.0801404
1 0 0.0801404
1 0 0.0801404
1 0 0.0801404
1 0 0.0801404
0 0.562448 0
0 0.561959 0
0 0.561212 0
0 0.559976 0
0 0.559731 0
0 0.559487 0
0 0.559228 0
0 0.55874 0
0 0.558495 0
0 0.557748 0
0 0.55726 0
0 0.555764 0
0 0.55375 0
0 0.545464 0
0.302785 0.532784 0
0.516564 0.515343 0
0.658915 0.490425 0
0.774411 0.453529 0
0.876036 0.396048 0
0.965194 0.289586 0.00128176
0.999954 0.0499886 0.0424659
1 0 0.0626383
1 0 0.0683299
1 0 0.0726787
1 0 0.0757153
1 0 0.0777447
1 0 0.0790265
1 0 0.0797742
1 0 0.0801404
1 0 0.0801404
1 0 0.0801404
1 0 0.0801404
1 0 0.0801404
0 0.631449 0
0 0.631205 0
0 0.630732 0
0 0.630243 0
0 0.629999 0
0 0.629511 0
0 0.629023 0
0 0.628534 0
0 0.626825 0
0 0.626825 0
0 0.626093 0
0 0.626093 0
0 0.625116 0
0 0.623346 0
0.00402838 0.615228 0
0.374105 0.602518 0
0.582498 0.584817 0
0.724681 0.560143 0
0.839048 0.524117 0
0.936858 0.46772 0
0.995987 0.365454 0
1 0.089189 0.0373846
1 0 0.0681621
1 0 0.0725109
1 0 0.075639
1 0 0.0776989
1 0 0.0790112
1 0 0.0797589
1 0 0.0801404
1 0 0.0801404
1 0 0.0801404
1 0 0.0801404
1 0 0.0801404
0 0.699504 0
0 0.69926 0
0 0.699031 0
0 0.698543 0
0 0.698299 0
0 0.69807 0
0 0.697581 0
0 0.697353 0
0 0.696864 0
0 0.696147 0
0 0.695186 0
0 0.693263 0
0 0.693507 0
0 0.693263 0
0 0.692363 0
0.0199893 0.68365 0
0.441047 0.670588 0
0.648219 0.652949 0
0.788113 0.629618 0
0.900053 0.594339 0
0.984237 0.53904 0
1 0.440955 0
1 0.171679 0.0273747
1 0 0.072343
1 0 0.0755169
1 0 0.0776379
1 0 0.0789807
1 0 0.0797589
1 0 0.0801404
1 0 0.0801404
1 0 0.0801404
1 0 0.0801404
1 0 0.0801404
0 0.766278 0
0 0.766049 0
0 0.76582 0
0 0.765576 0
0 0.765347 0
0 0.765118 0
0 0.764874 0
0 0.764645 0
0 0.764172 0
0 0.763714 0
0 0.762997 0
0 0.762066 0
0 0.760891 0
0 0.758785 0
0 0.759716 0
0 0.759625 0
0.0446784 0.750484 0
0.509071 0.737469 0
0.710781 0.720531 0
0.8495 0.697169 0
0.953811 0.66305 0
0.998657 0.609644 0
1 0.515343 0
1 0.252461 0.0180667
1 0 0.0753643
1 0 0.0775769
1 0 0.0789349
1 0 0.0797436
1 0 0.0801404
1 0 0.0801404
1 0 0.0801404
1 0 0.0801404
1 0 0.0801404
0 0.831235 0
0 0.831235 0
0 0.831006 0
0 0.830777 0
0 0.830549 0
0 0.830549 0
0 0.83032 0
0 0.830091 0
0 0.829862 0
0 0.829419 0
0 0.828962 0
0 0.828275 0
0 0.827359 0
0 0.825986 0
0 0.824384 0
0 0.823697 0
0 0.824628 0
0.0941329 0.815549 0
0.575921 0.802518 0
0.773129 0.786053 0
0.906523 0.763684 0
0.986053 0.731411 0
1 0.679988 0
1 0.588647 0
1 0.32784 0.00842298
1 0 0.0774701
1 0 0.0788891
1 0 0.0797284
1 0 0.0801404
1 0 0.0801404
1 0 0.0801404
1 0 0.0801404
1 0 0.0801404
0 0.892882 0.0188907
0 0.892882 0.0188907
0 0.892668 0.0188144
0 0.892668 0.0188144
0 0.892454 0.0187533
0 0.892454 0.0187533
0 0.892241 0.018677
0 0.892027 0.0186007
0 0.891798 0.0185245
0 0.891585 0.0184482
0 0.891371 0.0183719
0 0.890715 0.018143
0 0.890074 0.0179294
0 0.889204 0.0176242
0 0.888121 0.017258
0 0.88661 0.0167239
0 0.88423 0.0159152
0 0.8869 0.0169528
0.163989 0.87718 0.0225071
0.641962 0.865003 0.0280461
0.83299 0.848737 0.0265202
0.951415 0.827634 0.0164187
0.999557 0.797528 0.00218204
1 0.748623 0
1 0.66041 0
1 0.407568 0.00469978
1 0 0.0787976
1 0 0.0796979
1 0 0.0801404
1 0 0.0801404
1 0 0.0801404
1 0 0.0801404
1 0 0.0801404
0 0.947417 0.150072
0 0.947417 0.150072
0 0.94725 0.14966
0 0.94725 0.14966
0 0.947097 0.149248
0 0.947097 0.149248
0 0.947097 0.149248
0 0.946929 0.148852
0 0.946777 0.14844
0 0.946609 0.148028
0 0.946456 0.147631
0 0.946288 0.147219
0 0.945815 0.145998
0 0.945342 0.144778
0 0.944701 0.143145
0 0.943893 0.141115
0 0.942443 0.13753
0 0.940688 0.133288
0 0.942641 0.137102
0.253773 0.933501 0.128511
0.708141 0.92166 0.119036
0.885527 0.907347 0.104158
0.980667 0.88806 0.0750744
1 0.860578 0.0239109
1 0.814252 0
1 0.729549 0
1 0.490303 0.00213626
1 0 0.0796216
1 0 0.0801404
1 0 0.0801404
1 0 0.0801404
1 0 0.0801404
1 0 0.0801404
0 0.987564 0.262928
0 0.987503 0.262577
0 0.987503 0.262577
0 0.987503 0.262577
0 0.987503 0.262577
0 0.987442 0.262211
0 0.987442 0.262211
0 0.987442 0.262211
0 0.987381 0.26186
0 0.98732 0.261509
0 0.98732 0.261509
0 0.987198 0.260792
0 0.987137 0.260441
0 0.986954 0.259358
0 0.98677 0.258289
0 0.986526 0.25687
0 0.986221 0.255085
0 0.985718 0.252232
0 0.985107 0.248676
0 0.985412 0.25066
0.376349 0.978714 0.247532
0.774563 0.968688 0.237598
0.928679 0.95642 0.215396
0.995819 0.9411 0.179446
1 0.917311 0.121218
1 0.876219 0.0483711
1 0.796399 0.0027924
1 0.577951 0
1 0 0.0801099
1 0 0.0801404
1 0 0.0801404
1 0 0.0801404
1 0 0.0801404
0 1 0.360739
0 1 0.360739
0 1 0.360739
0 1 0.360739
0 1 0.360433
0 1 0.360433
0 1 0.360433
0 1 0.360433
0 1 0.360113
0 1 0.360113
0 1 0.359792
0 1 0.359472
0 1 0.359152
0 1 0.358511
0 1 0.357885
0 1 0.356924
0 1 0.355657
0 1 0.354055
0 1 0.351827
0 1 0.348333
0 1 0.348943
0.485222 1 0.345525
0.837003 1 0.337057
0.963333 0.994385 0.318013
1 0.982132 0.287144
1 0.963729 0.239429
1 0.931762 0.13547
1 0.858839 0.0172274
1 0.648325 0
1 0 0.0801404
1 0 0.0801404
1 0 0.0801404
1 0 0.0801404
0 1 0.449165
0 1 0.449165
0 1 0.449165
0 1 0.449165
0 1 0.449165
0 1 0.448859
0 1 0.448859
0 1 0.448859
0 1 0.448859
0 1 0.448569
0 1 0.448569
0 1 0.448264
0 1 0.447959
0 1 0.447669
0 1 0.447059
0 1 0.446464
0 1 0.445563
0 1 0.444358
0 1 0.442863
0 1 0.440467
0 1 0.437461
0 1 0.436454
0.586282 1 0.43328
0.889509 1 0.423819
0.98822 0.999832 0.406317
1 0.997833 0.377462
1 0.99173 0.332403
1 0.975799 0.246555
1 0.915358 0.0665293
1 0.791135 0
1 0.183276 0.0209812
1 0 0.0801404
1 0 0.0801404
0 1 0.532265
0 1 0.532265
0 1 0.532265
0 1 0.532265
0 1 0.532265
0 1 0.532265
0 1 0.532265
0 1 0.531975
0 1 0.531975
0 1 0.531975
0 1 0.531975
0 1 0.531685
0 1 0.531685
0 1 0.531411
0 1 0.530831
0 1 0.530556
0 1 0.529992
0 1 0.528847
0 1 0.527703
0 1 0.526284
0 1 0.52401
0 1 0.521172
0 1 0.517235
0.67808 1 0.514473
0.93138 1 0.504677
0.998306 1 0.48716
1 1 0.459525
1 1 0.415183
1 1 0.338537
1 0.973465 0.211994
1 0.901884 0.0372168
1 0.556466 0
1 0 0.0801404
0 1 0.610941
0 1 0.610941
0 1 0.610941
0 1 0.610941
0 1 0.610941
0 1 0.610941
0 1 0.610666
0 1 0.610666
0 1 0.610666
0 1 0.610666
0 1 0.610666
0 1 0.610391
0 1 0.610391
0 1 0.610132
0 1 0.609857
0 1 0.609583
0 1 0.609033
0 1 0.608499
0 1 0.607675
0 1 0.606592
0 1 0.605234
0 1 0.603326
0 1 0.60061
0 1 0.592798
0.758953 1 0.589975
0.962875 1 0.580087
0.999954 1 0.56286
1 1 0.537484
1 1 0.495949
1 1 0.439475
1 1 0.367498
1 0.972457 0.208194
1 0.766796 0
0 1 0.685695
0 1 0.685695
0 1 0.685695
0 1 0.685695
0 1 0.685695
0 1 0.685695
0 1 0.685695
0 1 0.685695
0 1 0.685695
