Luts/Leica/L-Log_to_Classic_VLog.cube
TITLE "Generated by Resolve"
LUT_3D_SIZE 9
0.00347906 0.00161746 0.00302129
0.113878 0.0457465 0.0282902
0.331624 0.0401465 0.000320439
0.601114 0 0
0.778317 0 0
0.79762 0 0.101976
0.798993 0 0.104463
0.799023 0 0.104585
0.799023 0 0.104585
0.0163882 0.0174411 0.017731
0.0188754 0.0141756 0.0155642
0.245838 0.0599374 0.0104219
0.585733 0 0
0.777111 0 0
0.797589 0 0.10193
0.798993 0 0.104463
0.799023 0 0.104585
0.799023 0 0.104585
0 0.153826 0.0525673
0 0.142626 0.0522621
0.130327 0.112551 0.0428626
0.524926 0.000915541 0
0.775464 0 0
0.797574 0 0.101884
0.798978 0 0.104463
0.799023 0 0.104585
0.799023 0 0.104585
0 0.389013 0
0 0.385306 0
0 0.380285 0
0.378317 0.33463 0
0.796994 0.0392309 0.0087129
0.797467 0 0.101717
0.798978 0 0.104463
0.799023 0 0.104585
0.799023 0 0.104585
0 0.604395 0.00628672
0 0.603601 0.00602731
0 0.601877 0.00546273
0 0.600946 0.00515755
0.692012 0.623957 0
0.927031 0.378256 0.0234531
0.798978 0 0.104463
0.799023 0 0.104585
0.799023 0 0.104585
0 0.710643 0.273732
0 0.710491 0.273243
0 0.710277 0.272496
0 0.709697 0.270512
0 0.707729 0.263813
0.941207 0.844663 0
0.999619 0.669795 7.62951e-05
0.799023 0 0.104585
0.799023 0 0.104585
0 0.74934 0.534905
0 0.74934 0.534905
0 0.749325 0.534707
0 0.749264 0.534066
0 0.749126 0.532387
0 0.748669 0.526696
1 0.915434 0.294438
0.999985 0.883131 0.179797
0.799023 0 0.104585
0 0.759533 0.705058
0 0.759518 0.704952
0 0.759518 0.704952
0 0.759518 0.704829
0 0.759503 0.704616
0 0.759457 0.703716
0 0.759274 0.700725
1 0.972503 0.721828
1 0.959258 0.617044
0 0.760098 0.715557
0 0.760098 0.715557
0 0.760098 0.715557
0 0.760098 0.715557
0 0.760098 0.715557
0 0.760098 0.715557
0 0.760098 0.715557
0 0.760098 0.715557
1 0.9823 0.814389
0.00880446 0.00614939 0.010956
0.0948653 0.0414435 0.0298161
0.302953 0.0492561 0.0053254
0.583352 0 0
0.776226 0 0
0.79762 0 0.101976
0.798993 0 0.104463
0.799023 0 0.104585
0.799023 0 0.104585
0.0144961 0.0135805 0.0154421
0.0142367 0.0107424 0.0131075
0.227558 0.060029 0.0177615
0.57084 0 0
0.776318 0 0
0.797589 0 0.10193
0.798993 0 0.104463
0.799023 0 0.104585
0.799023 0 0.104585
0 0.143465 0.0526894
0 0.132128 0.0522469
0.115145 0.100374 0.0438087
0.510857 0.00149538 0
0.775357 0 0
0.797559 0 0.101869
0.798978 0 0.104463
0.799023 0 0.104585
0.799023 0 0.104585
0 0.385306 0
0 0.381384 0
0 0.376562 0
0.37409 0.329458 0
0.793866 0.0238346 0.00825513
0.797467 0 0.101717
0.798978 0 0.104463
0.799023 0 0.104585
0.799023 0 0.104585
0 0.603738 0.00607309
0 0.602808 0.00576791
0 0.601205 0.0052491
0 0.600412 0.0049897
0.691356 0.62324 0
0.925856 0.374807 0.0249332
0.798978 0 0.104463
0.799023 0 0.104585
0.799023 0 0.104585
0 0.710567 0.273487
0 0.710353 0.27274
0 0.710201 0.272251
0 0.709621 0.270268
0 0.707729 0.263813
0.941054 0.844541 0
0.999512 0.668849 0.000106813
0.799023 0 0.104585
0.799023 0 0.104585
0 0.74934 0.534905
0 0.749325 0.534707
0 0.74931 0.534493
0 0.749264 0.534066
0 0.749126 0.532387
0 0.748669 0.526696
1 0.915434 0.294438
0.999985 0.883101 0.179782
0.799023 0 0.104585
0 0.759518 0.704952
0 0.759518 0.704952
0 0.759518 0.704952
0 0.759518 0.704829
0 0.759503 0.704616
0 0.759457 0.703716
0 0.759258 0.700603
1 0.972503 0.721828
1 0.959258 0.617044
0 0.760098 0.715557
0 0.760098 0.715557
0 0.760098 0.715557
0 0.760098 0.715557
0 0.760098 0.715557
0 0.760098 0.715557
0 0.760098 0.715557
0 0.760098 0.715557
1 0.9823 0.814389
0.0283207 0.0149538 0.130404
0.066041 0.0236362 0.119295
0.266087 0.0476081 0.111116
0.563272 0 0.105226
0.774563 0 0.0925765
0.797162 0 0.100771
0.798993 0 0.104463
0.799023 0 0.104585
0.799023 0 0.104585
0.0286717 0.0194705 0.116243
0.0296178 0.0179294 0.105119
0.203738 0.0533761 0.0978103
0.547585 0 0.0919814
0.772625 0 0.0702068
0.79733 0 0.101259
0.798993 0 0.104463
0.799023 0 0.104585
0.799023 0 0.104585
0 0.130495 0.105653
0 0.118029 0.104158
0.0849317 0.084123 0.0813153
0.476158 0.00505074 0.061265
0.769955 0 0.0425422
0.797452 0 0.101579
0.798978 0 0.104463
0.799023 0 0.104585
0.799023 0 0.104585
0 0.369772 0.0502937
0 0.365774 0.0481117
0 0.360662 0.0452583
0.334035 0.29865 0.00268559
0.767071 0.00791943 0
0.797452 0 0.101701
0.798978 0 0.104463
0.799023 0 0.104585
0.799023 0 0.104585
0 0.602808 0.00576791
0 0.601877 0.00546273
0 0.600412 0.0049897
0 0.599481 0.00468452
0.689921 0.621317 0
0.924514 0.37084 0.0266575
0.798978 0 0.104463
0.799023 0 0.104585
0.799023 0 0.104585
0 0.710353 0.27274
0 0.710201 0.272251
0 0.710048 0.271748
0 0.709468 0.269764
0 0.707576 0.26331
0.941054 0.844541 0
0.999451 0.668315 0.000122072
0.799023 0 0.104585
0.799023 0 0.104585
0 0.749325 0.534707
0 0.74931 0.534493
0 0.74931 0.534493
0 0.749249 0.533852
0 0.749111 0.532174
0 0.748653 0.526482
1 0.915541 0.295308
0.999985 0.883177 0.180209
0.799023 0 0.104585
0 0.759518 0.704952
0 0.759518 0.704952
0 0.759518 0.704952
0 0.759518 0.704829
0 0.759503 0.704616
0 0.759441 0.703609
0 0.759258 0.700603
1 0.972503 0.721828
1 0.959258 0.617044
0 0.760098 0.715557
0 0.760098 0.715557
0 0.760098 0.715557
0 0.760098 0.715557
0 0.760098 0.715557
0 0.760098 0.715557
0 0.760098 0.715557
0 0.760098 0.715557
1 0.9823 0.814389
0 0.0508736 0.319936
0.0016022 0.0411841 0.312291
0.207782 0.00874342 0.316976
0.507805 0 0.301411
0.774823 0 0.31249
0.804135 0 0.271046
0.79913 0 0.105669
0.799023 0 0.104585
0.799023 0 0.104585
0 0.0498207 0.316228
0 0.0493172 0.314473
0.147036 0.0202945 0.314168
0.490959 0 0.297749
0.772473 0 0.307134
0.803876 0 0.265278
0.799023 0 0.104875
0.799023 0 0.104585
0.799023 0 0.104585
0 0.094377 0.323323
0 0.0838178 0.321111
0.00570687 0.0588388 0.29163
0.448402 0.00233463 0.278126
0.769955 0 0.300114
0.80354 0 0.258244
0.798962 0 0.104433
0.799023 0 0.104585
0.799023 0 0.104585
0 0.353399 0.333791
0 0.348913 0.333455
0 0.34255 0.33312
0.269764 0.269886 0.260929
0.739284 0.00680552 0.222248
0.802426 0 0.234379
0.798978 0 0.104463
0.799023 0 0.104585
0.799023 0 0.104585
0 0.602869 0.263371
0 0.60148 0.261799
0 0.600092 0.2598
0 0.598718 0.258015
0.642039 0.584817 0.0606394
0.904433 0.314443 0.0992599
0.798978 0 0.104448
0.799023 0 0.104585
0.799023 0 0.104585
0 0.709911 0.27126
0 0.709758 0.270756
0 0.709545 0.270008
0 0.708965 0.268025
0 0.707362 0.262577
0.940749 0.844205 0
0.999069 0.66508 0.000213626
0.799023 0 0.104585
0.799023 0 0.104585
0 0.749294 0.534279
0 0.749264 0.534066
0 0.749264 0.534066
0 0.749218 0.53344
0 0.749081 0.531746
0 0.748608 0.526055
1 0.915648 0.296178
0.999985 0.883192 0.180591
0.799023 0 0.104585
0 0.759518 0.704952
0 0.759518 0.704829
0 0.759518 0.704829
0 0.759518 0.704723
0 0.759503 0.704494
0 0.759441 0.703609
0 0.759258 0.700603
1 0.972473 0.721569
1 0.959228 0.616709
0 0.760098 0.715557
0 0.760098 0.715557
0 0.760098 0.715557
0 0.760098 0.715557
0 0.760098 0.715557
0 0.760098 0.715557
0 0.760098 0.715557
0 0.760098 0.715557
1 0.9823 0.814389
0 0.100114 0.52343
0 0.100038 0.523278
0.00375372 0.0905928 0.532876
0.455482 0.0496223 0.577844
0.759396 0 0.534234
0.817945 0 0.541833
0.819593 0 0.473045
0.804685 0 0.174823
0.799023 0 0.104585
0 0.0995499 0.522423
0 0.0993973 0.522133
0 0.0982376 0.521492
0.431373 0.0579232 0.577523
0.755154 0 0.533211
0.817792 0 0.540368
0.819455 0 0.471092
0.804334 0 0.168215
0.799023 0 0.104585
0 0.0987411 0.520974
0 0.0986648 0.520836
0 0.0985733 0.520684
0.398367 0.0686503 0.577127
0.749874 0 0.532097
0.817609 0 0.53872
0.819287 0 0.468772
0.803906 0 0.160327
0.799023 0 0.104585
0 0.286671 0.560357
0 0.281498 0.560616
0 0.274891 0.560708
0.085008 0.228595 0.554528
0.714778 0.00015259 0.512352
0.81706 0 0.533776
0.818814 0 0.461936
0.802457 0 0.133455
0.799023 0 0.104585
0 0.591455 0.598901
0 0.590082 0.598596
0 0.588357 0.598093
0 0.586114 0.600198
0.563485 0.553353 0.53341
0.894728 0.260349 0.466377
0.817121 0 0.435798
0.799023 0 0.104585
0.799023 0 0.104585
0 0.7364 0.555993
0 0.736278 0.555489
0 0.73608 0.554711
0 0.735576 0.552819
0 0.734279 0.548119
0.89308 0.841184 0.366522
0.990662 0.622782 0.305562
0.799023 0 0.104585
0.799023 0 0.104585
0 0.749187 0.533013
0 0.749172 0.532799
0 0.749142 0.532586
0 0.749111 0.532174
0 0.748974 0.53048
0 0.748516 0.524804
1 0.91606 0.299641
0.999985 0.88333 0.182147
0.799023 0 0.104585
0 0.759518 0.704723
0 0.759503 0.704616
0 0.759503 0.704616
0 0.759503 0.704494
0 0.759487 0.70428
0 0.759426 0.703395
0 0.759258 0.700389
1 0.972412 0.721035
1 0.959045 0.615396
0 0.760098 0.715557
0 0.760098 0.715557
0 0.760098 0.715557
0 0.760098 0.715557
0 0.760098 0.715557
0 0.760098 0.715557
0 0.760098 0.715557
0 0.760098 0.715557
1 0.9823 0.814389
0 0.346075 0.712322
0 0.3458 0.712184
0 0.3458 0.712184
0.0984665 0.3635 0.731273
0.753902 0.287694 0.776852
0.869337 0.0507515 0.740536
0.813092 0 0.67245
0.821927 0 0.641016
0.818509 0 0.443656
0 0.345235 0.71191
0 0.345235 0.71191
0 0.345235 0.71191
0.0384222 0.359152 0.724132
0.747005 0.290013 0.776638
0.869261 0.050782 0.740475
0.813107 0 0.672358
0.821988 0 0.640772
0.818387 0 0.441764
0 0.344671 0.711635
0 0.344396 0.711513
0 0.344396 0.711513
0.00292973 0.352804 0.717845
0.737987 0.292088 0.776181
0.869108 0.0506752 0.740322
0.813077 0 0.672175
0.82211 0 0.640299
0.818219 0 0.439231
0 0.342153 0.71043
0 0.342153 0.71043
0 0.342153 0.71043
0 0.341588 0.710155
0.708171 0.299931 0.774868
0.868849 0.0515755 0.7402
0.813016 0 0.671656
0.822446 0 0.639002
0.817716 0 0.431617
0 0.535439 0.746059
0 0.533928 0.745953
0 0.532143 0.745815
0 0.52665 0.745403
0.437903 0.535988 0.789944
0.898802 0.203418 0.7579
0.812482 0 0.66952
0.82356 0 0.634623
0.816098 0 0.403449
0 0.725612 0.764202
0 0.72549 0.764187
0 0.725338 0.764111
0 0.724804 0.763989
0 0.723018 0.763592
0.834287 0.817212 0.787915
0.980819 0.606455 0.742458
0.827253 0 0.619211
0.809171 0 0.262303
0 0.758495 0.738903
0 0.75848 0.738888
0 0.75848 0.738811
0 0.758465 0.738567
0 0.758419 0.737819
0 0.758236 0.735653
0.99559 0.956359 0.699962
1 0.882048 0.63859
0.799023 0 0.104585
0 0.759457 0.703944
0 0.759457 0.703944
0 0.759457 0.703944
0 0.759457 0.703838
0 0.759441 0.703502
0 0.75938 0.702617
0 0.759213 0.699611
1 0.972839 0.724849
1 0.958572 0.611765
0 0.760098 0.715557
0 0.760098 0.715557
0 0.760098 0.715557
0 0.760098 0.715557
0 0.760098 0.715557
0 0.760098 0.715557
0 0.760098 0.715557
0 0.760098 0.715557
1 0.9823 0.814389
0.14258 0.679469 0.822049
0.14258 0.679469 0.822049
0.14258 0.679469 0.822049
0.14258 0.679469 0.822049
0.579263 0.705852 0.850645
0.943618 0.671183 0.86656
0.979614 0.585382 0.852934
0.924895 0.312505 0.795483
0.857176 0.0511635 0.730495
0.14258 0.679469 0.822049
0.141878 0.679194 0.821958
0.141878 0.679194 0.821958
0.141878 0.679194 0.821958
0.565988 0.704997 0.849607
0.942885 0.671672 0.866606
0.979629 0.58555 0.852964
0.924895 0.312505 0.795483
0.857176 0.0511635 0.730495
0.141878 0.679194 0.821958
0.141878 0.679194 0.821958
0.141176 0.678935 0.821881
0.141176 0.678935 0.821881
0.548318 0.703624 0.848188
0.94197 0.671946 0.866606
0.979568 0.585382 0.852934
0.924529 0.311101 0.795132
0.856809 0.0497749 0.730144
0.140475 0.678676 0.82179
0.140475 0.678676 0.82179
0.139788 0.678401 0.821714
0.139788 0.678401 0.821714
0.486152 0.699077 0.843336
0.939147 0.673167 0.866697
0.979416 0.584833 0.852842
0.923812 0.308309 0.794446
0.85536 0.0441749 0.728756
0.135576 0.676814 0.821195
0.135576 0.676814 0.821195
0.13489 0.676555 0.821118
0.13489 0.676555 0.821118
0.134188 0.676295 0.821027
0.927352 0.676616 0.866743
0.979004 0.583688 0.852644
0.920546 0.295735 0.791318
0.851743 0.0302129 0.725277
0 0.766522 0.825437
0 0.766415 0.825422
0 0.766278 0.825406
0 0.765606 0.825284
0 0.764187 0.825132
0.773358 0.819654 0.881224
0.988067 0.656245 0.865614
0.909682 0.253803 0.78088
0.843336 0.00469978 0.71722
0 0.756603 0.813184
0 0.756588 0.813169
0 0.756558 0.813169
0 0.756527 0.813138
0 0.756344 0.813046
0 0.755718 0.812741
0.971252 0.957107 0.90602
1 0.880781 0.896529
0.829923 0.00216678 0.704433
0 0.761517 0.79852
0 0.761517 0.798489
0 0.761517 0.798489
0 0.761517 0.798459
0 0.761517 0.798383
0 0.761501 0.798154
0 0.761486 0.797208
1 0.987366 0.903731
1 0.982498 0.864225
0 0.760098 0.715557
0 0.760098 0.715557
0 0.760098 0.715557
0 0.760098 0.715557
0 0.760098 0.715557
0 0.760098 0.715557
0 0.760098 0.715557
0 0.760098 0.715557
1 0.9823 0.814389
0.723796 0.901122 0.890471
0.723796 0.901122 0.890471
0.723796 0.901122 0.890471
0.723796 0.901122 0.890471
0.723796 0.901122 0.890471
0.886976 0.918318 0.901274
0.999954 0.913985 0.905501
1 0.891142 0.903044
1 0.883192 0.902007
0.723796 0.901122 0.890471
0.723796 0.901122 0.890471
0.723796 0.901122 0.890471
0.723796 0.901122 0.890471
0.723796 0.901122 0.890471
0.88539 0.918074 0.901167
0.999954 0.914015 0.905501
1 0.891142 0.903044
1 0.883192 0.902007
0.723796 0.901122 0.890471
0.723796 0.901122 0.890471
0.723796 0.901122 0.890471
0.723796 0.901122 0.890471
0.723461 0.900984 0.890425
0.883314 0.917891 0.901061
0.999939 0.913924 0.905486
1 0.891142 0.903044
1 0.883192 0.902007
0.723461 0.900984 0.890425
0.723461 0.900984 0.890425
0.723461 0.900984 0.890425
0.723461 0.900984 0.890425
0.723461 0.900984 0.890425
0.877058 0.917296 0.900679
0.999924 0.914061 0.905501
1 0.890974 0.903014
1 0.88304 0.901991
0.722805 0.900725 0.890364
0.722805 0.900725 0.890364
0.722805 0.900725 0.890364
0.722484 0.900587 0.890318
0.722484 0.900587 0.890318
0.85214 0.914946 0.899184
0.999863 0.914153 0.90547
1 0.890654 0.902968
1 0.882582 0.90193
0.71986 0.899519 0.890028
0.71986 0.899519 0.890028
0.71986 0.899519 0.890028
0.71986 0.899519 0.890028
0.71986 0.899519 0.890028
0.719203 0.89926 0.889952
0.999664 0.914763 0.905455
1 0.889647 0.902846
1 0.881193 0.901747
0.503639 0.905257 0.880995
0.503807 0.905272 0.880995
0.504158 0.905318 0.88101
0.504692 0.905364 0.881041
0.506966 0.905577 0.881163
0.512734 0.90605 0.881422
0.956298 0.963104 0.910613
1 0.913436 0.905913
1 0.876905 0.901198
0 0.762387 0.8215
0 0.762387 0.8215
0 0.762387 0.8215
0 0.762387 0.8215
0 0.762387 0.8215
0 0.762356 0.8215
0 0.762264 0.8215
1 0.988144 0.918441
1 0.985168 0.917372
0 0.761456 0.819089
0 0.761456 0.819089
0 0.761456 0.819089
0 0.761456 0.819089
0 0.761456 0.819074
0 0.76144 0.819059
0 0.761425 0.818998
0 0.761349 0.81883
1 0.991241 0.919707
0.775448 0.922713 0.896269
0.775448 0.922713 0.896269
0.775448 0.922713 0.896269
0.775448 0.922713 0.896269
0.775448 0.922713 0.896269
0.775448 0.922713 0.896269
0.973602 0.935836 0.907149
1 0.91014 0.905501
1 0.91014 0.905501
0.775448 0.922713 0.896269
0.775448 0.922713 0.896269
0.775448 0.922713 0.896269
0.775448 0.922713 0.896269
0.775448 0.922713 0.896269
0.775448 0.922713 0.896269
0.973251 0.935851 0.907134
1 0.91014 0.905501
1 0.91014 0.905501
0.775448 0.922713 0.896269
0.775448 0.922713 0.896269
0.775448 0.922713 0.896269
0.775448 0.922713 0.896269
0.775448 0.922713 0.896269
0.775448 0.922713 0.896269
0.972854 0.935866 0.907134
1 0.91014 0.905501
1 0.91014 0.905501
0.775448 0.922713 0.896269
0.775448 0.922713 0.896269
0.775448 0.922713 0.896269
0.775448 0.922713 0.896269
0.775448 0.922713 0.896269
0.775448 0.922713 0.896269
0.971649 0.935897 0.907088
1 0.91014 0.905501
1 0.91014 0.905501
0.775448 0.922713 0.896269
0.775448 0.922713 0.896269
0.775448 0.922713 0.896269
0.775448 0.922713 0.896269
0.775448 0.922713 0.896269
0.775448 0.922713 0.896269
0.967269 0.936034 0.90695
1 0.91014 0.905501
1 0.91014 0.905501
0.775448 0.922713 0.896269
0.775448 0.922713 0.896269
0.775448 0.922713 0.896269
0.775448 0.922713 0.896269
0.775448 0.922713 0.896269
0.775448 0.922713 0.896269
0.948806 0.935744 0.906203
1 0.91014 0.905501
1 0.91014 0.905501
0.775448 0.922713 0.896269
0.775448 0.922713 0.896269
0.775448 0.922713 0.896269
0.775448 0.922713 0.896269
0.775448 0.922713 0.896269
0.775448 0.922713 0.896269
0.775448 0.922713 0.896269
1 0.911055 0.905608
1 0.91014 0.905501
0.248722 0.875059 0.865202
0.25005 0.875257 0.865309
0.25005 0.875257 0.865309
0.251392 0.875441 0.865415
0.256748 0.876188 0.865858
0.272786 0.878416 0.86717
0.328954 0.886259 0.871748
0.999985 0.985962 0.917586
1 0.977447 0.915419
0 0.763943 0.822736
0 0.763943 0.822736
0 0.763943 0.822736
0 0.763943 0.822736
0 0.763943 0.822736
0 0.763943 0.822736
0 0.763943 0.822736
0 0.763943 0.822736
1 0.991485 0.919829
