Luts/Leica/L-Log_to_Natural_VLog.cube
TITLE "Generated by Resolve"
LUT_3D_SIZE 9
0 0 0
0.100481 0 0
0.25452 0 0
0.516716 0 0
0.804471 0 0.0221866
1 0 0.0571145
1 0 0.0759442
1 0 0.0801404
1 0 0.0801404
0 0.0300603 0
0.0147097 0.0144503 0
0.207675 0 0
0.499046 0 0
0.798871 0 0.0215763
1 0 0.0569619
1 0 0.0759289
1 0 0.0801404
1 0 0.0801404
0 0.142 0
0 0.13315 0
0.115755 0.111894 0
0.470298 0.00138857 0
0.791226 0 0.020737
1 0 0.0567788
1 0 0.0759136
1 0 0.0801404
1 0 0.0801404
0 0.355093 0
0 0.350866 0
0 0.345144 0
0.316289 0.306828 0
0.764263 0.101717 0.00494392
1 0 0.0561379
1 0 0.0758373
1 0 0.0801404
1 0 0.0801404
0 0.631449 0
0 0.629999 0
0 0.626825 0
0 0.625116 0
0.582498 0.584817 0
0.995987 0.365454 0
1 0 0.075639
1 0 0.0801404
1 0 0.0801404
0 0.892882 0.0188907
0 0.892454 0.0187533
0 0.891798 0.0185245
0 0.890074 0.0179294
0 0.88423 0.0159152
0.83299 0.848737 0.0265202
1 0.66041 0
1 0 0.0801404
1 0 0.0801404
0 1 0.449165
0 1 0.449165
0 1 0.448859
0 1 0.447959
0 1 0.445563
0 1 0.437461
0.98822 0.999832 0.406317
1 0.915358 0.0665293
1 0 0.0801404
0 1 0.75697
0 1 0.756725
0 1 0.756725
0 1 0.756481
0 1 0.755978
0 1 0.754009
0 1 0.747326
1 1 0.711849
1 1 0.579309
0 1 0.823728
0 1 0.823728
0 1 0.823728
0 1 0.823728
0 1 0.823728
0 1 0.823728
0 1 0.823728
0 1 0.823728
1 1 0.816571
0 0 0.0186923
0.0909438 0 0.0176242
0.248936 0 0.0185702
0.51458 0 0.0256809
0.803677 0 0.0327001
1 0 0.057084
1 0 0.0759442
1 0 0.0801404
1 0 0.0801404
0 0.0214847 0.00686656
0.00712596 0.00665293 0.00648508
0.203037 0 0.00733959
0.496529 0 0.0148928
0.798108 0 0.0245518
1 0 0.0569619
1 0 0.0759289
1 0 0.0801404
1 0 0.0801404
0 0.136782 0
0 0.127489 0
0.10956 0.105715 0
0.467536 0.00210575 0.00103761
0.790707 0 0.020676
1 0 0.0567178
1 0 0.0758984
1 0 0.0801404
1 0 0.0801404
0 0.350866 0
0 0.34638 0
0 0.340917 0
0.312627 0.301854 0
0.764019 0.0915084 0.00553903
1 0 0.0561074
1 0 0.0758373
1 0 0.0801404
1 0 0.0801404
0 0.630243 0
0 0.628534 0
0 0.625605 0
0 0.62414 0
0.581872 0.584115 0
0.996033 0.361547 0
1 0 0.075639
1 0 0.0801404
1 0 0.0801404
0 0.892668 0.0188144
0 0.892027 0.0186007
0 0.891585 0.0184482
0 0.88986 0.0178531
0 0.88423 0.0159152
0.832792 0.848524 0.0263371
1 0.659419 0
1 0 0.0801404
1 0 0.0801404
0 1 0.449165
0 1 0.448859
0 1 0.448569
0 1 0.447959
0 1 0.445563
0 1 0.437461
0.98822 0.999832 0.406317
1 0.915251 0.0663157
1 0 0.0801404
0 1 0.756725
0 1 0.756725
0 1 0.756725
0 1 0.756481
0 1 0.755978
0 1 0.754009
0 1 0.747082
1 1 0.711849
1 1 0.579309
0 1 0.823728
0 1 0.823728
0 1 0.823728
0 1 0.823728
0 1 0.823728
0 1 0.823728
0 1 0.823728
0 1 0.823728
1 1 0.816571
0 0 0.123308
0.074815 0 0.121675
0.241459 0 0.120653
0.51165 0 0.120272
0.802411 0 0.111574
1 0 0.0711376
1 0 0.0759289
1 0 0.0801404
1 0 0.0801404
0 0.000503548 0.113649
0.000335698 0 0.112718
0.196948 0 0.111513
0.492988 0 0.110231
0.797086 0 0.101961
1 0 0.0656748
1 0 0.0759136
1 0 0.0801404
1 0 0.0801404
0 0.130343 0.100221
0 0.120287 0.099382
0.0973831 0.0983902 0.0987564
0.465187 0 0.100282
0.789441 0 0.0901808
1 0 0.0596017
1 0 0.0758984
1 0 0.0801404
1 0 0.0801404
0 0.349752 0.0192111
0 0.345327 0.0181277
0 0.33991 0.0167391
0.306966 0.300679 0.0239567
0.7635 0.0870832 0.0523384
1 0 0.0560464
1 0 0.0758373
1 0 0.0801404
1 0 0.0801404
0 0.628534 0
0 0.626825 0
0 0.62414 0
0 0.622446 0
0.580514 0.582238 0
0.996201 0.357046 0
1 0 0.0756237
1 0 0.0801404
1 0 0.0801404
0 0.892027 0.0186007
0 0.891585 0.0184482
0 0.891157 0.0182956
0 0.889418 0.0177005
0 0.883787 0.0157626
0.832792 0.848524 0.0263371
1 0.658854 0
1 0 0.0801404
1 0 0.0801404
0 1 0.448859
0 1 0.448569
0 1 0.448569
0 1 0.447669
0 1 0.445258
0 1 0.437156
0.988449 0.999847 0.406958
1 0.915343 0.0665141
1 0 0.0801404
0 1 0.756725
0 1 0.756725
0 1 0.756725
0 1 0.756481
0 1 0.755978
0 1 0.753765
0 1 0.747082
1 1 0.711849
1 1 0.579309
0 1 0.823728
0 1 0.823728
0 1 0.823728
0 1 0.823728
0 1 0.823728
0 1 0.823728
0 1 0.823728
0 1 0.823728
1 1 0.816571
0 0 0.32636
0.000198367 0 0.324895
0.210163 0 0.323659
0.499657 0 0.32166
0.798154 0 0.312703
1 0 0.266346
1 0 0.0836805
1 0 0.0801404
1 0 0.0801404
0 0 0.321569
0 0 0.319295
0.158068 0 0.31809
0.480888 0 0.316289
0.792615 0 0.307271
1 0 0.260227
1 0 0.0801709
1 0 0.0801404
1 0 0.0801404
0 0.0619211 0.313832
0 0.0439155 0.313832
0.0298009 0.0154574 0.31342
0.453712 0 0.311711
0.786099 0 0.299825
1 0 0.25275
1 0 0.0775006
1 0 0.0801404
1 0 0.0801404
0 0.336645 0.286824
0 0.332296 0.28719
0 0.326131 0.287831
0.284138 0.286534 0.287449
0.758206 0.0377966 0.283284
1 0 0.227497
1 0 0.0758221
1 0 0.0801404
1 0 0.0801404
0 0.621134 0.188449
0 0.619242 0.186954
0 0.617365 0.185
0 0.615488 0.183291
0.57435 0.575723 0.173602
0.995972 0.347936 0.138888
1 0 0.0756237
1 0 0.0801404
1 0 0.0801404
0 0.890715 0.018143
0 0.890288 0.0180056
0 0.889632 0.0177768
0 0.887907 0.0171817
0 0.883146 0.0155337
0.832486 0.847852 0.0257725
1 0.655467 0
1 0 0.0801404
1 0 0.0801404
0 1 0.448264
0 1 0.447959
0 1 0.447959
0 1 0.447059
0 1 0.444663
0 1 0.436561
0.988815 0.999863 0.407568
1 0.915221 0.0662852
1 0 0.0801404
0 1 0.756725
0 1 0.756481
0 1 0.756481
0 1 0.756237
0 1 0.755734
0 1 0.753765
0 1 0.747082
1 1 0.711604
1 1 0.578988
0 1 0.823728
0 1 0.823728
0 1 0.823728
0 1 0.823728
0 1 0.823728
0 1 0.823728
0 1 0.823728
0 1 0.823728
1 1 0.816571
0 0.000137331 0.590784
0 0.000137331 0.590555
0.0113222 0 0.589624
0.45182 0 0.589014
0.779049 0 0.587549
1 0 0.577447
1 0 0.517617
1 0 0.0812085
1 0 0.0801404
0 0.000122072 0.589181
0 0.000122072 0.588724
0 0 0.588113
0.429297 0 0.587335
0.773297 0 0.58587
1 0 0.57557
1 0 0.515114
1 0 0.0810559
1 0 0.0801404
0 0.000106813 0.586892
0 0.000106813 0.586664
0 0.000106813 0.586435
0.398611 0 0.585153
0.766033 0 0.583947
1 0 0.573465
1 0 0.512123
1 0 0.0808881
1 0 0.0801404
0 0.287892 0.573083
0 0.282094 0.574334
0 0.274708 0.575616
0.177066 0.22855 0.57789
0.739773 0 0.579263
1 0 0.566918
1 0 0.50338
1 0 0.0802777
1 0 0.0801404
0 0.593957 0.541711
0 0.592111 0.541497
0 0.589822 0.54107
0 0.586786 0.543847
0.543648 0.545983 0.546654
0.993011 0.295796 0.542123
1 0 0.470466
1 0 0.0801404
1 0 0.0801404
0 0.87219 0.466651
0 0.871763 0.466178
0 0.871153 0.465492
0 0.869474 0.463859
0 0.865064 0.45977
0.822477 0.830427 0.450706
1 0.634928 0.349752
1 0 0.0801404
1 0 0.0801404
0 1 0.446464
0 1 0.446159
0 1 0.445869
0 1 0.445258
0 1 0.442863
0 1 0.43476
0.989899 0.999939 0.410117
1 0.915007 0.0657969
1 0 0.0801404
0 1 0.756237
0 1 0.755978
0 1 0.755978
0 1 0.755734
0 1 0.755245
0 1 0.753262
0 1 0.746578
1 1 0.711101
1 1 0.577676
0 1 0.823728
0 1 0.823728
0 1 0.823728
0 1 0.823728
0 1 0.823728
0 1 0.823728
0 1 0.823728
0 1 0.823728
1 1 0.816571
0 0.302052 0.838804
0 0.301732 0.83859
0 0.301732 0.83859
0.209079 0.287709 0.837736
0.709682 0.199649 0.838026
1 0.00410468 0.838727
1 0 0.832395
1 0 0.775647
1 0 0.453346
0 0.30106 0.838193
0 0.30106 0.838193
0 0.30106 0.838193
0.144808 0.289158 0.837247
0.70309 0.201541 0.837568
1 0.00415045 0.8383
1 0 0.831983
1 0 0.775143
1 0 0.450309
0 0.300404 0.837781
0 0.300069 0.837583
0 0.300069 0.837583
0.0616922 0.291218 0.836713
0.694697 0.203357 0.836896
1 0.00421149 0.837659
1 0 0.831342
1 0 0.774166
1 0 0.446265
0 0.297429 0.83595
0 0.297429 0.83595
0 0.297429 0.83595
0 0.296773 0.835554
0.666957 0.210269 0.835081
0.996338 0.00660716 0.83595
1 0 0.82945
1 0 0.77145
1 0 0.434119
0 0.563272 0.817807
0 0.561502 0.817868
0 0.559411 0.817945
0 0.552972 0.818143
0.464897 0.519249 0.825101
0.979492 0.266407 0.829953
1 0 0.822934
1 0 0.762341
1 0 0.386267
0 0.839094 0.788281
0 0.838682 0.788296
0 0.838071 0.788098
0 0.83624 0.787915
0 0.829938 0.787198
0.794736 0.795361 0.795483
1 0.588052 0.790311
1 0 0.730694
1 0 0.158541
0 1 0.739757
0 1 0.739681
0 1 0.739452
0 1 0.738796
0 1 0.736721
0 1 0.730465
0.978836 0.996017 0.722118
1 0.886259 0.608377
1 0 0.0801404
0 1 0.754498
0 1 0.754498
0 1 0.754498
0 1 0.754253
0 1 0.753506
0 1 0.751537
0 1 0.744854
1 1 0.714519
1 1 0.57406
0 1 0.823728
0 1 0.823728
0 1 0.823728
0 1 0.823728
0 1 0.823728
0 1 0.823728
0 1 0.823728
0 1 0.823728
1 1 0.816571
0.167437 0.64535 0.987442
0.167437 0.64535 0.987442
0.167437 0.64535 0.987442
0.167437 0.64535 0.987442
0.52105 0.63537 0.987594
0.937102 0.595972 0.9897
1 0.461997 0.99382
1 0 0.99765
1 0 0.985473
0.167437 0.64535 0.987442
0.166979 0.64506 0.987381
0.166979 0.64506 0.987381
0.166979 0.64506 0.987381
0.508949 0.635889 0.987549
0.935637 0.596292 0.989685
1 0.462409 0.993805
1 0 0.99765
1 0 0.985473
0.166979 0.64506 0.987381
0.166979 0.64506 0.987381
0.166522 0.64477 0.98732
0.166522 0.64477 0.98732
0.492927 0.636286 0.987427
0.933852 0.596353 0.989609
1 0.462531 0.993759
1 0 0.997589
1 0 0.985412
0.166049 0.644495 0.987259
0.166049 0.644495 0.987259
0.165591 0.644205 0.987198
0.165591 0.644205 0.987198
0.438911 0.637888 0.987213
0.928252 0.596918 0.989441
1 0.462669 0.993637
1 0 0.997452
1 0 0.985153
0.162814 0.642512 0.986847
0.162814 0.642512 0.986847
0.162341 0.642222 0.986786
0.162341 0.642222 0.986786
0.161883 0.641932 0.986725
0.907835 0.598276 0.98883
1 0.463935 0.993255
1 0 0.996872
1 0 0.984497
0 0.831861 0.971038
0 0.83151 0.971069
0 0.831052 0.971099
0 0.829465 0.971008
0 0.824521 0.971328
0.73753 0.799924 0.97731
1 0.635599 0.986038
1 0 0.994919
1 0 0.980957
0 0.986053 0.953063
0 0.985977 0.953063
0 0.985885 0.953063
0 0.985733 0.952987
0 0.984985 0.952911
0 0.982437 0.952667
0.959197 0.960021 0.959854
1 0.851331 0.959579
1 0 0.964126
0 1 0.937255
0 1 0.937194
0 1 0.937194
0 1 0.937072
0 1 0.936828
0 1 0.936019
0 1 0.932967
1 1 0.931823
1 1 0.873991
0 1 0.823728
0 1 0.823728
0 1 0.823728
0 1 0.823728
0 1 0.823728
0 1 0.823728
0 1 0.823728
0 1 0.823728
1 1 0.816571
0.61091 0.906432 1
0.61091 0.906432 1
0.61091 0.906432 1
0.61091 0.906432 1
0.61091 0.906432 1
0.808515 0.900008 1
1 0.88191 1
1 0.811093 1
1 0.791989 1
0.61091 0.906432 1
0.61091 0.906432 1
0.61091 0.906432 1
0.61091 0.906432 1
0.61091 0.906432 1
0.806134 0.899931 1
1 0.881941 1
1 0.811185 1
1 0.791989 1
0.61091 0.906432 1
0.61091 0.906432 1
0.61091 0.906432 1
0.61091 0.906432 1
0.610574 0.906279 1
0.80296 0.900053 1
1 0.881788 1
1 0.811185 1
1 0.791989 1
0.610574 0.906279 1
0.610574 0.906279 1
0.610574 0.906279 1
0.610574 0.906279 1
0.610574 0.906279 1
0.793942 0.900328 1
1 0.881926 1
1 0.811139 1
1 0.791638 1
0.609903 0.905959 1
0.609903 0.905959 1
0.609903 0.905959 1
0.609567 0.905806 1
0.609567 0.905806 1
0.758587 0.900999 1
1 0.881819 1
1 0.811215 1
1 0.790555 1
0.606882 0.904585 1
0.606882 0.904585 1
0.606882 0.904585 1
0.606882 0.904585 1
0.606882 0.904585 1
0.60621 0.90428 1
1 0.881895 1
1 0.812024 1
1 0.787335 1
0.266941 0.981552 1
0.267384 0.981506 1
0.268299 0.981414 1
0.269657 0.981292 1
0.275547 0.980728 1
0.291859 0.978882 1
0.939803 0.966934 1
1 0.901503 1
1 0.777325 1
0 1 1
0 1 1
0 1 1
0 1 1
0 1 1
0 1 1
0 1 1
1 1 1
1 0.996445 1
0 1 0.997345
0 1 0.997345
0 1 0.997345
0 1 0.997345
0 1 0.99733
0 1 0.997299
0 1 0.997177
0 1 0.996826
1 1 1
0.719783 0.949966 1
0.719783 0.949966 1
0.719783 0.949966 1
0.719783 0.949966 1
0.719783 0.949966 1
0.719783 0.949966 1
0.948287 0.94342 1
1 0.917723 1
1 0.912016 1
0.719783 0.949966 1
0.719783 0.949966 1
0.719783 0.949966 1
0.719783 0.949966 1
0.719783 0.949966 1
0.719783 0.949966 1
0.947738 0.943435 1
1 0.917723 1
1 0.912016 1
0.719783 0.949966 1
0.719783 0.949966 1
0.719783 0.949966 1
0.719783 0.949966 1
0.719783 0.949966 1
0.719783 0.949966 1
0.947112 0.943465 1
1 0.917754 1
1 0.912016 1
0.719783 0.949966 1
0.719783 0.949966 1
0.719783 0.949966 1
0.719783 0.949966 1
0.719783 0.949966 1
0.719783 0.949966 1
0.945235 0.943526 1
1 0.917861 1
1 0.912016 1
0.719783 0.949966 1
0.719783 0.949966 1
0.719783 0.949966 1
0.719783 0.949966 1
0.719783 0.949966 1
0.719783 0.949966 1
0.938308 0.943786 1
1 0.918166 1
1 0.912016 1
0.719783 0.949966 1
0.719783 0.949966 1
0.719783 0.949966 1
0.719783 0.949966 1
0.719783 0.949966 1
0.719783 0.949966 1
0.911284 0.944976 1
1 0.919203 1
1 0.912016 1
0.719783 0.949966 1
0.719783 0.949966 1
0.719783 0.949966 1
0.719783 0.949966 1
0.719783 0.949966 1
0.719783 0.949966 1
0.719783 0.949966 1
1 0.922316 1
1 0.912016 1
0.170672 1 1
0.171603 1 1
0.171603 1 1
0.172519 1 1
0.176181 1 1
0.187198 1 1
0.225742 1 1
0.999878 1 1
1 0.983352 1
0 1 1
0 1 1
0 1 1
0 1 1
0 1 1
0 1 1
0 1 1
0 1 1
1 1 1
