Luts/Leica/L-Log_to_Classic_VLog.cube
TITLE "Generated by Resolve"
LUT_3D_SIZE 5
0.00347906 0.00161746 0.00302129
0.331624 0.0401465 0.000320439
0.778317 0 0
0.798993 0 0.104463
0.799023 0 0.104585
0 0.153826 0.0525673
0.130327 0.112551 0.0428626
0.775464 0 0
0.798978 0 0.104463
0.799023 0 0.104585
0 0.604395 0.00628672
0 0.601877 0.00546273
0.692012 0.623957 0
0.798978 0 0.104463
0.799023 0 0.104585
0 0.74934 0.534905
0 0.749325 0.534707
0 0.749126 0.532387
1 0.915434 0.294438
0.799023 0 0.104585
0 0.760098 0.715557
0 0.760098 0.715557
0 0.760098 0.715557
0 0.760098 0.715557
1 0.9823 0.814389
0.0283207 0.0149538 0.130404
0.266087 0.0476081 0.111116
0.774563 0 0.0925765
0.798993 0 0.104463
0.799023 0 0.104585
0 0.130495 0.105653
0.0849317 0.084123 0.0813153
0.769955 0 0.0425422
0.798978 0 0.104463
0.799023 0 0.104585
0 0.602808 0.00576791
0 0.600412 0.0049897
0.689921 0.621317 0
0.798978 0 0.104463
0.799023 0 0.104585
0 0.749325 0.534707
0 0.74931 0.534493
0 0.749111 0.532174
1 0.915541 0.295308
0.799023 0 0.104585
0 0.760098 0.715557
0 0.760098 0.715557
0 0.760098 0.715557
0 0.760098 0.715557
1 0.9823 0.814389
0 0.100114 0.52343
0.00375372 0.0905928 0.532876
0.759396 0 0.534234
0.819593 0 0.473045
0.799023 0 0.104585
0 0.0987411 0.520974
0 0.0985733 0.520684
0.749874 0 0.532097
0.819287 0 0.468772
0.799023 0 0.104585
0 0.591455 0.598901
0 0.588357 0.598093
0.563485 0.553353 0.53341
0.817121 0 0.435798
0.799023 0 0.104585
0 0.749187 0.533013
0 0.749142 0.532586
0 0.748974 0.53048
1 0.91606 0.299641
0.799023 0 0.104585
0 0.760098 0.715557
0 0.760098 0.715557
0 0.760098 0.715557
0 0.760098 0.715557
1 0.9823 0.814389
0.14258 0.679469 0.822049
0.14258 0.679469 0.822049
0.579263 0.705852 0.850645
0.979614 0.585382 0.852934
0.857176 0.0511635 0.730495
0.141878 0.679194 0.821958
0.141176 0.678935 0.821881
0.548318 0.703624 0.848188
0.979568 0.585382 0.852934
0.856809 0.0497749 0.730144
0.135576 0.676814 0.821195
0.13489 0.676555 0.821118
0.134188 0.676295 0.821027
0.979004 0.583688 0.852644
0.851743 0.0302129 0.725277
0 0.756603 0.813184
0 0.756558 0.813169
0 0.756344 0.813046
0.971252 0.957107 0.90602
0.829923 0.00216678 0.704433
0 0.760098 0.715557
0 0.760098 0.715557
0 0.760098 0.715557
0 0.760098 0.715557
1 0.9823 0.814389
0.775448 0.922713 0.896269
0.775448 0.922713 0.896269
0.775448 0.922713 0.896269
0.973602 0.935836 0.907149
1 0.91014 0.905501
0.775448 0.922713 0.896269
0.775448 0.922713 0.896269
0.775448 0.922713 0.896269
0.972854 0.935866 0.907134
1 0.91014 0.905501
0.775448 0.922713 0.896269
0.775448 0.922713 0.896269
0.775448 0.922713 0.896269
0.967269 0.936034 0.90695
1 0.91014 0.905501
0.775448 0.922713 0.896269
0.775448 0.922713 0.896269
0.775448 0.922713 0.896269
0.775448 0.922713 0.896269
1 0.91014 0.905501
0 0.763943 0.822736
0 0.763943 0.822736
0 0.763943 0.822736
0 0.763943 0.822736
1 0.991485 0.919829
